(G-CODE GENERATED BY FLATCAM v8.994 - www.flatcam.org - Version Date: 2020/11/7)

(Name: AutoKey-Edge_Cuts.gbr_cutout_cnc)
(Type: G-code from Geometry)
(Units: MM)

(Created on Thursday, 30 November 2023 at 10:03)

(This preprocessor is the default preprocessor used by FlatCAM.)
(It is made to work with MACH3 compatible motion controllers.)

(TOOL DIAMETER: 0.8 mm)
(Feedrate_XY: 300.0 mm/min)
(Feedrate_Z: 100.0 mm/min)
(Feedrate rapids 1500.0 mm/min)

(Z_Cut: -2.0 mm)
(DepthPerCut: 0.2 mm <=>10 passes)
(Z_Move: 2.0 mm)
(Z Start: None mm)
(Z End: 15.0 mm)
(X,Y End: None mm)
(Steps per circle: 64)
(Preprocessor Geometry: default)

(X range:   -0.5500 ...   44.5500  mm)
(Y range:   -0.5500 ...   42.5500  mm)

(Spindle Speed: 10000.0 RPM)
G21
G90
G94

G01 F300.00

M5
G00 Z15.0000
G00 X0.0000 Y0.0000
T1
M6    
(MSG, Change to Tool Dia = 0.8000)
M0
G00 Z15.0000

M03 S10000.0
G01 F300.00
G00 X10.0250 Y-0.5500
G01 F100.00
G01 Z-0.2000
G01 F300.00
G01 X2.0000 Y-0.5500
G01 X1.9730 Y-0.5494
G01 X1.7770 Y-0.5397
G01 X1.7525 Y-0.5379
G01 X1.7233 Y-0.5344
G01 X1.5291 Y-0.5056
G01 X1.5049 Y-0.5014
G01 X1.4762 Y-0.4951
G01 X1.2858 Y-0.4474
G01 X1.2574 Y-0.4395
G01 X1.2341 Y-0.4318
G01 X1.0493 Y-0.3656
G01 X1.0219 Y-0.3549
G01 X0.9995 Y-0.3450
G01 X0.8220 Y-0.2611
G01 X0.8001 Y-0.2500
G01 X0.7744 Y-0.2356
G01 X0.6061 Y-0.1347
G01 X0.5813 Y-0.1189
G01 X0.5612 Y-0.1047
G01 X0.4036 Y0.0122
G01 X0.3804 Y0.0304
G01 X0.3618 Y0.0464
G01 X0.2164 Y0.1782
G01 X0.1952 Y0.1986
G01 X0.1782 Y0.2164
G01 X0.0464 Y0.3618
G01 X0.0273 Y0.3842
G01 X0.0122 Y0.4036
G01 X-0.1047 Y0.5612
G01 X-0.1216 Y0.5854
G01 X-0.1347 Y0.6061
G01 X-0.2356 Y0.7744
G01 X-0.2500 Y0.8001
G01 X-0.2611 Y0.8220
G01 X-0.3450 Y0.9995
G01 X-0.3568 Y1.0264
G01 X-0.3656 Y1.0493
G01 X-0.4318 Y1.2341
G01 X-0.4409 Y1.2621
G01 X-0.4474 Y1.2858
G01 X-0.4951 Y1.4762
G01 X-0.5014 Y1.5049
G01 X-0.5056 Y1.5291
G01 X-0.5344 Y1.7233
G01 X-0.5379 Y1.7525
G01 X-0.5397 Y1.7770
G01 X-0.5494 Y1.9730
G01 X-0.5500 Y2.0000
G01 X-0.5500 Y40.0000
G01 X-0.5494 Y40.0270
G01 X-0.5397 Y40.2230
G01 X-0.5379 Y40.2475
G01 X-0.5344 Y40.2767
G01 X-0.5056 Y40.4709
G01 X-0.5005 Y40.4999
G01 X-0.4951 Y40.5238
G01 X-0.4474 Y40.7142
G01 X-0.4395 Y40.7426
G01 X-0.4318 Y40.7659
G01 X-0.3656 Y40.9507
G01 X-0.3549 Y40.9781
G01 X-0.3450 Y41.0005
G01 X-0.2611 Y41.1780
G01 X-0.2477 Y41.2042
G01 X-0.2356 Y41.2256
G01 X-0.1347 Y41.3939
G01 X-0.1189 Y41.4187
G01 X-0.1047 Y41.4388
G01 X0.0122 Y41.5964
G01 X0.0273 Y41.6158
G01 X0.0464 Y41.6382
G01 X0.1782 Y41.7836
G01 X0.1952 Y41.8014
G01 X0.2164 Y41.8218
G01 X0.3618 Y41.9536
G01 X0.3842 Y41.9727
G01 X0.4036 Y41.9878
G01 X0.5612 Y42.1047
G01 X0.5854 Y42.1216
G01 X0.6061 Y42.1347
G01 X0.7744 Y42.2356
G01 X0.8001 Y42.2500
G01 X0.8220 Y42.2611
G01 X0.9995 Y42.3450
G01 X1.0264 Y42.3568
G01 X1.0493 Y42.3656
G01 X1.2341 Y42.4318
G01 X1.2574 Y42.4395
G01 X1.2858 Y42.4474
G01 X1.4762 Y42.4951
G01 X1.5049 Y42.5014
G01 X1.5291 Y42.5056
G01 X1.7233 Y42.5344
G01 X1.7476 Y42.5374
G01 X1.7770 Y42.5397
G01 X1.9730 Y42.5494
G01 X2.0000 Y42.5500
G01 X10.0250 Y42.5500
G00 X10.0250 Y42.5500
G01 F100.00
G01 Z-0.4000
G01 F300.00
G01 X2.0000 Y42.5500
G01 X1.9730 Y42.5494
G01 X1.7770 Y42.5397
G01 X1.7476 Y42.5374
G01 X1.7233 Y42.5344
G01 X1.5291 Y42.5056
G01 X1.5049 Y42.5014
G01 X1.4762 Y42.4951
G01 X1.2858 Y42.4474
G01 X1.2574 Y42.4395
G01 X1.2341 Y42.4318
G01 X1.0493 Y42.3656
G01 X1.0264 Y42.3568
G01 X0.9995 Y42.3450
G01 X0.8220 Y42.2611
G01 X0.8001 Y42.2500
G01 X0.7744 Y42.2356
G01 X0.6061 Y42.1347
G01 X0.5854 Y42.1216
G01 X0.5612 Y42.1047
G01 X0.4036 Y41.9878
G01 X0.3842 Y41.9727
G01 X0.3618 Y41.9536
G01 X0.2164 Y41.8218
G01 X0.1952 Y41.8014
G01 X0.1782 Y41.7836
G01 X0.0464 Y41.6382
G01 X0.0273 Y41.6158
G01 X0.0122 Y41.5964
G01 X-0.1047 Y41.4388
G01 X-0.1189 Y41.4187
G01 X-0.1347 Y41.3939
G01 X-0.2356 Y41.2256
G01 X-0.2477 Y41.2042
G01 X-0.2611 Y41.1780
G01 X-0.3450 Y41.0005
G01 X-0.3549 Y40.9781
G01 X-0.3656 Y40.9507
G01 X-0.4318 Y40.7659
G01 X-0.4395 Y40.7426
G01 X-0.4474 Y40.7142
G01 X-0.4951 Y40.5238
G01 X-0.5005 Y40.4999
G01 X-0.5056 Y40.4709
G01 X-0.5344 Y40.2767
G01 X-0.5379 Y40.2475
G01 X-0.5397 Y40.2230
G01 X-0.5494 Y40.0270
G01 X-0.5500 Y40.0000
G01 X-0.5500 Y2.0000
G01 X-0.5494 Y1.9730
G01 X-0.5397 Y1.7770
G01 X-0.5379 Y1.7525
G01 X-0.5344 Y1.7233
G01 X-0.5056 Y1.5291
G01 X-0.5014 Y1.5049
G01 X-0.4951 Y1.4762
G01 X-0.4474 Y1.2858
G01 X-0.4409 Y1.2621
G01 X-0.4318 Y1.2341
G01 X-0.3656 Y1.0493
G01 X-0.3568 Y1.0264
G01 X-0.3450 Y0.9995
G01 X-0.2611 Y0.8220
G01 X-0.2500 Y0.8001
G01 X-0.2356 Y0.7744
G01 X-0.1347 Y0.6061
G01 X-0.1216 Y0.5854
G01 X-0.1047 Y0.5612
G01 X0.0122 Y0.4036
G01 X0.0273 Y0.3842
G01 X0.0464 Y0.3618
G01 X0.1782 Y0.2164
G01 X0.1952 Y0.1986
G01 X0.2164 Y0.1782
G01 X0.3618 Y0.0464
G01 X0.3804 Y0.0304
G01 X0.4036 Y0.0122
G01 X0.5612 Y-0.1047
G01 X0.5813 Y-0.1189
G01 X0.6061 Y-0.1347
G01 X0.7744 Y-0.2356
G01 X0.8001 Y-0.2500
G01 X0.8220 Y-0.2611
G01 X0.9995 Y-0.3450
G01 X1.0219 Y-0.3549
G01 X1.0493 Y-0.3656
G01 X1.2341 Y-0.4318
G01 X1.2574 Y-0.4395
G01 X1.2858 Y-0.4474
G01 X1.4762 Y-0.4951
G01 X1.5049 Y-0.5014
G01 X1.5291 Y-0.5056
G01 X1.7233 Y-0.5344
G01 X1.7525 Y-0.5379
G01 X1.7770 Y-0.5397
G01 X1.9730 Y-0.5494
G01 X2.0000 Y-0.5500
G01 X10.0250 Y-0.5500
G00 X10.0250 Y-0.5500
G01 F100.00
G01 Z-0.6000
G01 F300.00
G01 X2.0000 Y-0.5500
G01 X1.9730 Y-0.5494
G01 X1.7770 Y-0.5397
G01 X1.7525 Y-0.5379
G01 X1.7233 Y-0.5344
G01 X1.5291 Y-0.5056
G01 X1.5049 Y-0.5014
G01 X1.4762 Y-0.4951
G01 X1.2858 Y-0.4474
G01 X1.2574 Y-0.4395
G01 X1.2341 Y-0.4318
G01 X1.0493 Y-0.3656
G01 X1.0219 Y-0.3549
G01 X0.9995 Y-0.3450
G01 X0.8220 Y-0.2611
G01 X0.8001 Y-0.2500
G01 X0.7744 Y-0.2356
G01 X0.6061 Y-0.1347
G01 X0.5813 Y-0.1189
G01 X0.5612 Y-0.1047
G01 X0.4036 Y0.0122
G01 X0.3804 Y0.0304
G01 X0.3618 Y0.0464
G01 X0.2164 Y0.1782
G01 X0.1952 Y0.1986
G01 X0.1782 Y0.2164
G01 X0.0464 Y0.3618
G01 X0.0273 Y0.3842
G01 X0.0122 Y0.4036
G01 X-0.1047 Y0.5612
G01 X-0.1216 Y0.5854
G01 X-0.1347 Y0.6061
G01 X-0.2356 Y0.7744
G01 X-0.2500 Y0.8001
G01 X-0.2611 Y0.8220
G01 X-0.3450 Y0.9995
G01 X-0.3568 Y1.0264
G01 X-0.3656 Y1.0493
G01 X-0.4318 Y1.2341
G01 X-0.4409 Y1.2621
G01 X-0.4474 Y1.2858
G01 X-0.4951 Y1.4762
G01 X-0.5014 Y1.5049
G01 X-0.5056 Y1.5291
G01 X-0.5344 Y1.7233
G01 X-0.5379 Y1.7525
G01 X-0.5397 Y1.7770
G01 X-0.5494 Y1.9730
G01 X-0.5500 Y2.0000
G01 X-0.5500 Y40.0000
G01 X-0.5494 Y40.0270
G01 X-0.5397 Y40.2230
G01 X-0.5379 Y40.2475
G01 X-0.5344 Y40.2767
G01 X-0.5056 Y40.4709
G01 X-0.5005 Y40.4999
G01 X-0.4951 Y40.5238
G01 X-0.4474 Y40.7142
G01 X-0.4395 Y40.7426
G01 X-0.4318 Y40.7659
G01 X-0.3656 Y40.9507
G01 X-0.3549 Y40.9781
G01 X-0.3450 Y41.0005
G01 X-0.2611 Y41.1780
G01 X-0.2477 Y41.2042
G01 X-0.2356 Y41.2256
G01 X-0.1347 Y41.3939
G01 X-0.1189 Y41.4187
G01 X-0.1047 Y41.4388
G01 X0.0122 Y41.5964
G01 X0.0273 Y41.6158
G01 X0.0464 Y41.6382
G01 X0.1782 Y41.7836
G01 X0.1952 Y41.8014
G01 X0.2164 Y41.8218
G01 X0.3618 Y41.9536
G01 X0.3842 Y41.9727
G01 X0.4036 Y41.9878
G01 X0.5612 Y42.1047
G01 X0.5854 Y42.1216
G01 X0.6061 Y42.1347
G01 X0.7744 Y42.2356
G01 X0.8001 Y42.2500
G01 X0.8220 Y42.2611
G01 X0.9995 Y42.3450
G01 X1.0264 Y42.3568
G01 X1.0493 Y42.3656
G01 X1.2341 Y42.4318
G01 X1.2574 Y42.4395
G01 X1.2858 Y42.4474
G01 X1.4762 Y42.4951
G01 X1.5049 Y42.5014
G01 X1.5291 Y42.5056
G01 X1.7233 Y42.5344
G01 X1.7476 Y42.5374
G01 X1.7770 Y42.5397
G01 X1.9730 Y42.5494
G01 X2.0000 Y42.5500
G01 X10.0250 Y42.5500
G00 X10.0250 Y42.5500
G01 F100.00
G01 Z-0.8000
G01 F300.00
G01 X2.0000 Y42.5500
G01 X1.9730 Y42.5494
G01 X1.7770 Y42.5397
G01 X1.7476 Y42.5374
G01 X1.7233 Y42.5344
G01 X1.5291 Y42.5056
G01 X1.5049 Y42.5014
G01 X1.4762 Y42.4951
G01 X1.2858 Y42.4474
G01 X1.2574 Y42.4395
G01 X1.2341 Y42.4318
G01 X1.0493 Y42.3656
G01 X1.0264 Y42.3568
G01 X0.9995 Y42.3450
G01 X0.8220 Y42.2611
G01 X0.8001 Y42.2500
G01 X0.7744 Y42.2356
G01 X0.6061 Y42.1347
G01 X0.5854 Y42.1216
G01 X0.5612 Y42.1047
G01 X0.4036 Y41.9878
G01 X0.3842 Y41.9727
G01 X0.3618 Y41.9536
G01 X0.2164 Y41.8218
G01 X0.1952 Y41.8014
G01 X0.1782 Y41.7836
G01 X0.0464 Y41.6382
G01 X0.0273 Y41.6158
G01 X0.0122 Y41.5964
G01 X-0.1047 Y41.4388
G01 X-0.1189 Y41.4187
G01 X-0.1347 Y41.3939
G01 X-0.2356 Y41.2256
G01 X-0.2477 Y41.2042
G01 X-0.2611 Y41.1780
G01 X-0.3450 Y41.0005
G01 X-0.3549 Y40.9781
G01 X-0.3656 Y40.9507
G01 X-0.4318 Y40.7659
G01 X-0.4395 Y40.7426
G01 X-0.4474 Y40.7142
G01 X-0.4951 Y40.5238
G01 X-0.5005 Y40.4999
G01 X-0.5056 Y40.4709
G01 X-0.5344 Y40.2767
G01 X-0.5379 Y40.2475
G01 X-0.5397 Y40.2230
G01 X-0.5494 Y40.0270
G01 X-0.5500 Y40.0000
G01 X-0.5500 Y2.0000
G01 X-0.5494 Y1.9730
G01 X-0.5397 Y1.7770
G01 X-0.5379 Y1.7525
G01 X-0.5344 Y1.7233
G01 X-0.5056 Y1.5291
G01 X-0.5014 Y1.5049
G01 X-0.4951 Y1.4762
G01 X-0.4474 Y1.2858
G01 X-0.4409 Y1.2621
G01 X-0.4318 Y1.2341
G01 X-0.3656 Y1.0493
G01 X-0.3568 Y1.0264
G01 X-0.3450 Y0.9995
G01 X-0.2611 Y0.8220
G01 X-0.2500 Y0.8001
G01 X-0.2356 Y0.7744
G01 X-0.1347 Y0.6061
G01 X-0.1216 Y0.5854
G01 X-0.1047 Y0.5612
G01 X0.0122 Y0.4036
G01 X0.0273 Y0.3842
G01 X0.0464 Y0.3618
G01 X0.1782 Y0.2164
G01 X0.1952 Y0.1986
G01 X0.2164 Y0.1782
G01 X0.3618 Y0.0464
G01 X0.3804 Y0.0304
G01 X0.4036 Y0.0122
G01 X0.5612 Y-0.1047
G01 X0.5813 Y-0.1189
G01 X0.6061 Y-0.1347
G01 X0.7744 Y-0.2356
G01 X0.8001 Y-0.2500
G01 X0.8220 Y-0.2611
G01 X0.9995 Y-0.3450
G01 X1.0219 Y-0.3549
G01 X1.0493 Y-0.3656
G01 X1.2341 Y-0.4318
G01 X1.2574 Y-0.4395
G01 X1.2858 Y-0.4474
G01 X1.4762 Y-0.4951
G01 X1.5049 Y-0.5014
G01 X1.5291 Y-0.5056
G01 X1.7233 Y-0.5344
G01 X1.7525 Y-0.5379
G01 X1.7770 Y-0.5397
G01 X1.9730 Y-0.5494
G01 X2.0000 Y-0.5500
G01 X10.0250 Y-0.5500
G00 X10.0250 Y-0.5500
G01 F100.00
G01 Z-1.0000
G01 F300.00
G01 X2.0000 Y-0.5500
G01 X1.9730 Y-0.5494
G01 X1.7770 Y-0.5397
G01 X1.7525 Y-0.5379
G01 X1.7233 Y-0.5344
G01 X1.5291 Y-0.5056
G01 X1.5049 Y-0.5014
G01 X1.4762 Y-0.4951
G01 X1.2858 Y-0.4474
G01 X1.2574 Y-0.4395
G01 X1.2341 Y-0.4318
G01 X1.0493 Y-0.3656
G01 X1.0219 Y-0.3549
G01 X0.9995 Y-0.3450
G01 X0.8220 Y-0.2611
G01 X0.8001 Y-0.2500
G01 X0.7744 Y-0.2356
G01 X0.6061 Y-0.1347
G01 X0.5813 Y-0.1189
G01 X0.5612 Y-0.1047
G01 X0.4036 Y0.0122
G01 X0.3804 Y0.0304
G01 X0.3618 Y0.0464
G01 X0.2164 Y0.1782
G01 X0.1952 Y0.1986
G01 X0.1782 Y0.2164
G01 X0.0464 Y0.3618
G01 X0.0273 Y0.3842
G01 X0.0122 Y0.4036
G01 X-0.1047 Y0.5612
G01 X-0.1216 Y0.5854
G01 X-0.1347 Y0.6061
G01 X-0.2356 Y0.7744
G01 X-0.2500 Y0.8001
G01 X-0.2611 Y0.8220
G01 X-0.3450 Y0.9995
G01 X-0.3568 Y1.0264
G01 X-0.3656 Y1.0493
G01 X-0.4318 Y1.2341
G01 X-0.4409 Y1.2621
G01 X-0.4474 Y1.2858
G01 X-0.4951 Y1.4762
G01 X-0.5014 Y1.5049
G01 X-0.5056 Y1.5291
G01 X-0.5344 Y1.7233
G01 X-0.5379 Y1.7525
G01 X-0.5397 Y1.7770
G01 X-0.5494 Y1.9730
G01 X-0.5500 Y2.0000
G01 X-0.5500 Y40.0000
G01 X-0.5494 Y40.0270
G01 X-0.5397 Y40.2230
G01 X-0.5379 Y40.2475
G01 X-0.5344 Y40.2767
G01 X-0.5056 Y40.4709
G01 X-0.5005 Y40.4999
G01 X-0.4951 Y40.5238
G01 X-0.4474 Y40.7142
G01 X-0.4395 Y40.7426
G01 X-0.4318 Y40.7659
G01 X-0.3656 Y40.9507
G01 X-0.3549 Y40.9781
G01 X-0.3450 Y41.0005
G01 X-0.2611 Y41.1780
G01 X-0.2477 Y41.2042
G01 X-0.2356 Y41.2256
G01 X-0.1347 Y41.3939
G01 X-0.1189 Y41.4187
G01 X-0.1047 Y41.4388
G01 X0.0122 Y41.5964
G01 X0.0273 Y41.6158
G01 X0.0464 Y41.6382
G01 X0.1782 Y41.7836
G01 X0.1952 Y41.8014
G01 X0.2164 Y41.8218
G01 X0.3618 Y41.9536
G01 X0.3842 Y41.9727
G01 X0.4036 Y41.9878
G01 X0.5612 Y42.1047
G01 X0.5854 Y42.1216
G01 X0.6061 Y42.1347
G01 X0.7744 Y42.2356
G01 X0.8001 Y42.2500
G01 X0.8220 Y42.2611
G01 X0.9995 Y42.3450
G01 X1.0264 Y42.3568
G01 X1.0493 Y42.3656
G01 X1.2341 Y42.4318
G01 X1.2574 Y42.4395
G01 X1.2858 Y42.4474
G01 X1.4762 Y42.4951
G01 X1.5049 Y42.5014
G01 X1.5291 Y42.5056
G01 X1.7233 Y42.5344
G01 X1.7476 Y42.5374
G01 X1.7770 Y42.5397
G01 X1.9730 Y42.5494
G01 X2.0000 Y42.5500
G01 X10.0250 Y42.5500
G00 X10.0250 Y42.5500
G01 F100.00
G01 Z-1.2000
G01 F300.00
G01 X2.0000 Y42.5500
G01 X1.9730 Y42.5494
G01 X1.7770 Y42.5397
G01 X1.7476 Y42.5374
G01 X1.7233 Y42.5344
G01 X1.5291 Y42.5056
G01 X1.5049 Y42.5014
G01 X1.4762 Y42.4951
G01 X1.2858 Y42.4474
G01 X1.2574 Y42.4395
G01 X1.2341 Y42.4318
G01 X1.0493 Y42.3656
G01 X1.0264 Y42.3568
G01 X0.9995 Y42.3450
G01 X0.8220 Y42.2611
G01 X0.8001 Y42.2500
G01 X0.7744 Y42.2356
G01 X0.6061 Y42.1347
G01 X0.5854 Y42.1216
G01 X0.5612 Y42.1047
G01 X0.4036 Y41.9878
G01 X0.3842 Y41.9727
G01 X0.3618 Y41.9536
G01 X0.2164 Y41.8218
G01 X0.1952 Y41.8014
G01 X0.1782 Y41.7836
G01 X0.0464 Y41.6382
G01 X0.0273 Y41.6158
G01 X0.0122 Y41.5964
G01 X-0.1047 Y41.4388
G01 X-0.1189 Y41.4187
G01 X-0.1347 Y41.3939
G01 X-0.2356 Y41.2256
G01 X-0.2477 Y41.2042
G01 X-0.2611 Y41.1780
G01 X-0.3450 Y41.0005
G01 X-0.3549 Y40.9781
G01 X-0.3656 Y40.9507
G01 X-0.4318 Y40.7659
G01 X-0.4395 Y40.7426
G01 X-0.4474 Y40.7142
G01 X-0.4951 Y40.5238
G01 X-0.5005 Y40.4999
G01 X-0.5056 Y40.4709
G01 X-0.5344 Y40.2767
G01 X-0.5379 Y40.2475
G01 X-0.5397 Y40.2230
G01 X-0.5494 Y40.0270
G01 X-0.5500 Y40.0000
G01 X-0.5500 Y2.0000
G01 X-0.5494 Y1.9730
G01 X-0.5397 Y1.7770
G01 X-0.5379 Y1.7525
G01 X-0.5344 Y1.7233
G01 X-0.5056 Y1.5291
G01 X-0.5014 Y1.5049
G01 X-0.4951 Y1.4762
G01 X-0.4474 Y1.2858
G01 X-0.4409 Y1.2621
G01 X-0.4318 Y1.2341
G01 X-0.3656 Y1.0493
G01 X-0.3568 Y1.0264
G01 X-0.3450 Y0.9995
G01 X-0.2611 Y0.8220
G01 X-0.2500 Y0.8001
G01 X-0.2356 Y0.7744
G01 X-0.1347 Y0.6061
G01 X-0.1216 Y0.5854
G01 X-0.1047 Y0.5612
G01 X0.0122 Y0.4036
G01 X0.0273 Y0.3842
G01 X0.0464 Y0.3618
G01 X0.1782 Y0.2164
G01 X0.1952 Y0.1986
G01 X0.2164 Y0.1782
G01 X0.3618 Y0.0464
G01 X0.3804 Y0.0304
G01 X0.4036 Y0.0122
G01 X0.5612 Y-0.1047
G01 X0.5813 Y-0.1189
G01 X0.6061 Y-0.1347
G01 X0.7744 Y-0.2356
G01 X0.8001 Y-0.2500
G01 X0.8220 Y-0.2611
G01 X0.9995 Y-0.3450
G01 X1.0219 Y-0.3549
G01 X1.0493 Y-0.3656
G01 X1.2341 Y-0.4318
G01 X1.2574 Y-0.4395
G01 X1.2858 Y-0.4474
G01 X1.4762 Y-0.4951
G01 X1.5049 Y-0.5014
G01 X1.5291 Y-0.5056
G01 X1.7233 Y-0.5344
G01 X1.7525 Y-0.5379
G01 X1.7770 Y-0.5397
G01 X1.9730 Y-0.5494
G01 X2.0000 Y-0.5500
G01 X10.0250 Y-0.5500
G00 X10.0250 Y-0.5500
G01 F100.00
G01 Z-1.4000
G01 F300.00
G01 X2.0000 Y-0.5500
G01 X1.9730 Y-0.5494
G01 X1.7770 Y-0.5397
G01 X1.7525 Y-0.5379
G01 X1.7233 Y-0.5344
G01 X1.5291 Y-0.5056
G01 X1.5049 Y-0.5014
G01 X1.4762 Y-0.4951
G01 X1.2858 Y-0.4474
G01 X1.2574 Y-0.4395
G01 X1.2341 Y-0.4318
G01 X1.0493 Y-0.3656
G01 X1.0219 Y-0.3549
G01 X0.9995 Y-0.3450
G01 X0.8220 Y-0.2611
G01 X0.8001 Y-0.2500
G01 X0.7744 Y-0.2356
G01 X0.6061 Y-0.1347
G01 X0.5813 Y-0.1189
G01 X0.5612 Y-0.1047
G01 X0.4036 Y0.0122
G01 X0.3804 Y0.0304
G01 X0.3618 Y0.0464
G01 X0.2164 Y0.1782
G01 X0.1952 Y0.1986
G01 X0.1782 Y0.2164
G01 X0.0464 Y0.3618
G01 X0.0273 Y0.3842
G01 X0.0122 Y0.4036
G01 X-0.1047 Y0.5612
G01 X-0.1216 Y0.5854
G01 X-0.1347 Y0.6061
G01 X-0.2356 Y0.7744
G01 X-0.2500 Y0.8001
G01 X-0.2611 Y0.8220
G01 X-0.3450 Y0.9995
G01 X-0.3568 Y1.0264
G01 X-0.3656 Y1.0493
G01 X-0.4318 Y1.2341
G01 X-0.4409 Y1.2621
G01 X-0.4474 Y1.2858
G01 X-0.4951 Y1.4762
G01 X-0.5014 Y1.5049
G01 X-0.5056 Y1.5291
G01 X-0.5344 Y1.7233
G01 X-0.5379 Y1.7525
G01 X-0.5397 Y1.7770
G01 X-0.5494 Y1.9730
G01 X-0.5500 Y2.0000
G01 X-0.5500 Y40.0000
G01 X-0.5494 Y40.0270
G01 X-0.5397 Y40.2230
G01 X-0.5379 Y40.2475
G01 X-0.5344 Y40.2767
G01 X-0.5056 Y40.4709
G01 X-0.5005 Y40.4999
G01 X-0.4951 Y40.5238
G01 X-0.4474 Y40.7142
G01 X-0.4395 Y40.7426
G01 X-0.4318 Y40.7659
G01 X-0.3656 Y40.9507
G01 X-0.3549 Y40.9781
G01 X-0.3450 Y41.0005
G01 X-0.2611 Y41.1780
G01 X-0.2477 Y41.2042
G01 X-0.2356 Y41.2256
G01 X-0.1347 Y41.3939
G01 X-0.1189 Y41.4187
G01 X-0.1047 Y41.4388
G01 X0.0122 Y41.5964
G01 X0.0273 Y41.6158
G01 X0.0464 Y41.6382
G01 X0.1782 Y41.7836
G01 X0.1952 Y41.8014
G01 X0.2164 Y41.8218
G01 X0.3618 Y41.9536
G01 X0.3842 Y41.9727
G01 X0.4036 Y41.9878
G01 X0.5612 Y42.1047
G01 X0.5854 Y42.1216
G01 X0.6061 Y42.1347
G01 X0.7744 Y42.2356
G01 X0.8001 Y42.2500
G01 X0.8220 Y42.2611
G01 X0.9995 Y42.3450
G01 X1.0264 Y42.3568
G01 X1.0493 Y42.3656
G01 X1.2341 Y42.4318
G01 X1.2574 Y42.4395
G01 X1.2858 Y42.4474
G01 X1.4762 Y42.4951
G01 X1.5049 Y42.5014
G01 X1.5291 Y42.5056
G01 X1.7233 Y42.5344
G01 X1.7476 Y42.5374
G01 X1.7770 Y42.5397
G01 X1.9730 Y42.5494
G01 X2.0000 Y42.5500
G01 X10.0250 Y42.5500
G00 X10.0250 Y42.5500
G01 F100.00
G01 Z-1.6000
G01 F300.00
G01 X2.0000 Y42.5500
G01 X1.9730 Y42.5494
G01 X1.7770 Y42.5397
G01 X1.7476 Y42.5374
G01 X1.7233 Y42.5344
G01 X1.5291 Y42.5056
G01 X1.5049 Y42.5014
G01 X1.4762 Y42.4951
G01 X1.2858 Y42.4474
G01 X1.2574 Y42.4395
G01 X1.2341 Y42.4318
G01 X1.0493 Y42.3656
G01 X1.0264 Y42.3568
G01 X0.9995 Y42.3450
G01 X0.8220 Y42.2611
G01 X0.8001 Y42.2500
G01 X0.7744 Y42.2356
G01 X0.6061 Y42.1347
G01 X0.5854 Y42.1216
G01 X0.5612 Y42.1047
G01 X0.4036 Y41.9878
G01 X0.3842 Y41.9727
G01 X0.3618 Y41.9536
G01 X0.2164 Y41.8218
G01 X0.1952 Y41.8014
G01 X0.1782 Y41.7836
G01 X0.0464 Y41.6382
G01 X0.0273 Y41.6158
G01 X0.0122 Y41.5964
G01 X-0.1047 Y41.4388
G01 X-0.1189 Y41.4187
G01 X-0.1347 Y41.3939
G01 X-0.2356 Y41.2256
G01 X-0.2477 Y41.2042
G01 X-0.2611 Y41.1780
G01 X-0.3450 Y41.0005
G01 X-0.3549 Y40.9781
G01 X-0.3656 Y40.9507
G01 X-0.4318 Y40.7659
G01 X-0.4395 Y40.7426
G01 X-0.4474 Y40.7142
G01 X-0.4951 Y40.5238
G01 X-0.5005 Y40.4999
G01 X-0.5056 Y40.4709
G01 X-0.5344 Y40.2767
G01 X-0.5379 Y40.2475
G01 X-0.5397 Y40.2230
G01 X-0.5494 Y40.0270
G01 X-0.5500 Y40.0000
G01 X-0.5500 Y2.0000
G01 X-0.5494 Y1.9730
G01 X-0.5397 Y1.7770
G01 X-0.5379 Y1.7525
G01 X-0.5344 Y1.7233
G01 X-0.5056 Y1.5291
G01 X-0.5014 Y1.5049
G01 X-0.4951 Y1.4762
G01 X-0.4474 Y1.2858
G01 X-0.4409 Y1.2621
G01 X-0.4318 Y1.2341
G01 X-0.3656 Y1.0493
G01 X-0.3568 Y1.0264
G01 X-0.3450 Y0.9995
G01 X-0.2611 Y0.8220
G01 X-0.2500 Y0.8001
G01 X-0.2356 Y0.7744
G01 X-0.1347 Y0.6061
G01 X-0.1216 Y0.5854
G01 X-0.1047 Y0.5612
G01 X0.0122 Y0.4036
G01 X0.0273 Y0.3842
G01 X0.0464 Y0.3618
G01 X0.1782 Y0.2164
G01 X0.1952 Y0.1986
G01 X0.2164 Y0.1782
G01 X0.3618 Y0.0464
G01 X0.3804 Y0.0304
G01 X0.4036 Y0.0122
G01 X0.5612 Y-0.1047
G01 X0.5813 Y-0.1189
G01 X0.6061 Y-0.1347
G01 X0.7744 Y-0.2356
G01 X0.8001 Y-0.2500
G01 X0.8220 Y-0.2611
G01 X0.9995 Y-0.3450
G01 X1.0219 Y-0.3549
G01 X1.0493 Y-0.3656
G01 X1.2341 Y-0.4318
G01 X1.2574 Y-0.4395
G01 X1.2858 Y-0.4474
G01 X1.4762 Y-0.4951
G01 X1.5049 Y-0.5014
G01 X1.5291 Y-0.5056
G01 X1.7233 Y-0.5344
G01 X1.7525 Y-0.5379
G01 X1.7770 Y-0.5397
G01 X1.9730 Y-0.5494
G01 X2.0000 Y-0.5500
G01 X10.0250 Y-0.5500
G00 X10.0250 Y-0.5500
G01 F100.00
G01 Z-1.8000
G01 F300.00
G01 X2.0000 Y-0.5500
G01 X1.9730 Y-0.5494
G01 X1.7770 Y-0.5397
G01 X1.7525 Y-0.5379
G01 X1.7233 Y-0.5344
G01 X1.5291 Y-0.5056
G01 X1.5049 Y-0.5014
G01 X1.4762 Y-0.4951
G01 X1.2858 Y-0.4474
G01 X1.2574 Y-0.4395
G01 X1.2341 Y-0.4318
G01 X1.0493 Y-0.3656
G01 X1.0219 Y-0.3549
G01 X0.9995 Y-0.3450
G01 X0.8220 Y-0.2611
G01 X0.8001 Y-0.2500
G01 X0.7744 Y-0.2356
G01 X0.6061 Y-0.1347
G01 X0.5813 Y-0.1189
G01 X0.5612 Y-0.1047
G01 X0.4036 Y0.0122
G01 X0.3804 Y0.0304
G01 X0.3618 Y0.0464
G01 X0.2164 Y0.1782
G01 X0.1952 Y0.1986
G01 X0.1782 Y0.2164
G01 X0.0464 Y0.3618
G01 X0.0273 Y0.3842
G01 X0.0122 Y0.4036
G01 X-0.1047 Y0.5612
G01 X-0.1216 Y0.5854
G01 X-0.1347 Y0.6061
G01 X-0.2356 Y0.7744
G01 X-0.2500 Y0.8001
G01 X-0.2611 Y0.8220
G01 X-0.3450 Y0.9995
G01 X-0.3568 Y1.0264
G01 X-0.3656 Y1.0493
G01 X-0.4318 Y1.2341
G01 X-0.4409 Y1.2621
G01 X-0.4474 Y1.2858
G01 X-0.4951 Y1.4762
G01 X-0.5014 Y1.5049
G01 X-0.5056 Y1.5291
G01 X-0.5344 Y1.7233
G01 X-0.5379 Y1.7525
G01 X-0.5397 Y1.7770
G01 X-0.5494 Y1.9730
G01 X-0.5500 Y2.0000
G01 X-0.5500 Y40.0000
G01 X-0.5494 Y40.0270
G01 X-0.5397 Y40.2230
G01 X-0.5379 Y40.2475
G01 X-0.5344 Y40.2767
G01 X-0.5056 Y40.4709
G01 X-0.5005 Y40.4999
G01 X-0.4951 Y40.5238
G01 X-0.4474 Y40.7142
G01 X-0.4395 Y40.7426
G01 X-0.4318 Y40.7659
G01 X-0.3656 Y40.9507
G01 X-0.3549 Y40.9781
G01 X-0.3450 Y41.0005
G01 X-0.2611 Y41.1780
G01 X-0.2477 Y41.2042
G01 X-0.2356 Y41.2256
G01 X-0.1347 Y41.3939
G01 X-0.1189 Y41.4187
G01 X-0.1047 Y41.4388
G01 X0.0122 Y41.5964
G01 X0.0273 Y41.6158
G01 X0.0464 Y41.6382
G01 X0.1782 Y41.7836
G01 X0.1952 Y41.8014
G01 X0.2164 Y41.8218
G01 X0.3618 Y41.9536
G01 X0.3842 Y41.9727
G01 X0.4036 Y41.9878
G01 X0.5612 Y42.1047
G01 X0.5854 Y42.1216
G01 X0.6061 Y42.1347
G01 X0.7744 Y42.2356
G01 X0.8001 Y42.2500
G01 X0.8220 Y42.2611
G01 X0.9995 Y42.3450
G01 X1.0264 Y42.3568
G01 X1.0493 Y42.3656
G01 X1.2341 Y42.4318
G01 X1.2574 Y42.4395
G01 X1.2858 Y42.4474
G01 X1.4762 Y42.4951
G01 X1.5049 Y42.5014
G01 X1.5291 Y42.5056
G01 X1.7233 Y42.5344
G01 X1.7476 Y42.5374
G01 X1.7770 Y42.5397
G01 X1.9730 Y42.5494
G01 X2.0000 Y42.5500
G01 X10.0250 Y42.5500
G00 X10.0250 Y42.5500
G01 F100.00
G01 Z-2.0000
G01 F300.00
G01 X2.0000 Y42.5500
G01 X1.9730 Y42.5494
G01 X1.7770 Y42.5397
G01 X1.7476 Y42.5374
G01 X1.7233 Y42.5344
G01 X1.5291 Y42.5056
G01 X1.5049 Y42.5014
G01 X1.4762 Y42.4951
G01 X1.2858 Y42.4474
G01 X1.2574 Y42.4395
G01 X1.2341 Y42.4318
G01 X1.0493 Y42.3656
G01 X1.0264 Y42.3568
G01 X0.9995 Y42.3450
G01 X0.8220 Y42.2611
G01 X0.8001 Y42.2500
G01 X0.7744 Y42.2356
G01 X0.6061 Y42.1347
G01 X0.5854 Y42.1216
G01 X0.5612 Y42.1047
G01 X0.4036 Y41.9878
G01 X0.3842 Y41.9727
G01 X0.3618 Y41.9536
G01 X0.2164 Y41.8218
G01 X0.1952 Y41.8014
G01 X0.1782 Y41.7836
G01 X0.0464 Y41.6382
G01 X0.0273 Y41.6158
G01 X0.0122 Y41.5964
G01 X-0.1047 Y41.4388
G01 X-0.1189 Y41.4187
G01 X-0.1347 Y41.3939
G01 X-0.2356 Y41.2256
G01 X-0.2477 Y41.2042
G01 X-0.2611 Y41.1780
G01 X-0.3450 Y41.0005
G01 X-0.3549 Y40.9781
G01 X-0.3656 Y40.9507
G01 X-0.4318 Y40.7659
G01 X-0.4395 Y40.7426
G01 X-0.4474 Y40.7142
G01 X-0.4951 Y40.5238
G01 X-0.5005 Y40.4999
G01 X-0.5056 Y40.4709
G01 X-0.5344 Y40.2767
G01 X-0.5379 Y40.2475
G01 X-0.5397 Y40.2230
G01 X-0.5494 Y40.0270
G01 X-0.5500 Y40.0000
G01 X-0.5500 Y2.0000
G01 X-0.5494 Y1.9730
G01 X-0.5397 Y1.7770
G01 X-0.5379 Y1.7525
G01 X-0.5344 Y1.7233
G01 X-0.5056 Y1.5291
G01 X-0.5014 Y1.5049
G01 X-0.4951 Y1.4762
G01 X-0.4474 Y1.2858
G01 X-0.4409 Y1.2621
G01 X-0.4318 Y1.2341
G01 X-0.3656 Y1.0493
G01 X-0.3568 Y1.0264
G01 X-0.3450 Y0.9995
G01 X-0.2611 Y0.8220
G01 X-0.2500 Y0.8001
G01 X-0.2356 Y0.7744
G01 X-0.1347 Y0.6061
G01 X-0.1216 Y0.5854
G01 X-0.1047 Y0.5612
G01 X0.0122 Y0.4036
G01 X0.0273 Y0.3842
G01 X0.0464 Y0.3618
G01 X0.1782 Y0.2164
G01 X0.1952 Y0.1986
G01 X0.2164 Y0.1782
G01 X0.3618 Y0.0464
G01 X0.3804 Y0.0304
G01 X0.4036 Y0.0122
G01 X0.5612 Y-0.1047
G01 X0.5813 Y-0.1189
G01 X0.6061 Y-0.1347
G01 X0.7744 Y-0.2356
G01 X0.8001 Y-0.2500
G01 X0.8220 Y-0.2611
G01 X0.9995 Y-0.3450
G01 X1.0219 Y-0.3549
G01 X1.0493 Y-0.3656
G01 X1.2341 Y-0.4318
G01 X1.2574 Y-0.4395
G01 X1.2858 Y-0.4474
G01 X1.4762 Y-0.4951
G01 X1.5049 Y-0.5014
G01 X1.5291 Y-0.5056
G01 X1.7233 Y-0.5344
G01 X1.7525 Y-0.5379
G01 X1.7770 Y-0.5397
G01 X1.9730 Y-0.5494
G01 X2.0000 Y-0.5500
G01 X10.0250 Y-0.5500
G00 Z2.0000
G00 X11.5250 Y42.5500
G01 F100.00
G01 Z-0.2000
G01 F300.00
G01 X32.6750 Y42.5500
G00 X32.6750 Y42.5500
G01 F100.00
G01 Z-0.4000
G01 F300.00
G01 X11.5250 Y42.5500
G00 X11.5250 Y42.5500
G01 F100.00
G01 Z-0.6000
G01 F300.00
G01 X32.6750 Y42.5500
G00 X32.6750 Y42.5500
G01 F100.00
G01 Z-0.8000
G01 F300.00
G01 X11.5250 Y42.5500
G00 X11.5250 Y42.5500
G01 F100.00
G01 Z-1.0000
G01 F300.00
G01 X32.6750 Y42.5500
G00 X32.6750 Y42.5500
G01 F100.00
G01 Z-1.2000
G01 F300.00
G01 X11.5250 Y42.5500
G00 X11.5250 Y42.5500
G01 F100.00
G01 Z-1.4000
G01 F300.00
G01 X32.6750 Y42.5500
G00 X32.6750 Y42.5500
G01 F100.00
G01 Z-1.6000
G01 F300.00
G01 X11.5250 Y42.5500
G00 X11.5250 Y42.5500
G01 F100.00
G01 Z-1.8000
G01 F300.00
G01 X32.6750 Y42.5500
G00 X32.6750 Y42.5500
G01 F100.00
G01 Z-2.0000
G01 F300.00
G01 X11.5250 Y42.5500
G00 Z2.0000
G00 X34.1750 Y42.5500
G01 F100.00
G01 Z-0.2000
G01 F300.00
G01 X38.0000 Y42.5500
G01 X38.0270 Y42.5494
G01 X38.6151 Y42.5205
G01 X38.6396 Y42.5187
G01 X38.6688 Y42.5152
G01 X39.2512 Y42.4288
G01 X39.2754 Y42.4246
G01 X39.3042 Y42.4183
G01 X39.8754 Y42.2752
G01 X39.9037 Y42.2672
G01 X39.9270 Y42.2595
G01 X40.4814 Y42.0611
G01 X40.5088 Y42.0504
G01 X40.5313 Y42.0405
G01 X41.0635 Y41.7887
G01 X41.0898 Y41.7754
G01 X41.1111 Y41.7633
G01 X41.6162 Y41.4606
G01 X41.6410 Y41.4447
G01 X41.6611 Y41.4306
G01 X42.1340 Y41.0798
G01 X42.1572 Y41.0616
G01 X42.1757 Y41.0456
G01 X42.6120 Y40.6502
G01 X42.6333 Y40.6298
G01 X42.6502 Y40.6120
G01 X43.0456 Y40.1757
G01 X43.0647 Y40.1534
G01 X43.0798 Y40.1340
G01 X43.4306 Y39.6611
G01 X43.4447 Y39.6410
G01 X43.4606 Y39.6162
G01 X43.7633 Y39.1111
G01 X43.7777 Y39.0855
G01 X43.7887 Y39.0635
G01 X44.0405 Y38.5313
G01 X44.0523 Y38.5043
G01 X44.0611 Y38.4814
G01 X44.2595 Y37.9270
G01 X44.2686 Y37.8990
G01 X44.2752 Y37.8754
G01 X44.4183 Y37.3042
G01 X44.4246 Y37.2754
G01 X44.4288 Y37.2512
G01 X44.5152 Y36.6688
G01 X44.5187 Y36.6396
G01 X44.5205 Y36.6151
G01 X44.5494 Y36.0270
G01 X44.5500 Y36.0000
G01 X44.5500 Y2.0000
G01 X44.5494 Y1.9730
G01 X44.5397 Y1.7770
G01 X44.5379 Y1.7525
G01 X44.5344 Y1.7233
G01 X44.5056 Y1.5291
G01 X44.5005 Y1.5001
G01 X44.4951 Y1.4762
G01 X44.4474 Y1.2858
G01 X44.4395 Y1.2574
G01 X44.4318 Y1.2341
G01 X44.3656 Y1.0493
G01 X44.3549 Y1.0219
G01 X44.3450 Y0.9995
G01 X44.2611 Y0.8220
G01 X44.2477 Y0.7958
G01 X44.2356 Y0.7744
G01 X44.1347 Y0.6061
G01 X44.1189 Y0.5813
G01 X44.1047 Y0.5612
G01 X43.9878 Y0.4036
G01 X43.9727 Y0.3842
G01 X43.9536 Y0.3618
G01 X43.8218 Y0.2164
G01 X43.8048 Y0.1986
G01 X43.7836 Y0.1782
G01 X43.6382 Y0.0464
G01 X43.6158 Y0.0273
G01 X43.5964 Y0.0122
G01 X43.4388 Y-0.1047
G01 X43.4146 Y-0.1216
G01 X43.3939 Y-0.1347
G01 X43.2256 Y-0.2356
G01 X43.1999 Y-0.2500
G01 X43.1780 Y-0.2611
G01 X43.0005 Y-0.3450
G01 X42.9736 Y-0.3568
G01 X42.9507 Y-0.3656
G01 X42.7659 Y-0.4318
G01 X42.7426 Y-0.4395
G01 X42.7142 Y-0.4474
G01 X42.5238 Y-0.4951
G01 X42.4951 Y-0.5014
G01 X42.4709 Y-0.5056
G01 X42.2767 Y-0.5344
G01 X42.2524 Y-0.5374
G01 X42.2230 Y-0.5397
G01 X42.0270 Y-0.5494
G01 X42.0000 Y-0.5500
G01 X34.1750 Y-0.5500
G00 X34.1750 Y-0.5500
G01 F100.00
G01 Z-0.4000
G01 F300.00
G01 X42.0000 Y-0.5500
G01 X42.0270 Y-0.5494
G01 X42.2230 Y-0.5397
G01 X42.2524 Y-0.5374
G01 X42.2767 Y-0.5344
G01 X42.4709 Y-0.5056
G01 X42.4951 Y-0.5014
G01 X42.5238 Y-0.4951
G01 X42.7142 Y-0.4474
G01 X42.7426 Y-0.4395
G01 X42.7659 Y-0.4318
G01 X42.9507 Y-0.3656
G01 X42.9736 Y-0.3568
G01 X43.0005 Y-0.3450
G01 X43.1780 Y-0.2611
G01 X43.1999 Y-0.2500
G01 X43.2256 Y-0.2356
G01 X43.3939 Y-0.1347
G01 X43.4146 Y-0.1216
G01 X43.4388 Y-0.1047
G01 X43.5964 Y0.0122
G01 X43.6158 Y0.0273
G01 X43.6382 Y0.0464
G01 X43.7836 Y0.1782
G01 X43.8048 Y0.1986
G01 X43.8218 Y0.2164
G01 X43.9536 Y0.3618
G01 X43.9727 Y0.3842
G01 X43.9878 Y0.4036
G01 X44.1047 Y0.5612
G01 X44.1189 Y0.5813
G01 X44.1347 Y0.6061
G01 X44.2356 Y0.7744
G01 X44.2477 Y0.7958
G01 X44.2611 Y0.8220
G01 X44.3450 Y0.9995
G01 X44.3549 Y1.0219
G01 X44.3656 Y1.0493
G01 X44.4318 Y1.2341
G01 X44.4395 Y1.2574
G01 X44.4474 Y1.2858
G01 X44.4951 Y1.4762
G01 X44.5005 Y1.5001
G01 X44.5056 Y1.5291
G01 X44.5344 Y1.7233
G01 X44.5379 Y1.7525
G01 X44.5397 Y1.7770
G01 X44.5494 Y1.9730
G01 X44.5500 Y2.0000
G01 X44.5500 Y36.0000
G01 X44.5494 Y36.0270
G01 X44.5205 Y36.6151
G01 X44.5187 Y36.6396
G01 X44.5152 Y36.6688
G01 X44.4288 Y37.2512
G01 X44.4246 Y37.2754
G01 X44.4183 Y37.3042
G01 X44.2752 Y37.8754
G01 X44.2686 Y37.8990
G01 X44.2595 Y37.9270
G01 X44.0611 Y38.4814
G01 X44.0523 Y38.5043
G01 X44.0405 Y38.5313
G01 X43.7887 Y39.0635
G01 X43.7777 Y39.0855
G01 X43.7633 Y39.1111
G01 X43.4606 Y39.6162
G01 X43.4447 Y39.6410
G01 X43.4306 Y39.6611
G01 X43.0798 Y40.1340
G01 X43.0647 Y40.1534
G01 X43.0456 Y40.1757
G01 X42.6502 Y40.6120
G01 X42.6333 Y40.6298
G01 X42.6120 Y40.6502
G01 X42.1757 Y41.0456
G01 X42.1572 Y41.0616
G01 X42.1340 Y41.0798
G01 X41.6611 Y41.4306
G01 X41.6410 Y41.4447
G01 X41.6162 Y41.4606
G01 X41.1111 Y41.7633
G01 X41.0898 Y41.7754
G01 X41.0635 Y41.7887
G01 X40.5313 Y42.0405
G01 X40.5088 Y42.0504
G01 X40.4814 Y42.0611
G01 X39.9270 Y42.2595
G01 X39.9037 Y42.2672
G01 X39.8754 Y42.2752
G01 X39.3042 Y42.4183
G01 X39.2754 Y42.4246
G01 X39.2512 Y42.4288
G01 X38.6688 Y42.5152
G01 X38.6396 Y42.5187
G01 X38.6151 Y42.5205
G01 X38.0270 Y42.5494
G01 X38.0000 Y42.5500
G01 X34.1750 Y42.5500
G00 X34.1750 Y42.5500
G01 F100.00
G01 Z-0.6000
G01 F300.00
G01 X38.0000 Y42.5500
G01 X38.0270 Y42.5494
G01 X38.6151 Y42.5205
G01 X38.6396 Y42.5187
G01 X38.6688 Y42.5152
G01 X39.2512 Y42.4288
G01 X39.2754 Y42.4246
G01 X39.3042 Y42.4183
G01 X39.8754 Y42.2752
G01 X39.9037 Y42.2672
G01 X39.9270 Y42.2595
G01 X40.4814 Y42.0611
G01 X40.5088 Y42.0504
G01 X40.5313 Y42.0405
G01 X41.0635 Y41.7887
G01 X41.0898 Y41.7754
G01 X41.1111 Y41.7633
G01 X41.6162 Y41.4606
G01 X41.6410 Y41.4447
G01 X41.6611 Y41.4306
G01 X42.1340 Y41.0798
G01 X42.1572 Y41.0616
G01 X42.1757 Y41.0456
G01 X42.6120 Y40.6502
G01 X42.6333 Y40.6298
G01 X42.6502 Y40.6120
G01 X43.0456 Y40.1757
G01 X43.0647 Y40.1534
G01 X43.0798 Y40.1340
G01 X43.4306 Y39.6611
G01 X43.4447 Y39.6410
G01 X43.4606 Y39.6162
G01 X43.7633 Y39.1111
G01 X43.7777 Y39.0855
G01 X43.7887 Y39.0635
G01 X44.0405 Y38.5313
G01 X44.0523 Y38.5043
G01 X44.0611 Y38.4814
G01 X44.2595 Y37.9270
G01 X44.2686 Y37.8990
G01 X44.2752 Y37.8754
G01 X44.4183 Y37.3042
G01 X44.4246 Y37.2754
G01 X44.4288 Y37.2512
G01 X44.5152 Y36.6688
G01 X44.5187 Y36.6396
G01 X44.5205 Y36.6151
G01 X44.5494 Y36.0270
G01 X44.5500 Y36.0000
G01 X44.5500 Y2.0000
G01 X44.5494 Y1.9730
G01 X44.5397 Y1.7770
G01 X44.5379 Y1.7525
G01 X44.5344 Y1.7233
G01 X44.5056 Y1.5291
G01 X44.5005 Y1.5001
G01 X44.4951 Y1.4762
G01 X44.4474 Y1.2858
G01 X44.4395 Y1.2574
G01 X44.4318 Y1.2341
G01 X44.3656 Y1.0493
G01 X44.3549 Y1.0219
G01 X44.3450 Y0.9995
G01 X44.2611 Y0.8220
G01 X44.2477 Y0.7958
G01 X44.2356 Y0.7744
G01 X44.1347 Y0.6061
G01 X44.1189 Y0.5813
G01 X44.1047 Y0.5612
G01 X43.9878 Y0.4036
G01 X43.9727 Y0.3842
G01 X43.9536 Y0.3618
G01 X43.8218 Y0.2164
G01 X43.8048 Y0.1986
G01 X43.7836 Y0.1782
G01 X43.6382 Y0.0464
G01 X43.6158 Y0.0273
G01 X43.5964 Y0.0122
G01 X43.4388 Y-0.1047
G01 X43.4146 Y-0.1216
G01 X43.3939 Y-0.1347
G01 X43.2256 Y-0.2356
G01 X43.1999 Y-0.2500
G01 X43.1780 Y-0.2611
G01 X43.0005 Y-0.3450
G01 X42.9736 Y-0.3568
G01 X42.9507 Y-0.3656
G01 X42.7659 Y-0.4318
G01 X42.7426 Y-0.4395
G01 X42.7142 Y-0.4474
G01 X42.5238 Y-0.4951
G01 X42.4951 Y-0.5014
G01 X42.4709 Y-0.5056
G01 X42.2767 Y-0.5344
G01 X42.2524 Y-0.5374
G01 X42.2230 Y-0.5397
G01 X42.0270 Y-0.5494
G01 X42.0000 Y-0.5500
G01 X34.1750 Y-0.5500
G00 X34.1750 Y-0.5500
G01 F100.00
G01 Z-0.8000
G01 F300.00
G01 X42.0000 Y-0.5500
G01 X42.0270 Y-0.5494
G01 X42.2230 Y-0.5397
G01 X42.2524 Y-0.5374
G01 X42.2767 Y-0.5344
G01 X42.4709 Y-0.5056
G01 X42.4951 Y-0.5014
G01 X42.5238 Y-0.4951
G01 X42.7142 Y-0.4474
G01 X42.7426 Y-0.4395
G01 X42.7659 Y-0.4318
G01 X42.9507 Y-0.3656
G01 X42.9736 Y-0.3568
G01 X43.0005 Y-0.3450
G01 X43.1780 Y-0.2611
G01 X43.1999 Y-0.2500
G01 X43.2256 Y-0.2356
G01 X43.3939 Y-0.1347
G01 X43.4146 Y-0.1216
G01 X43.4388 Y-0.1047
G01 X43.5964 Y0.0122
G01 X43.6158 Y0.0273
G01 X43.6382 Y0.0464
G01 X43.7836 Y0.1782
G01 X43.8048 Y0.1986
G01 X43.8218 Y0.2164
G01 X43.9536 Y0.3618
G01 X43.9727 Y0.3842
G01 X43.9878 Y0.4036
G01 X44.1047 Y0.5612
G01 X44.1189 Y0.5813
G01 X44.1347 Y0.6061
G01 X44.2356 Y0.7744
G01 X44.2477 Y0.7958
G01 X44.2611 Y0.8220
G01 X44.3450 Y0.9995
G01 X44.3549 Y1.0219
G01 X44.3656 Y1.0493
G01 X44.4318 Y1.2341
G01 X44.4395 Y1.2574
G01 X44.4474 Y1.2858
G01 X44.4951 Y1.4762
G01 X44.5005 Y1.5001
G01 X44.5056 Y1.5291
G01 X44.5344 Y1.7233
G01 X44.5379 Y1.7525
G01 X44.5397 Y1.7770
G01 X44.5494 Y1.9730
G01 X44.5500 Y2.0000
G01 X44.5500 Y36.0000
G01 X44.5494 Y36.0270
G01 X44.5205 Y36.6151
G01 X44.5187 Y36.6396
G01 X44.5152 Y36.6688
G01 X44.4288 Y37.2512
G01 X44.4246 Y37.2754
G01 X44.4183 Y37.3042
G01 X44.2752 Y37.8754
G01 X44.2686 Y37.8990
G01 X44.2595 Y37.9270
G01 X44.0611 Y38.4814
G01 X44.0523 Y38.5043
G01 X44.0405 Y38.5313
G01 X43.7887 Y39.0635
G01 X43.7777 Y39.0855
G01 X43.7633 Y39.1111
G01 X43.4606 Y39.6162
G01 X43.4447 Y39.6410
G01 X43.4306 Y39.6611
G01 X43.0798 Y40.1340
G01 X43.0647 Y40.1534
G01 X43.0456 Y40.1757
G01 X42.6502 Y40.6120
G01 X42.6333 Y40.6298
G01 X42.6120 Y40.6502
G01 X42.1757 Y41.0456
G01 X42.1572 Y41.0616
G01 X42.1340 Y41.0798
G01 X41.6611 Y41.4306
G01 X41.6410 Y41.4447
G01 X41.6162 Y41.4606
G01 X41.1111 Y41.7633
G01 X41.0898 Y41.7754
G01 X41.0635 Y41.7887
G01 X40.5313 Y42.0405
G01 X40.5088 Y42.0504
G01 X40.4814 Y42.0611
G01 X39.9270 Y42.2595
G01 X39.9037 Y42.2672
G01 X39.8754 Y42.2752
G01 X39.3042 Y42.4183
G01 X39.2754 Y42.4246
G01 X39.2512 Y42.4288
G01 X38.6688 Y42.5152
G01 X38.6396 Y42.5187
G01 X38.6151 Y42.5205
G01 X38.0270 Y42.5494
G01 X38.0000 Y42.5500
G01 X34.1750 Y42.5500
G00 X34.1750 Y42.5500
G01 F100.00
G01 Z-1.0000
G01 F300.00
G01 X38.0000 Y42.5500
G01 X38.0270 Y42.5494
G01 X38.6151 Y42.5205
G01 X38.6396 Y42.5187
G01 X38.6688 Y42.5152
G01 X39.2512 Y42.4288
G01 X39.2754 Y42.4246
G01 X39.3042 Y42.4183
G01 X39.8754 Y42.2752
G01 X39.9037 Y42.2672
G01 X39.9270 Y42.2595
G01 X40.4814 Y42.0611
G01 X40.5088 Y42.0504
G01 X40.5313 Y42.0405
G01 X41.0635 Y41.7887
G01 X41.0898 Y41.7754
G01 X41.1111 Y41.7633
G01 X41.6162 Y41.4606
G01 X41.6410 Y41.4447
G01 X41.6611 Y41.4306
G01 X42.1340 Y41.0798
G01 X42.1572 Y41.0616
G01 X42.1757 Y41.0456
G01 X42.6120 Y40.6502
G01 X42.6333 Y40.6298
G01 X42.6502 Y40.6120
G01 X43.0456 Y40.1757
G01 X43.0647 Y40.1534
G01 X43.0798 Y40.1340
G01 X43.4306 Y39.6611
G01 X43.4447 Y39.6410
G01 X43.4606 Y39.6162
G01 X43.7633 Y39.1111
G01 X43.7777 Y39.0855
G01 X43.7887 Y39.0635
G01 X44.0405 Y38.5313
G01 X44.0523 Y38.5043
G01 X44.0611 Y38.4814
G01 X44.2595 Y37.9270
G01 X44.2686 Y37.8990
G01 X44.2752 Y37.8754
G01 X44.4183 Y37.3042
G01 X44.4246 Y37.2754
G01 X44.4288 Y37.2512
G01 X44.5152 Y36.6688
G01 X44.5187 Y36.6396
G01 X44.5205 Y36.6151
G01 X44.5494 Y36.0270
G01 X44.5500 Y36.0000
G01 X44.5500 Y2.0000
G01 X44.5494 Y1.9730
G01 X44.5397 Y1.7770
G01 X44.5379 Y1.7525
G01 X44.5344 Y1.7233
G01 X44.5056 Y1.5291
G01 X44.5005 Y1.5001
G01 X44.4951 Y1.4762
G01 X44.4474 Y1.2858
G01 X44.4395 Y1.2574
G01 X44.4318 Y1.2341
G01 X44.3656 Y1.0493
G01 X44.3549 Y1.0219
G01 X44.3450 Y0.9995
G01 X44.2611 Y0.8220
G01 X44.2477 Y0.7958
G01 X44.2356 Y0.7744
G01 X44.1347 Y0.6061
G01 X44.1189 Y0.5813
G01 X44.1047 Y0.5612
G01 X43.9878 Y0.4036
G01 X43.9727 Y0.3842
G01 X43.9536 Y0.3618
G01 X43.8218 Y0.2164
G01 X43.8048 Y0.1986
G01 X43.7836 Y0.1782
G01 X43.6382 Y0.0464
G01 X43.6158 Y0.0273
G01 X43.5964 Y0.0122
G01 X43.4388 Y-0.1047
G01 X43.4146 Y-0.1216
G01 X43.3939 Y-0.1347
G01 X43.2256 Y-0.2356
G01 X43.1999 Y-0.2500
G01 X43.1780 Y-0.2611
G01 X43.0005 Y-0.3450
G01 X42.9736 Y-0.3568
G01 X42.9507 Y-0.3656
G01 X42.7659 Y-0.4318
G01 X42.7426 Y-0.4395
G01 X42.7142 Y-0.4474
G01 X42.5238 Y-0.4951
G01 X42.4951 Y-0.5014
G01 X42.4709 Y-0.5056
G01 X42.2767 Y-0.5344
G01 X42.2524 Y-0.5374
G01 X42.2230 Y-0.5397
G01 X42.0270 Y-0.5494
G01 X42.0000 Y-0.5500
G01 X34.1750 Y-0.5500
G00 X34.1750 Y-0.5500
G01 F100.00
G01 Z-1.2000
G01 F300.00
G01 X42.0000 Y-0.5500
G01 X42.0270 Y-0.5494
G01 X42.2230 Y-0.5397
G01 X42.2524 Y-0.5374
G01 X42.2767 Y-0.5344
G01 X42.4709 Y-0.5056
G01 X42.4951 Y-0.5014
G01 X42.5238 Y-0.4951
G01 X42.7142 Y-0.4474
G01 X42.7426 Y-0.4395
G01 X42.7659 Y-0.4318
G01 X42.9507 Y-0.3656
G01 X42.9736 Y-0.3568
G01 X43.0005 Y-0.3450
G01 X43.1780 Y-0.2611
G01 X43.1999 Y-0.2500
G01 X43.2256 Y-0.2356
G01 X43.3939 Y-0.1347
G01 X43.4146 Y-0.1216
G01 X43.4388 Y-0.1047
G01 X43.5964 Y0.0122
G01 X43.6158 Y0.0273
G01 X43.6382 Y0.0464
G01 X43.7836 Y0.1782
G01 X43.8048 Y0.1986
G01 X43.8218 Y0.2164
G01 X43.9536 Y0.3618
G01 X43.9727 Y0.3842
G01 X43.9878 Y0.4036
G01 X44.1047 Y0.5612
G01 X44.1189 Y0.5813
G01 X44.1347 Y0.6061
G01 X44.2356 Y0.7744
G01 X44.2477 Y0.7958
G01 X44.2611 Y0.8220
G01 X44.3450 Y0.9995
G01 X44.3549 Y1.0219
G01 X44.3656 Y1.0493
G01 X44.4318 Y1.2341
G01 X44.4395 Y1.2574
G01 X44.4474 Y1.2858
G01 X44.4951 Y1.4762
G01 X44.5005 Y1.5001
G01 X44.5056 Y1.5291
G01 X44.5344 Y1.7233
G01 X44.5379 Y1.7525
G01 X44.5397 Y1.7770
G01 X44.5494 Y1.9730
G01 X44.5500 Y2.0000
G01 X44.5500 Y36.0000
G01 X44.5494 Y36.0270
G01 X44.5205 Y36.6151
G01 X44.5187 Y36.6396
G01 X44.5152 Y36.6688
G01 X44.4288 Y37.2512
G01 X44.4246 Y37.2754
G01 X44.4183 Y37.3042
G01 X44.2752 Y37.8754
G01 X44.2686 Y37.8990
G01 X44.2595 Y37.9270
G01 X44.0611 Y38.4814
G01 X44.0523 Y38.5043
G01 X44.0405 Y38.5313
G01 X43.7887 Y39.0635
G01 X43.7777 Y39.0855
G01 X43.7633 Y39.1111
G01 X43.4606 Y39.6162
G01 X43.4447 Y39.6410
G01 X43.4306 Y39.6611
G01 X43.0798 Y40.1340
G01 X43.0647 Y40.1534
G01 X43.0456 Y40.1757
G01 X42.6502 Y40.6120
G01 X42.6333 Y40.6298
G01 X42.6120 Y40.6502
G01 X42.1757 Y41.0456
G01 X42.1572 Y41.0616
G01 X42.1340 Y41.0798
G01 X41.6611 Y41.4306
G01 X41.6410 Y41.4447
G01 X41.6162 Y41.4606
G01 X41.1111 Y41.7633
G01 X41.0898 Y41.7754
G01 X41.0635 Y41.7887
G01 X40.5313 Y42.0405
G01 X40.5088 Y42.0504
G01 X40.4814 Y42.0611
G01 X39.9270 Y42.2595
G01 X39.9037 Y42.2672
G01 X39.8754 Y42.2752
G01 X39.3042 Y42.4183
G01 X39.2754 Y42.4246
G01 X39.2512 Y42.4288
G01 X38.6688 Y42.5152
G01 X38.6396 Y42.5187
G01 X38.6151 Y42.5205
G01 X38.0270 Y42.5494
G01 X38.0000 Y42.5500
G01 X34.1750 Y42.5500
G00 X34.1750 Y42.5500
G01 F100.00
G01 Z-1.4000
G01 F300.00
G01 X38.0000 Y42.5500
G01 X38.0270 Y42.5494
G01 X38.6151 Y42.5205
G01 X38.6396 Y42.5187
G01 X38.6688 Y42.5152
G01 X39.2512 Y42.4288
G01 X39.2754 Y42.4246
G01 X39.3042 Y42.4183
G01 X39.8754 Y42.2752
G01 X39.9037 Y42.2672
G01 X39.9270 Y42.2595
G01 X40.4814 Y42.0611
G01 X40.5088 Y42.0504
G01 X40.5313 Y42.0405
G01 X41.0635 Y41.7887
G01 X41.0898 Y41.7754
G01 X41.1111 Y41.7633
G01 X41.6162 Y41.4606
G01 X41.6410 Y41.4447
G01 X41.6611 Y41.4306
G01 X42.1340 Y41.0798
G01 X42.1572 Y41.0616
G01 X42.1757 Y41.0456
G01 X42.6120 Y40.6502
G01 X42.6333 Y40.6298
G01 X42.6502 Y40.6120
G01 X43.0456 Y40.1757
G01 X43.0647 Y40.1534
G01 X43.0798 Y40.1340
G01 X43.4306 Y39.6611
G01 X43.4447 Y39.6410
G01 X43.4606 Y39.6162
G01 X43.7633 Y39.1111
G01 X43.7777 Y39.0855
G01 X43.7887 Y39.0635
G01 X44.0405 Y38.5313
G01 X44.0523 Y38.5043
G01 X44.0611 Y38.4814
G01 X44.2595 Y37.9270
G01 X44.2686 Y37.8990
G01 X44.2752 Y37.8754
G01 X44.4183 Y37.3042
G01 X44.4246 Y37.2754
G01 X44.4288 Y37.2512
G01 X44.5152 Y36.6688
G01 X44.5187 Y36.6396
G01 X44.5205 Y36.6151
G01 X44.5494 Y36.0270
G01 X44.5500 Y36.0000
G01 X44.5500 Y2.0000
G01 X44.5494 Y1.9730
G01 X44.5397 Y1.7770
G01 X44.5379 Y1.7525
G01 X44.5344 Y1.7233
G01 X44.5056 Y1.5291
G01 X44.5005 Y1.5001
G01 X44.4951 Y1.4762
G01 X44.4474 Y1.2858
G01 X44.4395 Y1.2574
G01 X44.4318 Y1.2341
G01 X44.3656 Y1.0493
G01 X44.3549 Y1.0219
G01 X44.3450 Y0.9995
G01 X44.2611 Y0.8220
G01 X44.2477 Y0.7958
G01 X44.2356 Y0.7744
G01 X44.1347 Y0.6061
G01 X44.1189 Y0.5813
G01 X44.1047 Y0.5612
G01 X43.9878 Y0.4036
G01 X43.9727 Y0.3842
G01 X43.9536 Y0.3618
G01 X43.8218 Y0.2164
G01 X43.8048 Y0.1986
G01 X43.7836 Y0.1782
G01 X43.6382 Y0.0464
G01 X43.6158 Y0.0273
G01 X43.5964 Y0.0122
G01 X43.4388 Y-0.1047
G01 X43.4146 Y-0.1216
G01 X43.3939 Y-0.1347
G01 X43.2256 Y-0.2356
G01 X43.1999 Y-0.2500
G01 X43.1780 Y-0.2611
G01 X43.0005 Y-0.3450
G01 X42.9736 Y-0.3568
G01 X42.9507 Y-0.3656
G01 X42.7659 Y-0.4318
G01 X42.7426 Y-0.4395
G01 X42.7142 Y-0.4474
G01 X42.5238 Y-0.4951
G01 X42.4951 Y-0.5014
G01 X42.4709 Y-0.5056
G01 X42.2767 Y-0.5344
G01 X42.2524 Y-0.5374
G01 X42.2230 Y-0.5397
G01 X42.0270 Y-0.5494
G01 X42.0000 Y-0.5500
G01 X34.1750 Y-0.5500
G00 X34.1750 Y-0.5500
G01 F100.00
G01 Z-1.6000
G01 F300.00
G01 X42.0000 Y-0.5500
G01 X42.0270 Y-0.5494
G01 X42.2230 Y-0.5397
G01 X42.2524 Y-0.5374
G01 X42.2767 Y-0.5344
G01 X42.4709 Y-0.5056
G01 X42.4951 Y-0.5014
G01 X42.5238 Y-0.4951
G01 X42.7142 Y-0.4474
G01 X42.7426 Y-0.4395
G01 X42.7659 Y-0.4318
G01 X42.9507 Y-0.3656
G01 X42.9736 Y-0.3568
G01 X43.0005 Y-0.3450
G01 X43.1780 Y-0.2611
G01 X43.1999 Y-0.2500
G01 X43.2256 Y-0.2356
G01 X43.3939 Y-0.1347
G01 X43.4146 Y-0.1216
G01 X43.4388 Y-0.1047
G01 X43.5964 Y0.0122
G01 X43.6158 Y0.0273
G01 X43.6382 Y0.0464
G01 X43.7836 Y0.1782
G01 X43.8048 Y0.1986
G01 X43.8218 Y0.2164
G01 X43.9536 Y0.3618
G01 X43.9727 Y0.3842
G01 X43.9878 Y0.4036
G01 X44.1047 Y0.5612
G01 X44.1189 Y0.5813
G01 X44.1347 Y0.6061
G01 X44.2356 Y0.7744
G01 X44.2477 Y0.7958
G01 X44.2611 Y0.8220
G01 X44.3450 Y0.9995
G01 X44.3549 Y1.0219
G01 X44.3656 Y1.0493
G01 X44.4318 Y1.2341
G01 X44.4395 Y1.2574
G01 X44.4474 Y1.2858
G01 X44.4951 Y1.4762
G01 X44.5005 Y1.5001
G01 X44.5056 Y1.5291
G01 X44.5344 Y1.7233
G01 X44.5379 Y1.7525
G01 X44.5397 Y1.7770
G01 X44.5494 Y1.9730
G01 X44.5500 Y2.0000
G01 X44.5500 Y36.0000
G01 X44.5494 Y36.0270
G01 X44.5205 Y36.6151
G01 X44.5187 Y36.6396
G01 X44.5152 Y36.6688
G01 X44.4288 Y37.2512
G01 X44.4246 Y37.2754
G01 X44.4183 Y37.3042
G01 X44.2752 Y37.8754
G01 X44.2686 Y37.8990
G01 X44.2595 Y37.9270
G01 X44.0611 Y38.4814
G01 X44.0523 Y38.5043
G01 X44.0405 Y38.5313
G01 X43.7887 Y39.0635
G01 X43.7777 Y39.0855
G01 X43.7633 Y39.1111
G01 X43.4606 Y39.6162
G01 X43.4447 Y39.6410
G01 X43.4306 Y39.6611
G01 X43.0798 Y40.1340
G01 X43.0647 Y40.1534
G01 X43.0456 Y40.1757
G01 X42.6502 Y40.6120
G01 X42.6333 Y40.6298
G01 X42.6120 Y40.6502
G01 X42.1757 Y41.0456
G01 X42.1572 Y41.0616
G01 X42.1340 Y41.0798
G01 X41.6611 Y41.4306
G01 X41.6410 Y41.4447
G01 X41.6162 Y41.4606
G01 X41.1111 Y41.7633
G01 X41.0898 Y41.7754
G01 X41.0635 Y41.7887
G01 X40.5313 Y42.0405
G01 X40.5088 Y42.0504
G01 X40.4814 Y42.0611
G01 X39.9270 Y42.2595
G01 X39.9037 Y42.2672
G01 X39.8754 Y42.2752
G01 X39.3042 Y42.4183
G01 X39.2754 Y42.4246
G01 X39.2512 Y42.4288
G01 X38.6688 Y42.5152
G01 X38.6396 Y42.5187
G01 X38.6151 Y42.5205
G01 X38.0270 Y42.5494
G01 X38.0000 Y42.5500
G01 X34.1750 Y42.5500
G00 X34.1750 Y42.5500
G01 F100.00
G01 Z-1.8000
G01 F300.00
G01 X38.0000 Y42.5500
G01 X38.0270 Y42.5494
G01 X38.6151 Y42.5205
G01 X38.6396 Y42.5187
G01 X38.6688 Y42.5152
G01 X39.2512 Y42.4288
G01 X39.2754 Y42.4246
G01 X39.3042 Y42.4183
G01 X39.8754 Y42.2752
G01 X39.9037 Y42.2672
G01 X39.9270 Y42.2595
G01 X40.4814 Y42.0611
G01 X40.5088 Y42.0504
G01 X40.5313 Y42.0405
G01 X41.0635 Y41.7887
G01 X41.0898 Y41.7754
G01 X41.1111 Y41.7633
G01 X41.6162 Y41.4606
G01 X41.6410 Y41.4447
G01 X41.6611 Y41.4306
G01 X42.1340 Y41.0798
G01 X42.1572 Y41.0616
G01 X42.1757 Y41.0456
G01 X42.6120 Y40.6502
G01 X42.6333 Y40.6298
G01 X42.6502 Y40.6120
G01 X43.0456 Y40.1757
G01 X43.0647 Y40.1534
G01 X43.0798 Y40.1340
G01 X43.4306 Y39.6611
G01 X43.4447 Y39.6410
G01 X43.4606 Y39.6162
G01 X43.7633 Y39.1111
G01 X43.7777 Y39.0855
G01 X43.7887 Y39.0635
G01 X44.0405 Y38.5313
G01 X44.0523 Y38.5043
G01 X44.0611 Y38.4814
G01 X44.2595 Y37.9270
G01 X44.2686 Y37.8990
G01 X44.2752 Y37.8754
G01 X44.4183 Y37.3042
G01 X44.4246 Y37.2754
G01 X44.4288 Y37.2512
G01 X44.5152 Y36.6688
G01 X44.5187 Y36.6396
G01 X44.5205 Y36.6151
G01 X44.5494 Y36.0270
G01 X44.5500 Y36.0000
G01 X44.5500 Y2.0000
G01 X44.5494 Y1.9730
G01 X44.5397 Y1.7770
G01 X44.5379 Y1.7525
G01 X44.5344 Y1.7233
G01 X44.5056 Y1.5291
G01 X44.5005 Y1.5001
G01 X44.4951 Y1.4762
G01 X44.4474 Y1.2858
G01 X44.4395 Y1.2574
G01 X44.4318 Y1.2341
G01 X44.3656 Y1.0493
G01 X44.3549 Y1.0219
G01 X44.3450 Y0.9995
G01 X44.2611 Y0.8220
G01 X44.2477 Y0.7958
G01 X44.2356 Y0.7744
G01 X44.1347 Y0.6061
G01 X44.1189 Y0.5813
G01 X44.1047 Y0.5612
G01 X43.9878 Y0.4036
G01 X43.9727 Y0.3842
G01 X43.9536 Y0.3618
G01 X43.8218 Y0.2164
G01 X43.8048 Y0.1986
G01 X43.7836 Y0.1782
G01 X43.6382 Y0.0464
G01 X43.6158 Y0.0273
G01 X43.5964 Y0.0122
G01 X43.4388 Y-0.1047
G01 X43.4146 Y-0.1216
G01 X43.3939 Y-0.1347
G01 X43.2256 Y-0.2356
G01 X43.1999 Y-0.2500
G01 X43.1780 Y-0.2611
G01 X43.0005 Y-0.3450
G01 X42.9736 Y-0.3568
G01 X42.9507 Y-0.3656
G01 X42.7659 Y-0.4318
G01 X42.7426 Y-0.4395
G01 X42.7142 Y-0.4474
G01 X42.5238 Y-0.4951
G01 X42.4951 Y-0.5014
G01 X42.4709 Y-0.5056
G01 X42.2767 Y-0.5344
G01 X42.2524 Y-0.5374
G01 X42.2230 Y-0.5397
G01 X42.0270 Y-0.5494
G01 X42.0000 Y-0.5500
G01 X34.1750 Y-0.5500
G00 X34.1750 Y-0.5500
G01 F100.00
G01 Z-2.0000
G01 F300.00
G01 X42.0000 Y-0.5500
G01 X42.0270 Y-0.5494
G01 X42.2230 Y-0.5397
G01 X42.2524 Y-0.5374
G01 X42.2767 Y-0.5344
G01 X42.4709 Y-0.5056
G01 X42.4951 Y-0.5014
G01 X42.5238 Y-0.4951
G01 X42.7142 Y-0.4474
G01 X42.7426 Y-0.4395
G01 X42.7659 Y-0.4318
G01 X42.9507 Y-0.3656
G01 X42.9736 Y-0.3568
G01 X43.0005 Y-0.3450
G01 X43.1780 Y-0.2611
G01 X43.1999 Y-0.2500
G01 X43.2256 Y-0.2356
G01 X43.3939 Y-0.1347
G01 X43.4146 Y-0.1216
G01 X43.4388 Y-0.1047
G01 X43.5964 Y0.0122
G01 X43.6158 Y0.0273
G01 X43.6382 Y0.0464
G01 X43.7836 Y0.1782
G01 X43.8048 Y0.1986
G01 X43.8218 Y0.2164
G01 X43.9536 Y0.3618
G01 X43.9727 Y0.3842
G01 X43.9878 Y0.4036
G01 X44.1047 Y0.5612
G01 X44.1189 Y0.5813
G01 X44.1347 Y0.6061
G01 X44.2356 Y0.7744
G01 X44.2477 Y0.7958
G01 X44.2611 Y0.8220
G01 X44.3450 Y0.9995
G01 X44.3549 Y1.0219
G01 X44.3656 Y1.0493
G01 X44.4318 Y1.2341
G01 X44.4395 Y1.2574
G01 X44.4474 Y1.2858
G01 X44.4951 Y1.4762
G01 X44.5005 Y1.5001
G01 X44.5056 Y1.5291
G01 X44.5344 Y1.7233
G01 X44.5379 Y1.7525
G01 X44.5397 Y1.7770
G01 X44.5494 Y1.9730
G01 X44.5500 Y2.0000
G01 X44.5500 Y36.0000
G01 X44.5494 Y36.0270
G01 X44.5205 Y36.6151
G01 X44.5187 Y36.6396
G01 X44.5152 Y36.6688
G01 X44.4288 Y37.2512
G01 X44.4246 Y37.2754
G01 X44.4183 Y37.3042
G01 X44.2752 Y37.8754
G01 X44.2686 Y37.8990
G01 X44.2595 Y37.9270
G01 X44.0611 Y38.4814
G01 X44.0523 Y38.5043
G01 X44.0405 Y38.5313
G01 X43.7887 Y39.0635
G01 X43.7777 Y39.0855
G01 X43.7633 Y39.1111
G01 X43.4606 Y39.6162
G01 X43.4447 Y39.6410
G01 X43.4306 Y39.6611
G01 X43.0798 Y40.1340
G01 X43.0647 Y40.1534
G01 X43.0456 Y40.1757
G01 X42.6502 Y40.6120
G01 X42.6333 Y40.6298
G01 X42.6120 Y40.6502
G01 X42.1757 Y41.0456
G01 X42.1572 Y41.0616
G01 X42.1340 Y41.0798
G01 X41.6611 Y41.4306
G01 X41.6410 Y41.4447
G01 X41.6162 Y41.4606
G01 X41.1111 Y41.7633
G01 X41.0898 Y41.7754
G01 X41.0635 Y41.7887
G01 X40.5313 Y42.0405
G01 X40.5088 Y42.0504
G01 X40.4814 Y42.0611
G01 X39.9270 Y42.2595
G01 X39.9037 Y42.2672
G01 X39.8754 Y42.2752
G01 X39.3042 Y42.4183
G01 X39.2754 Y42.4246
G01 X39.2512 Y42.4288
G01 X38.6688 Y42.5152
G01 X38.6396 Y42.5187
G01 X38.6151 Y42.5205
G01 X38.0270 Y42.5494
G01 X38.0000 Y42.5500
G01 X34.1750 Y42.5500
G00 Z2.0000
G00 X32.6750 Y-0.5500
G01 F100.00
G01 Z-0.2000
G01 F300.00
G01 X11.5250 Y-0.5500
G00 X11.5250 Y-0.5500
G01 F100.00
G01 Z-0.4000
G01 F300.00
G01 X32.6750 Y-0.5500
G00 X32.6750 Y-0.5500
G01 F100.00
G01 Z-0.6000
G01 F300.00
G01 X11.5250 Y-0.5500
G00 X11.5250 Y-0.5500
G01 F100.00
G01 Z-0.8000
G01 F300.00
G01 X32.6750 Y-0.5500
G00 X32.6750 Y-0.5500
G01 F100.00
G01 Z-1.0000
G01 F300.00
G01 X11.5250 Y-0.5500
G00 X11.5250 Y-0.5500
G01 F100.00
G01 Z-1.2000
G01 F300.00
G01 X32.6750 Y-0.5500
G00 X32.6750 Y-0.5500
G01 F100.00
G01 Z-1.4000
G01 F300.00
G01 X11.5250 Y-0.5500
G00 X11.5250 Y-0.5500
G01 F100.00
G01 Z-1.6000
G01 F300.00
G01 X32.6750 Y-0.5500
G00 X32.6750 Y-0.5500
G01 F100.00
G01 Z-1.8000
G01 F300.00
G01 X11.5250 Y-0.5500
G00 X11.5250 Y-0.5500
G01 F100.00
G01 Z-2.0000
G01 F300.00
G01 X32.6750 Y-0.5500
G00 Z2.0000
M05
G00 Z2.0000
G00 Z15.00


