(G-CODE GENERATED BY FLATCAM v8.994 - www.flatcam.org - Version Date: 2020/11/7)

(Name: AutoKey.drl_mill_cnc)
(Type: G-code from Geometry)
(Units: MM)

(Created on Thursday, 30 November 2023 at 10:03)

(This preprocessor is the default preprocessor used by FlatCAM.)
(It is made to work with MACH3 compatible motion controllers.)

(TOOL DIAMETER: 0.8 mm)
(Feedrate_XY: 300.0 mm/min)
(Feedrate_Z: 100.0 mm/min)
(Feedrate rapids 1500.0 mm/min)

(Z_Cut: -2.5 mm)
(DepthPerCut: 0.2 mm <=>13 passes)
(Z_Move: 2.0 mm)
(Z Start: None mm)
(Z End: 15.0 mm)
(X,Y End: None mm)
(Steps per circle: 64)
(Preprocessor Geometry: default)

(X range:    8.3000 ...   41.0500  mm)
(Y range:    3.4200 ...   39.0800  mm)

(Spindle Speed: 10000.0 RPM)
G21
G90
G94

G01 F300.00

M5
G00 Z15.0000
G00 X0.0000 Y0.0000
T1
M6    
(MSG, Change to Tool Dia = 0.8000)
M0
G00 Z15.0000

M03 S10000.0
G01 F300.00
G00 X13.0700 Y4.6900
G01 F100.00
G01 Z-0.2000
G01 F300.00
G01 X13.0700 Y4.6900
G01 X13.0700 Y4.6900
G01 X13.0700 Y4.6900
G01 X13.0700 Y4.6900
G00 X13.0700 Y4.6900
G01 F100.00
G01 Z-0.4000
G01 F300.00
G01 X13.0700 Y4.6900
G01 X13.0700 Y4.6900
G01 X13.0700 Y4.6900
G01 X13.0700 Y4.6900
G00 X13.0700 Y4.6900
G01 F100.00
G01 Z-0.6000
G01 F300.00
G01 X13.0700 Y4.6900
G01 X13.0700 Y4.6900
G01 X13.0700 Y4.6900
G01 X13.0700 Y4.6900
G00 X13.0700 Y4.6900
G01 F100.00
G01 Z-0.8000
G01 F300.00
G01 X13.0700 Y4.6900
G01 X13.0700 Y4.6900
G01 X13.0700 Y4.6900
G01 X13.0700 Y4.6900
G00 X13.0700 Y4.6900
G01 F100.00
G01 Z-1.0000
G01 F300.00
G01 X13.0700 Y4.6900
G01 X13.0700 Y4.6900
G01 X13.0700 Y4.6900
G01 X13.0700 Y4.6900
G00 X13.0700 Y4.6900
G01 F100.00
G01 Z-1.2000
G01 F300.00
G01 X13.0700 Y4.6900
G01 X13.0700 Y4.6900
G01 X13.0700 Y4.6900
G01 X13.0700 Y4.6900
G00 X13.0700 Y4.6900
G01 F100.00
G01 Z-1.4000
G01 F300.00
G01 X13.0700 Y4.6900
G01 X13.0700 Y4.6900
G01 X13.0700 Y4.6900
G01 X13.0700 Y4.6900
G00 X13.0700 Y4.6900
G01 F100.00
G01 Z-1.6000
G01 F300.00
G01 X13.0700 Y4.6900
G01 X13.0700 Y4.6900
G01 X13.0700 Y4.6900
G01 X13.0700 Y4.6900
G00 X13.0700 Y4.6900
G01 F100.00
G01 Z-1.8000
G01 F300.00
G01 X13.0700 Y4.6900
G01 X13.0700 Y4.6900
G01 X13.0700 Y4.6900
G01 X13.0700 Y4.6900
G00 X13.0700 Y4.6900
G01 F100.00
G01 Z-2.0000
G01 F300.00
G01 X13.0700 Y4.6900
G01 X13.0700 Y4.6900
G01 X13.0700 Y4.6900
G01 X13.0700 Y4.6900
G00 X13.0700 Y4.6900
G01 F100.00
G01 Z-2.2000
G01 F300.00
G01 X13.0700 Y4.6900
G01 X13.0700 Y4.6900
G01 X13.0700 Y4.6900
G01 X13.0700 Y4.6900
G00 X13.0700 Y4.6900
G01 F100.00
G01 Z-2.4000
G01 F300.00
G01 X13.0700 Y4.6900
G01 X13.0700 Y4.6900
G01 X13.0700 Y4.6900
G01 X13.0700 Y4.6900
G00 X13.0700 Y4.6900
G01 F100.00
G01 Z-2.5000
G01 F300.00
G01 X13.0700 Y4.6900
G01 X13.0700 Y4.6900
G01 X13.0700 Y4.6900
G01 X13.0700 Y4.6900
G00 Z2.0000
G00 X15.5700 Y4.6900
G01 F100.00
G01 Z-0.2000
G01 F300.00
G01 X15.5700 Y4.6900
G01 X15.5700 Y4.6900
G01 X15.5700 Y4.6900
G01 X15.5700 Y4.6900
G00 X15.5700 Y4.6900
G01 F100.00
G01 Z-0.4000
G01 F300.00
G01 X15.5700 Y4.6900
G01 X15.5700 Y4.6900
G01 X15.5700 Y4.6900
G01 X15.5700 Y4.6900
G00 X15.5700 Y4.6900
G01 F100.00
G01 Z-0.6000
G01 F300.00
G01 X15.5700 Y4.6900
G01 X15.5700 Y4.6900
G01 X15.5700 Y4.6900
G01 X15.5700 Y4.6900
G00 X15.5700 Y4.6900
G01 F100.00
G01 Z-0.8000
G01 F300.00
G01 X15.5700 Y4.6900
G01 X15.5700 Y4.6900
G01 X15.5700 Y4.6900
G01 X15.5700 Y4.6900
G00 X15.5700 Y4.6900
G01 F100.00
G01 Z-1.0000
G01 F300.00
G01 X15.5700 Y4.6900
G01 X15.5700 Y4.6900
G01 X15.5700 Y4.6900
G01 X15.5700 Y4.6900
G00 X15.5700 Y4.6900
G01 F100.00
G01 Z-1.2000
G01 F300.00
G01 X15.5700 Y4.6900
G01 X15.5700 Y4.6900
G01 X15.5700 Y4.6900
G01 X15.5700 Y4.6900
G00 X15.5700 Y4.6900
G01 F100.00
G01 Z-1.4000
G01 F300.00
G01 X15.5700 Y4.6900
G01 X15.5700 Y4.6900
G01 X15.5700 Y4.6900
G01 X15.5700 Y4.6900
G00 X15.5700 Y4.6900
G01 F100.00
G01 Z-1.6000
G01 F300.00
G01 X15.5700 Y4.6900
G01 X15.5700 Y4.6900
G01 X15.5700 Y4.6900
G01 X15.5700 Y4.6900
G00 X15.5700 Y4.6900
G01 F100.00
G01 Z-1.8000
G01 F300.00
G01 X15.5700 Y4.6900
G01 X15.5700 Y4.6900
G01 X15.5700 Y4.6900
G01 X15.5700 Y4.6900
G00 X15.5700 Y4.6900
G01 F100.00
G01 Z-2.0000
G01 F300.00
G01 X15.5700 Y4.6900
G01 X15.5700 Y4.6900
G01 X15.5700 Y4.6900
G01 X15.5700 Y4.6900
G00 X15.5700 Y4.6900
G01 F100.00
G01 Z-2.2000
G01 F300.00
G01 X15.5700 Y4.6900
G01 X15.5700 Y4.6900
G01 X15.5700 Y4.6900
G01 X15.5700 Y4.6900
G00 X15.5700 Y4.6900
G01 F100.00
G01 Z-2.4000
G01 F300.00
G01 X15.5700 Y4.6900
G01 X15.5700 Y4.6900
G01 X15.5700 Y4.6900
G01 X15.5700 Y4.6900
G00 X15.5700 Y4.6900
G01 F100.00
G01 Z-2.5000
G01 F300.00
G01 X15.5700 Y4.6900
G01 X15.5700 Y4.6900
G01 X15.5700 Y4.6900
G01 X15.5700 Y4.6900
G00 Z2.0000
G00 X20.6500 Y4.6900
G01 F100.00
G01 Z-0.2000
G01 F300.00
G01 X20.6500 Y4.6900
G01 X20.6500 Y4.6900
G01 X20.6500 Y4.6900
G01 X20.6500 Y4.6900
G00 X20.6500 Y4.6900
G01 F100.00
G01 Z-0.4000
G01 F300.00
G01 X20.6500 Y4.6900
G01 X20.6500 Y4.6900
G01 X20.6500 Y4.6900
G01 X20.6500 Y4.6900
G00 X20.6500 Y4.6900
G01 F100.00
G01 Z-0.6000
G01 F300.00
G01 X20.6500 Y4.6900
G01 X20.6500 Y4.6900
G01 X20.6500 Y4.6900
G01 X20.6500 Y4.6900
G00 X20.6500 Y4.6900
G01 F100.00
G01 Z-0.8000
G01 F300.00
G01 X20.6500 Y4.6900
G01 X20.6500 Y4.6900
G01 X20.6500 Y4.6900
G01 X20.6500 Y4.6900
G00 X20.6500 Y4.6900
G01 F100.00
G01 Z-1.0000
G01 F300.00
G01 X20.6500 Y4.6900
G01 X20.6500 Y4.6900
G01 X20.6500 Y4.6900
G01 X20.6500 Y4.6900
G00 X20.6500 Y4.6900
G01 F100.00
G01 Z-1.2000
G01 F300.00
G01 X20.6500 Y4.6900
G01 X20.6500 Y4.6900
G01 X20.6500 Y4.6900
G01 X20.6500 Y4.6900
G00 X20.6500 Y4.6900
G01 F100.00
G01 Z-1.4000
G01 F300.00
G01 X20.6500 Y4.6900
G01 X20.6500 Y4.6900
G01 X20.6500 Y4.6900
G01 X20.6500 Y4.6900
G00 X20.6500 Y4.6900
G01 F100.00
G01 Z-1.6000
G01 F300.00
G01 X20.6500 Y4.6900
G01 X20.6500 Y4.6900
G01 X20.6500 Y4.6900
G01 X20.6500 Y4.6900
G00 X20.6500 Y4.6900
G01 F100.00
G01 Z-1.8000
G01 F300.00
G01 X20.6500 Y4.6900
G01 X20.6500 Y4.6900
G01 X20.6500 Y4.6900
G01 X20.6500 Y4.6900
G00 X20.6500 Y4.6900
G01 F100.00
G01 Z-2.0000
G01 F300.00
G01 X20.6500 Y4.6900
G01 X20.6500 Y4.6900
G01 X20.6500 Y4.6900
G01 X20.6500 Y4.6900
G00 X20.6500 Y4.6900
G01 F100.00
G01 Z-2.2000
G01 F300.00
G01 X20.6500 Y4.6900
G01 X20.6500 Y4.6900
G01 X20.6500 Y4.6900
G01 X20.6500 Y4.6900
G00 X20.6500 Y4.6900
G01 F100.00
G01 Z-2.4000
G01 F300.00
G01 X20.6500 Y4.6900
G01 X20.6500 Y4.6900
G01 X20.6500 Y4.6900
G01 X20.6500 Y4.6900
G00 X20.6500 Y4.6900
G01 F100.00
G01 Z-2.5000
G01 F300.00
G01 X20.6500 Y4.6900
G01 X20.6500 Y4.6900
G01 X20.6500 Y4.6900
G01 X20.6500 Y4.6900
G00 Z2.0000
G00 X20.6500 Y5.9600
G01 F100.00
G01 Z-0.2000
G01 F300.00
G01 X20.6500 Y5.9600
G01 X20.6500 Y5.9600
G01 X20.6500 Y5.9600
G01 X20.6500 Y5.9600
G00 X20.6500 Y5.9600
G01 F100.00
G01 Z-0.4000
G01 F300.00
G01 X20.6500 Y5.9600
G01 X20.6500 Y5.9600
G01 X20.6500 Y5.9600
G01 X20.6500 Y5.9600
G00 X20.6500 Y5.9600
G01 F100.00
G01 Z-0.6000
G01 F300.00
G01 X20.6500 Y5.9600
G01 X20.6500 Y5.9600
G01 X20.6500 Y5.9600
G01 X20.6500 Y5.9600
G00 X20.6500 Y5.9600
G01 F100.00
G01 Z-0.8000
G01 F300.00
G01 X20.6500 Y5.9600
G01 X20.6500 Y5.9600
G01 X20.6500 Y5.9600
G01 X20.6500 Y5.9600
G00 X20.6500 Y5.9600
G01 F100.00
G01 Z-1.0000
G01 F300.00
G01 X20.6500 Y5.9600
G01 X20.6500 Y5.9600
G01 X20.6500 Y5.9600
G01 X20.6500 Y5.9600
G00 X20.6500 Y5.9600
G01 F100.00
G01 Z-1.2000
G01 F300.00
G01 X20.6500 Y5.9600
G01 X20.6500 Y5.9600
G01 X20.6500 Y5.9600
G01 X20.6500 Y5.9600
G00 X20.6500 Y5.9600
G01 F100.00
G01 Z-1.4000
G01 F300.00
G01 X20.6500 Y5.9600
G01 X20.6500 Y5.9600
G01 X20.6500 Y5.9600
G01 X20.6500 Y5.9600
G00 X20.6500 Y5.9600
G01 F100.00
G01 Z-1.6000
G01 F300.00
G01 X20.6500 Y5.9600
G01 X20.6500 Y5.9600
G01 X20.6500 Y5.9600
G01 X20.6500 Y5.9600
G00 X20.6500 Y5.9600
G01 F100.00
G01 Z-1.8000
G01 F300.00
G01 X20.6500 Y5.9600
G01 X20.6500 Y5.9600
G01 X20.6500 Y5.9600
G01 X20.6500 Y5.9600
G00 X20.6500 Y5.9600
G01 F100.00
G01 Z-2.0000
G01 F300.00
G01 X20.6500 Y5.9600
G01 X20.6500 Y5.9600
G01 X20.6500 Y5.9600
G01 X20.6500 Y5.9600
G00 X20.6500 Y5.9600
G01 F100.00
G01 Z-2.2000
G01 F300.00
G01 X20.6500 Y5.9600
G01 X20.6500 Y5.9600
G01 X20.6500 Y5.9600
G01 X20.6500 Y5.9600
G00 X20.6500 Y5.9600
G01 F100.00
G01 Z-2.4000
G01 F300.00
G01 X20.6500 Y5.9600
G01 X20.6500 Y5.9600
G01 X20.6500 Y5.9600
G01 X20.6500 Y5.9600
G00 X20.6500 Y5.9600
G01 F100.00
G01 Z-2.5000
G01 F300.00
G01 X20.6500 Y5.9600
G01 X20.6500 Y5.9600
G01 X20.6500 Y5.9600
G01 X20.6500 Y5.9600
G00 Z2.0000
G00 X20.6500 Y3.4200
G01 F100.00
G01 Z-0.2000
G01 F300.00
G01 X20.6500 Y3.4200
G01 X20.6500 Y3.4200
G01 X20.6500 Y3.4200
G01 X20.6500 Y3.4200
G00 X20.6500 Y3.4200
G01 F100.00
G01 Z-0.4000
G01 F300.00
G01 X20.6500 Y3.4200
G01 X20.6500 Y3.4200
G01 X20.6500 Y3.4200
G01 X20.6500 Y3.4200
G00 X20.6500 Y3.4200
G01 F100.00
G01 Z-0.6000
G01 F300.00
G01 X20.6500 Y3.4200
G01 X20.6500 Y3.4200
G01 X20.6500 Y3.4200
G01 X20.6500 Y3.4200
G00 X20.6500 Y3.4200
G01 F100.00
G01 Z-0.8000
G01 F300.00
G01 X20.6500 Y3.4200
G01 X20.6500 Y3.4200
G01 X20.6500 Y3.4200
G01 X20.6500 Y3.4200
G00 X20.6500 Y3.4200
G01 F100.00
G01 Z-1.0000
G01 F300.00
G01 X20.6500 Y3.4200
G01 X20.6500 Y3.4200
G01 X20.6500 Y3.4200
G01 X20.6500 Y3.4200
G00 X20.6500 Y3.4200
G01 F100.00
G01 Z-1.2000
G01 F300.00
G01 X20.6500 Y3.4200
G01 X20.6500 Y3.4200
G01 X20.6500 Y3.4200
G01 X20.6500 Y3.4200
G00 X20.6500 Y3.4200
G01 F100.00
G01 Z-1.4000
G01 F300.00
G01 X20.6500 Y3.4200
G01 X20.6500 Y3.4200
G01 X20.6500 Y3.4200
G01 X20.6500 Y3.4200
G00 X20.6500 Y3.4200
G01 F100.00
G01 Z-1.6000
G01 F300.00
G01 X20.6500 Y3.4200
G01 X20.6500 Y3.4200
G01 X20.6500 Y3.4200
G01 X20.6500 Y3.4200
G00 X20.6500 Y3.4200
G01 F100.00
G01 Z-1.8000
G01 F300.00
G01 X20.6500 Y3.4200
G01 X20.6500 Y3.4200
G01 X20.6500 Y3.4200
G01 X20.6500 Y3.4200
G00 X20.6500 Y3.4200
G01 F100.00
G01 Z-2.0000
G01 F300.00
G01 X20.6500 Y3.4200
G01 X20.6500 Y3.4200
G01 X20.6500 Y3.4200
G01 X20.6500 Y3.4200
G00 X20.6500 Y3.4200
G01 F100.00
G01 Z-2.2000
G01 F300.00
G01 X20.6500 Y3.4200
G01 X20.6500 Y3.4200
G01 X20.6500 Y3.4200
G01 X20.6500 Y3.4200
G00 X20.6500 Y3.4200
G01 F100.00
G01 Z-2.4000
G01 F300.00
G01 X20.6500 Y3.4200
G01 X20.6500 Y3.4200
G01 X20.6500 Y3.4200
G01 X20.6500 Y3.4200
G00 X20.6500 Y3.4200
G01 F100.00
G01 Z-2.5000
G01 F300.00
G01 X20.6500 Y3.4200
G01 X20.6500 Y3.4200
G01 X20.6500 Y3.4200
G01 X20.6500 Y3.4200
G00 Z2.0000
G00 X27.1000 Y9.7700
G01 F100.00
G01 Z-0.2000
G01 F300.00
G01 X27.0995 Y9.7602
G01 X27.0981 Y9.7505
G01 X27.0957 Y9.7410
G01 X27.0924 Y9.7317
G01 X27.0882 Y9.7229
G01 X27.0831 Y9.7144
G01 X27.0773 Y9.7066
G01 X27.0707 Y9.6993
G01 X27.0634 Y9.6927
G01 X27.0556 Y9.6869
G01 X27.0471 Y9.6818
G01 X27.0383 Y9.6776
G01 X27.0290 Y9.6743
G01 X27.0195 Y9.6719
G01 X27.0098 Y9.6705
G01 X27.0000 Y9.6700
G01 X26.9902 Y9.6705
G01 X26.9805 Y9.6719
G01 X26.9710 Y9.6743
G01 X26.9617 Y9.6776
G01 X26.9529 Y9.6818
G01 X26.9444 Y9.6869
G01 X26.9366 Y9.6927
G01 X26.9293 Y9.6993
G01 X26.9227 Y9.7066
G01 X26.9169 Y9.7144
G01 X26.9118 Y9.7229
G01 X26.9076 Y9.7317
G01 X26.9043 Y9.7410
G01 X26.9019 Y9.7505
G01 X26.9005 Y9.7602
G01 X26.9000 Y9.7700
G01 X26.9005 Y9.7798
G01 X26.9019 Y9.7895
G01 X26.9043 Y9.7990
G01 X26.9076 Y9.8083
G01 X26.9118 Y9.8171
G01 X26.9169 Y9.8256
G01 X26.9227 Y9.8334
G01 X26.9293 Y9.8407
G01 X26.9366 Y9.8473
G01 X26.9444 Y9.8531
G01 X26.9529 Y9.8582
G01 X26.9617 Y9.8624
G01 X26.9710 Y9.8657
G01 X26.9805 Y9.8681
G01 X26.9902 Y9.8695
G01 X27.0000 Y9.8700
G01 X27.0098 Y9.8695
G01 X27.0195 Y9.8681
G01 X27.0290 Y9.8657
G01 X27.0383 Y9.8624
G01 X27.0471 Y9.8582
G01 X27.0556 Y9.8531
G01 X27.0634 Y9.8473
G01 X27.0707 Y9.8407
G01 X27.0773 Y9.8334
G01 X27.0831 Y9.8256
G01 X27.0882 Y9.8171
G01 X27.0924 Y9.8083
G01 X27.0957 Y9.7990
G01 X27.0981 Y9.7895
G01 X27.0995 Y9.7798
G01 X27.1000 Y9.7700
G00 X27.1000 Y9.7700
G01 F100.00
G01 Z-0.4000
G01 F300.00
G01 X27.0995 Y9.7602
G01 X27.0981 Y9.7505
G01 X27.0957 Y9.7410
G01 X27.0924 Y9.7317
G01 X27.0882 Y9.7229
G01 X27.0831 Y9.7144
G01 X27.0773 Y9.7066
G01 X27.0707 Y9.6993
G01 X27.0634 Y9.6927
G01 X27.0556 Y9.6869
G01 X27.0471 Y9.6818
G01 X27.0383 Y9.6776
G01 X27.0290 Y9.6743
G01 X27.0195 Y9.6719
G01 X27.0098 Y9.6705
G01 X27.0000 Y9.6700
G01 X26.9902 Y9.6705
G01 X26.9805 Y9.6719
G01 X26.9710 Y9.6743
G01 X26.9617 Y9.6776
G01 X26.9529 Y9.6818
G01 X26.9444 Y9.6869
G01 X26.9366 Y9.6927
G01 X26.9293 Y9.6993
G01 X26.9227 Y9.7066
G01 X26.9169 Y9.7144
G01 X26.9118 Y9.7229
G01 X26.9076 Y9.7317
G01 X26.9043 Y9.7410
G01 X26.9019 Y9.7505
G01 X26.9005 Y9.7602
G01 X26.9000 Y9.7700
G01 X26.9005 Y9.7798
G01 X26.9019 Y9.7895
G01 X26.9043 Y9.7990
G01 X26.9076 Y9.8083
G01 X26.9118 Y9.8171
G01 X26.9169 Y9.8256
G01 X26.9227 Y9.8334
G01 X26.9293 Y9.8407
G01 X26.9366 Y9.8473
G01 X26.9444 Y9.8531
G01 X26.9529 Y9.8582
G01 X26.9617 Y9.8624
G01 X26.9710 Y9.8657
G01 X26.9805 Y9.8681
G01 X26.9902 Y9.8695
G01 X27.0000 Y9.8700
G01 X27.0098 Y9.8695
G01 X27.0195 Y9.8681
G01 X27.0290 Y9.8657
G01 X27.0383 Y9.8624
G01 X27.0471 Y9.8582
G01 X27.0556 Y9.8531
G01 X27.0634 Y9.8473
G01 X27.0707 Y9.8407
G01 X27.0773 Y9.8334
G01 X27.0831 Y9.8256
G01 X27.0882 Y9.8171
G01 X27.0924 Y9.8083
G01 X27.0957 Y9.7990
G01 X27.0981 Y9.7895
G01 X27.0995 Y9.7798
G01 X27.1000 Y9.7700
G00 X27.1000 Y9.7700
G01 F100.00
G01 Z-0.6000
G01 F300.00
G01 X27.0995 Y9.7602
G01 X27.0981 Y9.7505
G01 X27.0957 Y9.7410
G01 X27.0924 Y9.7317
G01 X27.0882 Y9.7229
G01 X27.0831 Y9.7144
G01 X27.0773 Y9.7066
G01 X27.0707 Y9.6993
G01 X27.0634 Y9.6927
G01 X27.0556 Y9.6869
G01 X27.0471 Y9.6818
G01 X27.0383 Y9.6776
G01 X27.0290 Y9.6743
G01 X27.0195 Y9.6719
G01 X27.0098 Y9.6705
G01 X27.0000 Y9.6700
G01 X26.9902 Y9.6705
G01 X26.9805 Y9.6719
G01 X26.9710 Y9.6743
G01 X26.9617 Y9.6776
G01 X26.9529 Y9.6818
G01 X26.9444 Y9.6869
G01 X26.9366 Y9.6927
G01 X26.9293 Y9.6993
G01 X26.9227 Y9.7066
G01 X26.9169 Y9.7144
G01 X26.9118 Y9.7229
G01 X26.9076 Y9.7317
G01 X26.9043 Y9.7410
G01 X26.9019 Y9.7505
G01 X26.9005 Y9.7602
G01 X26.9000 Y9.7700
G01 X26.9005 Y9.7798
G01 X26.9019 Y9.7895
G01 X26.9043 Y9.7990
G01 X26.9076 Y9.8083
G01 X26.9118 Y9.8171
G01 X26.9169 Y9.8256
G01 X26.9227 Y9.8334
G01 X26.9293 Y9.8407
G01 X26.9366 Y9.8473
G01 X26.9444 Y9.8531
G01 X26.9529 Y9.8582
G01 X26.9617 Y9.8624
G01 X26.9710 Y9.8657
G01 X26.9805 Y9.8681
G01 X26.9902 Y9.8695
G01 X27.0000 Y9.8700
G01 X27.0098 Y9.8695
G01 X27.0195 Y9.8681
G01 X27.0290 Y9.8657
G01 X27.0383 Y9.8624
G01 X27.0471 Y9.8582
G01 X27.0556 Y9.8531
G01 X27.0634 Y9.8473
G01 X27.0707 Y9.8407
G01 X27.0773 Y9.8334
G01 X27.0831 Y9.8256
G01 X27.0882 Y9.8171
G01 X27.0924 Y9.8083
G01 X27.0957 Y9.7990
G01 X27.0981 Y9.7895
G01 X27.0995 Y9.7798
G01 X27.1000 Y9.7700
G00 X27.1000 Y9.7700
G01 F100.00
G01 Z-0.8000
G01 F300.00
G01 X27.0995 Y9.7602
G01 X27.0981 Y9.7505
G01 X27.0957 Y9.7410
G01 X27.0924 Y9.7317
G01 X27.0882 Y9.7229
G01 X27.0831 Y9.7144
G01 X27.0773 Y9.7066
G01 X27.0707 Y9.6993
G01 X27.0634 Y9.6927
G01 X27.0556 Y9.6869
G01 X27.0471 Y9.6818
G01 X27.0383 Y9.6776
G01 X27.0290 Y9.6743
G01 X27.0195 Y9.6719
G01 X27.0098 Y9.6705
G01 X27.0000 Y9.6700
G01 X26.9902 Y9.6705
G01 X26.9805 Y9.6719
G01 X26.9710 Y9.6743
G01 X26.9617 Y9.6776
G01 X26.9529 Y9.6818
G01 X26.9444 Y9.6869
G01 X26.9366 Y9.6927
G01 X26.9293 Y9.6993
G01 X26.9227 Y9.7066
G01 X26.9169 Y9.7144
G01 X26.9118 Y9.7229
G01 X26.9076 Y9.7317
G01 X26.9043 Y9.7410
G01 X26.9019 Y9.7505
G01 X26.9005 Y9.7602
G01 X26.9000 Y9.7700
G01 X26.9005 Y9.7798
G01 X26.9019 Y9.7895
G01 X26.9043 Y9.7990
G01 X26.9076 Y9.8083
G01 X26.9118 Y9.8171
G01 X26.9169 Y9.8256
G01 X26.9227 Y9.8334
G01 X26.9293 Y9.8407
G01 X26.9366 Y9.8473
G01 X26.9444 Y9.8531
G01 X26.9529 Y9.8582
G01 X26.9617 Y9.8624
G01 X26.9710 Y9.8657
G01 X26.9805 Y9.8681
G01 X26.9902 Y9.8695
G01 X27.0000 Y9.8700
G01 X27.0098 Y9.8695
G01 X27.0195 Y9.8681
G01 X27.0290 Y9.8657
G01 X27.0383 Y9.8624
G01 X27.0471 Y9.8582
G01 X27.0556 Y9.8531
G01 X27.0634 Y9.8473
G01 X27.0707 Y9.8407
G01 X27.0773 Y9.8334
G01 X27.0831 Y9.8256
G01 X27.0882 Y9.8171
G01 X27.0924 Y9.8083
G01 X27.0957 Y9.7990
G01 X27.0981 Y9.7895
G01 X27.0995 Y9.7798
G01 X27.1000 Y9.7700
G00 X27.1000 Y9.7700
G01 F100.00
G01 Z-1.0000
G01 F300.00
G01 X27.0995 Y9.7602
G01 X27.0981 Y9.7505
G01 X27.0957 Y9.7410
G01 X27.0924 Y9.7317
G01 X27.0882 Y9.7229
G01 X27.0831 Y9.7144
G01 X27.0773 Y9.7066
G01 X27.0707 Y9.6993
G01 X27.0634 Y9.6927
G01 X27.0556 Y9.6869
G01 X27.0471 Y9.6818
G01 X27.0383 Y9.6776
G01 X27.0290 Y9.6743
G01 X27.0195 Y9.6719
G01 X27.0098 Y9.6705
G01 X27.0000 Y9.6700
G01 X26.9902 Y9.6705
G01 X26.9805 Y9.6719
G01 X26.9710 Y9.6743
G01 X26.9617 Y9.6776
G01 X26.9529 Y9.6818
G01 X26.9444 Y9.6869
G01 X26.9366 Y9.6927
G01 X26.9293 Y9.6993
G01 X26.9227 Y9.7066
G01 X26.9169 Y9.7144
G01 X26.9118 Y9.7229
G01 X26.9076 Y9.7317
G01 X26.9043 Y9.7410
G01 X26.9019 Y9.7505
G01 X26.9005 Y9.7602
G01 X26.9000 Y9.7700
G01 X26.9005 Y9.7798
G01 X26.9019 Y9.7895
G01 X26.9043 Y9.7990
G01 X26.9076 Y9.8083
G01 X26.9118 Y9.8171
G01 X26.9169 Y9.8256
G01 X26.9227 Y9.8334
G01 X26.9293 Y9.8407
G01 X26.9366 Y9.8473
G01 X26.9444 Y9.8531
G01 X26.9529 Y9.8582
G01 X26.9617 Y9.8624
G01 X26.9710 Y9.8657
G01 X26.9805 Y9.8681
G01 X26.9902 Y9.8695
G01 X27.0000 Y9.8700
G01 X27.0098 Y9.8695
G01 X27.0195 Y9.8681
G01 X27.0290 Y9.8657
G01 X27.0383 Y9.8624
G01 X27.0471 Y9.8582
G01 X27.0556 Y9.8531
G01 X27.0634 Y9.8473
G01 X27.0707 Y9.8407
G01 X27.0773 Y9.8334
G01 X27.0831 Y9.8256
G01 X27.0882 Y9.8171
G01 X27.0924 Y9.8083
G01 X27.0957 Y9.7990
G01 X27.0981 Y9.7895
G01 X27.0995 Y9.7798
G01 X27.1000 Y9.7700
G00 X27.1000 Y9.7700
G01 F100.00
G01 Z-1.2000
G01 F300.00
G01 X27.0995 Y9.7602
G01 X27.0981 Y9.7505
G01 X27.0957 Y9.7410
G01 X27.0924 Y9.7317
G01 X27.0882 Y9.7229
G01 X27.0831 Y9.7144
G01 X27.0773 Y9.7066
G01 X27.0707 Y9.6993
G01 X27.0634 Y9.6927
G01 X27.0556 Y9.6869
G01 X27.0471 Y9.6818
G01 X27.0383 Y9.6776
G01 X27.0290 Y9.6743
G01 X27.0195 Y9.6719
G01 X27.0098 Y9.6705
G01 X27.0000 Y9.6700
G01 X26.9902 Y9.6705
G01 X26.9805 Y9.6719
G01 X26.9710 Y9.6743
G01 X26.9617 Y9.6776
G01 X26.9529 Y9.6818
G01 X26.9444 Y9.6869
G01 X26.9366 Y9.6927
G01 X26.9293 Y9.6993
G01 X26.9227 Y9.7066
G01 X26.9169 Y9.7144
G01 X26.9118 Y9.7229
G01 X26.9076 Y9.7317
G01 X26.9043 Y9.7410
G01 X26.9019 Y9.7505
G01 X26.9005 Y9.7602
G01 X26.9000 Y9.7700
G01 X26.9005 Y9.7798
G01 X26.9019 Y9.7895
G01 X26.9043 Y9.7990
G01 X26.9076 Y9.8083
G01 X26.9118 Y9.8171
G01 X26.9169 Y9.8256
G01 X26.9227 Y9.8334
G01 X26.9293 Y9.8407
G01 X26.9366 Y9.8473
G01 X26.9444 Y9.8531
G01 X26.9529 Y9.8582
G01 X26.9617 Y9.8624
G01 X26.9710 Y9.8657
G01 X26.9805 Y9.8681
G01 X26.9902 Y9.8695
G01 X27.0000 Y9.8700
G01 X27.0098 Y9.8695
G01 X27.0195 Y9.8681
G01 X27.0290 Y9.8657
G01 X27.0383 Y9.8624
G01 X27.0471 Y9.8582
G01 X27.0556 Y9.8531
G01 X27.0634 Y9.8473
G01 X27.0707 Y9.8407
G01 X27.0773 Y9.8334
G01 X27.0831 Y9.8256
G01 X27.0882 Y9.8171
G01 X27.0924 Y9.8083
G01 X27.0957 Y9.7990
G01 X27.0981 Y9.7895
G01 X27.0995 Y9.7798
G01 X27.1000 Y9.7700
G00 X27.1000 Y9.7700
G01 F100.00
G01 Z-1.4000
G01 F300.00
G01 X27.0995 Y9.7602
G01 X27.0981 Y9.7505
G01 X27.0957 Y9.7410
G01 X27.0924 Y9.7317
G01 X27.0882 Y9.7229
G01 X27.0831 Y9.7144
G01 X27.0773 Y9.7066
G01 X27.0707 Y9.6993
G01 X27.0634 Y9.6927
G01 X27.0556 Y9.6869
G01 X27.0471 Y9.6818
G01 X27.0383 Y9.6776
G01 X27.0290 Y9.6743
G01 X27.0195 Y9.6719
G01 X27.0098 Y9.6705
G01 X27.0000 Y9.6700
G01 X26.9902 Y9.6705
G01 X26.9805 Y9.6719
G01 X26.9710 Y9.6743
G01 X26.9617 Y9.6776
G01 X26.9529 Y9.6818
G01 X26.9444 Y9.6869
G01 X26.9366 Y9.6927
G01 X26.9293 Y9.6993
G01 X26.9227 Y9.7066
G01 X26.9169 Y9.7144
G01 X26.9118 Y9.7229
G01 X26.9076 Y9.7317
G01 X26.9043 Y9.7410
G01 X26.9019 Y9.7505
G01 X26.9005 Y9.7602
G01 X26.9000 Y9.7700
G01 X26.9005 Y9.7798
G01 X26.9019 Y9.7895
G01 X26.9043 Y9.7990
G01 X26.9076 Y9.8083
G01 X26.9118 Y9.8171
G01 X26.9169 Y9.8256
G01 X26.9227 Y9.8334
G01 X26.9293 Y9.8407
G01 X26.9366 Y9.8473
G01 X26.9444 Y9.8531
G01 X26.9529 Y9.8582
G01 X26.9617 Y9.8624
G01 X26.9710 Y9.8657
G01 X26.9805 Y9.8681
G01 X26.9902 Y9.8695
G01 X27.0000 Y9.8700
G01 X27.0098 Y9.8695
G01 X27.0195 Y9.8681
G01 X27.0290 Y9.8657
G01 X27.0383 Y9.8624
G01 X27.0471 Y9.8582
G01 X27.0556 Y9.8531
G01 X27.0634 Y9.8473
G01 X27.0707 Y9.8407
G01 X27.0773 Y9.8334
G01 X27.0831 Y9.8256
G01 X27.0882 Y9.8171
G01 X27.0924 Y9.8083
G01 X27.0957 Y9.7990
G01 X27.0981 Y9.7895
G01 X27.0995 Y9.7798
G01 X27.1000 Y9.7700
G00 X27.1000 Y9.7700
G01 F100.00
G01 Z-1.6000
G01 F300.00
G01 X27.0995 Y9.7602
G01 X27.0981 Y9.7505
G01 X27.0957 Y9.7410
G01 X27.0924 Y9.7317
G01 X27.0882 Y9.7229
G01 X27.0831 Y9.7144
G01 X27.0773 Y9.7066
G01 X27.0707 Y9.6993
G01 X27.0634 Y9.6927
G01 X27.0556 Y9.6869
G01 X27.0471 Y9.6818
G01 X27.0383 Y9.6776
G01 X27.0290 Y9.6743
G01 X27.0195 Y9.6719
G01 X27.0098 Y9.6705
G01 X27.0000 Y9.6700
G01 X26.9902 Y9.6705
G01 X26.9805 Y9.6719
G01 X26.9710 Y9.6743
G01 X26.9617 Y9.6776
G01 X26.9529 Y9.6818
G01 X26.9444 Y9.6869
G01 X26.9366 Y9.6927
G01 X26.9293 Y9.6993
G01 X26.9227 Y9.7066
G01 X26.9169 Y9.7144
G01 X26.9118 Y9.7229
G01 X26.9076 Y9.7317
G01 X26.9043 Y9.7410
G01 X26.9019 Y9.7505
G01 X26.9005 Y9.7602
G01 X26.9000 Y9.7700
G01 X26.9005 Y9.7798
G01 X26.9019 Y9.7895
G01 X26.9043 Y9.7990
G01 X26.9076 Y9.8083
G01 X26.9118 Y9.8171
G01 X26.9169 Y9.8256
G01 X26.9227 Y9.8334
G01 X26.9293 Y9.8407
G01 X26.9366 Y9.8473
G01 X26.9444 Y9.8531
G01 X26.9529 Y9.8582
G01 X26.9617 Y9.8624
G01 X26.9710 Y9.8657
G01 X26.9805 Y9.8681
G01 X26.9902 Y9.8695
G01 X27.0000 Y9.8700
G01 X27.0098 Y9.8695
G01 X27.0195 Y9.8681
G01 X27.0290 Y9.8657
G01 X27.0383 Y9.8624
G01 X27.0471 Y9.8582
G01 X27.0556 Y9.8531
G01 X27.0634 Y9.8473
G01 X27.0707 Y9.8407
G01 X27.0773 Y9.8334
G01 X27.0831 Y9.8256
G01 X27.0882 Y9.8171
G01 X27.0924 Y9.8083
G01 X27.0957 Y9.7990
G01 X27.0981 Y9.7895
G01 X27.0995 Y9.7798
G01 X27.1000 Y9.7700
G00 X27.1000 Y9.7700
G01 F100.00
G01 Z-1.8000
G01 F300.00
G01 X27.0995 Y9.7602
G01 X27.0981 Y9.7505
G01 X27.0957 Y9.7410
G01 X27.0924 Y9.7317
G01 X27.0882 Y9.7229
G01 X27.0831 Y9.7144
G01 X27.0773 Y9.7066
G01 X27.0707 Y9.6993
G01 X27.0634 Y9.6927
G01 X27.0556 Y9.6869
G01 X27.0471 Y9.6818
G01 X27.0383 Y9.6776
G01 X27.0290 Y9.6743
G01 X27.0195 Y9.6719
G01 X27.0098 Y9.6705
G01 X27.0000 Y9.6700
G01 X26.9902 Y9.6705
G01 X26.9805 Y9.6719
G01 X26.9710 Y9.6743
G01 X26.9617 Y9.6776
G01 X26.9529 Y9.6818
G01 X26.9444 Y9.6869
G01 X26.9366 Y9.6927
G01 X26.9293 Y9.6993
G01 X26.9227 Y9.7066
G01 X26.9169 Y9.7144
G01 X26.9118 Y9.7229
G01 X26.9076 Y9.7317
G01 X26.9043 Y9.7410
G01 X26.9019 Y9.7505
G01 X26.9005 Y9.7602
G01 X26.9000 Y9.7700
G01 X26.9005 Y9.7798
G01 X26.9019 Y9.7895
G01 X26.9043 Y9.7990
G01 X26.9076 Y9.8083
G01 X26.9118 Y9.8171
G01 X26.9169 Y9.8256
G01 X26.9227 Y9.8334
G01 X26.9293 Y9.8407
G01 X26.9366 Y9.8473
G01 X26.9444 Y9.8531
G01 X26.9529 Y9.8582
G01 X26.9617 Y9.8624
G01 X26.9710 Y9.8657
G01 X26.9805 Y9.8681
G01 X26.9902 Y9.8695
G01 X27.0000 Y9.8700
G01 X27.0098 Y9.8695
G01 X27.0195 Y9.8681
G01 X27.0290 Y9.8657
G01 X27.0383 Y9.8624
G01 X27.0471 Y9.8582
G01 X27.0556 Y9.8531
G01 X27.0634 Y9.8473
G01 X27.0707 Y9.8407
G01 X27.0773 Y9.8334
G01 X27.0831 Y9.8256
G01 X27.0882 Y9.8171
G01 X27.0924 Y9.8083
G01 X27.0957 Y9.7990
G01 X27.0981 Y9.7895
G01 X27.0995 Y9.7798
G01 X27.1000 Y9.7700
G00 X27.1000 Y9.7700
G01 F100.00
G01 Z-2.0000
G01 F300.00
G01 X27.0995 Y9.7602
G01 X27.0981 Y9.7505
G01 X27.0957 Y9.7410
G01 X27.0924 Y9.7317
G01 X27.0882 Y9.7229
G01 X27.0831 Y9.7144
G01 X27.0773 Y9.7066
G01 X27.0707 Y9.6993
G01 X27.0634 Y9.6927
G01 X27.0556 Y9.6869
G01 X27.0471 Y9.6818
G01 X27.0383 Y9.6776
G01 X27.0290 Y9.6743
G01 X27.0195 Y9.6719
G01 X27.0098 Y9.6705
G01 X27.0000 Y9.6700
G01 X26.9902 Y9.6705
G01 X26.9805 Y9.6719
G01 X26.9710 Y9.6743
G01 X26.9617 Y9.6776
G01 X26.9529 Y9.6818
G01 X26.9444 Y9.6869
G01 X26.9366 Y9.6927
G01 X26.9293 Y9.6993
G01 X26.9227 Y9.7066
G01 X26.9169 Y9.7144
G01 X26.9118 Y9.7229
G01 X26.9076 Y9.7317
G01 X26.9043 Y9.7410
G01 X26.9019 Y9.7505
G01 X26.9005 Y9.7602
G01 X26.9000 Y9.7700
G01 X26.9005 Y9.7798
G01 X26.9019 Y9.7895
G01 X26.9043 Y9.7990
G01 X26.9076 Y9.8083
G01 X26.9118 Y9.8171
G01 X26.9169 Y9.8256
G01 X26.9227 Y9.8334
G01 X26.9293 Y9.8407
G01 X26.9366 Y9.8473
G01 X26.9444 Y9.8531
G01 X26.9529 Y9.8582
G01 X26.9617 Y9.8624
G01 X26.9710 Y9.8657
G01 X26.9805 Y9.8681
G01 X26.9902 Y9.8695
G01 X27.0000 Y9.8700
G01 X27.0098 Y9.8695
G01 X27.0195 Y9.8681
G01 X27.0290 Y9.8657
G01 X27.0383 Y9.8624
G01 X27.0471 Y9.8582
G01 X27.0556 Y9.8531
G01 X27.0634 Y9.8473
G01 X27.0707 Y9.8407
G01 X27.0773 Y9.8334
G01 X27.0831 Y9.8256
G01 X27.0882 Y9.8171
G01 X27.0924 Y9.8083
G01 X27.0957 Y9.7990
G01 X27.0981 Y9.7895
G01 X27.0995 Y9.7798
G01 X27.1000 Y9.7700
G00 X27.1000 Y9.7700
G01 F100.00
G01 Z-2.2000
G01 F300.00
G01 X27.0995 Y9.7602
G01 X27.0981 Y9.7505
G01 X27.0957 Y9.7410
G01 X27.0924 Y9.7317
G01 X27.0882 Y9.7229
G01 X27.0831 Y9.7144
G01 X27.0773 Y9.7066
G01 X27.0707 Y9.6993
G01 X27.0634 Y9.6927
G01 X27.0556 Y9.6869
G01 X27.0471 Y9.6818
G01 X27.0383 Y9.6776
G01 X27.0290 Y9.6743
G01 X27.0195 Y9.6719
G01 X27.0098 Y9.6705
G01 X27.0000 Y9.6700
G01 X26.9902 Y9.6705
G01 X26.9805 Y9.6719
G01 X26.9710 Y9.6743
G01 X26.9617 Y9.6776
G01 X26.9529 Y9.6818
G01 X26.9444 Y9.6869
G01 X26.9366 Y9.6927
G01 X26.9293 Y9.6993
G01 X26.9227 Y9.7066
G01 X26.9169 Y9.7144
G01 X26.9118 Y9.7229
G01 X26.9076 Y9.7317
G01 X26.9043 Y9.7410
G01 X26.9019 Y9.7505
G01 X26.9005 Y9.7602
G01 X26.9000 Y9.7700
G01 X26.9005 Y9.7798
G01 X26.9019 Y9.7895
G01 X26.9043 Y9.7990
G01 X26.9076 Y9.8083
G01 X26.9118 Y9.8171
G01 X26.9169 Y9.8256
G01 X26.9227 Y9.8334
G01 X26.9293 Y9.8407
G01 X26.9366 Y9.8473
G01 X26.9444 Y9.8531
G01 X26.9529 Y9.8582
G01 X26.9617 Y9.8624
G01 X26.9710 Y9.8657
G01 X26.9805 Y9.8681
G01 X26.9902 Y9.8695
G01 X27.0000 Y9.8700
G01 X27.0098 Y9.8695
G01 X27.0195 Y9.8681
G01 X27.0290 Y9.8657
G01 X27.0383 Y9.8624
G01 X27.0471 Y9.8582
G01 X27.0556 Y9.8531
G01 X27.0634 Y9.8473
G01 X27.0707 Y9.8407
G01 X27.0773 Y9.8334
G01 X27.0831 Y9.8256
G01 X27.0882 Y9.8171
G01 X27.0924 Y9.8083
G01 X27.0957 Y9.7990
G01 X27.0981 Y9.7895
G01 X27.0995 Y9.7798
G01 X27.1000 Y9.7700
G00 X27.1000 Y9.7700
G01 F100.00
G01 Z-2.4000
G01 F300.00
G01 X27.0995 Y9.7602
G01 X27.0981 Y9.7505
G01 X27.0957 Y9.7410
G01 X27.0924 Y9.7317
G01 X27.0882 Y9.7229
G01 X27.0831 Y9.7144
G01 X27.0773 Y9.7066
G01 X27.0707 Y9.6993
G01 X27.0634 Y9.6927
G01 X27.0556 Y9.6869
G01 X27.0471 Y9.6818
G01 X27.0383 Y9.6776
G01 X27.0290 Y9.6743
G01 X27.0195 Y9.6719
G01 X27.0098 Y9.6705
G01 X27.0000 Y9.6700
G01 X26.9902 Y9.6705
G01 X26.9805 Y9.6719
G01 X26.9710 Y9.6743
G01 X26.9617 Y9.6776
G01 X26.9529 Y9.6818
G01 X26.9444 Y9.6869
G01 X26.9366 Y9.6927
G01 X26.9293 Y9.6993
G01 X26.9227 Y9.7066
G01 X26.9169 Y9.7144
G01 X26.9118 Y9.7229
G01 X26.9076 Y9.7317
G01 X26.9043 Y9.7410
G01 X26.9019 Y9.7505
G01 X26.9005 Y9.7602
G01 X26.9000 Y9.7700
G01 X26.9005 Y9.7798
G01 X26.9019 Y9.7895
G01 X26.9043 Y9.7990
G01 X26.9076 Y9.8083
G01 X26.9118 Y9.8171
G01 X26.9169 Y9.8256
G01 X26.9227 Y9.8334
G01 X26.9293 Y9.8407
G01 X26.9366 Y9.8473
G01 X26.9444 Y9.8531
G01 X26.9529 Y9.8582
G01 X26.9617 Y9.8624
G01 X26.9710 Y9.8657
G01 X26.9805 Y9.8681
G01 X26.9902 Y9.8695
G01 X27.0000 Y9.8700
G01 X27.0098 Y9.8695
G01 X27.0195 Y9.8681
G01 X27.0290 Y9.8657
G01 X27.0383 Y9.8624
G01 X27.0471 Y9.8582
G01 X27.0556 Y9.8531
G01 X27.0634 Y9.8473
G01 X27.0707 Y9.8407
G01 X27.0773 Y9.8334
G01 X27.0831 Y9.8256
G01 X27.0882 Y9.8171
G01 X27.0924 Y9.8083
G01 X27.0957 Y9.7990
G01 X27.0981 Y9.7895
G01 X27.0995 Y9.7798
G01 X27.1000 Y9.7700
G00 X27.1000 Y9.7700
G01 F100.00
G01 Z-2.5000
G01 F300.00
G01 X27.0995 Y9.7602
G01 X27.0981 Y9.7505
G01 X27.0957 Y9.7410
G01 X27.0924 Y9.7317
G01 X27.0882 Y9.7229
G01 X27.0831 Y9.7144
G01 X27.0773 Y9.7066
G01 X27.0707 Y9.6993
G01 X27.0634 Y9.6927
G01 X27.0556 Y9.6869
G01 X27.0471 Y9.6818
G01 X27.0383 Y9.6776
G01 X27.0290 Y9.6743
G01 X27.0195 Y9.6719
G01 X27.0098 Y9.6705
G01 X27.0000 Y9.6700
G01 X26.9902 Y9.6705
G01 X26.9805 Y9.6719
G01 X26.9710 Y9.6743
G01 X26.9617 Y9.6776
G01 X26.9529 Y9.6818
G01 X26.9444 Y9.6869
G01 X26.9366 Y9.6927
G01 X26.9293 Y9.6993
G01 X26.9227 Y9.7066
G01 X26.9169 Y9.7144
G01 X26.9118 Y9.7229
G01 X26.9076 Y9.7317
G01 X26.9043 Y9.7410
G01 X26.9019 Y9.7505
G01 X26.9005 Y9.7602
G01 X26.9000 Y9.7700
G01 X26.9005 Y9.7798
G01 X26.9019 Y9.7895
G01 X26.9043 Y9.7990
G01 X26.9076 Y9.8083
G01 X26.9118 Y9.8171
G01 X26.9169 Y9.8256
G01 X26.9227 Y9.8334
G01 X26.9293 Y9.8407
G01 X26.9366 Y9.8473
G01 X26.9444 Y9.8531
G01 X26.9529 Y9.8582
G01 X26.9617 Y9.8624
G01 X26.9710 Y9.8657
G01 X26.9805 Y9.8681
G01 X26.9902 Y9.8695
G01 X27.0000 Y9.8700
G01 X27.0098 Y9.8695
G01 X27.0195 Y9.8681
G01 X27.0290 Y9.8657
G01 X27.0383 Y9.8624
G01 X27.0471 Y9.8582
G01 X27.0556 Y9.8531
G01 X27.0634 Y9.8473
G01 X27.0707 Y9.8407
G01 X27.0773 Y9.8334
G01 X27.0831 Y9.8256
G01 X27.0882 Y9.8171
G01 X27.0924 Y9.8083
G01 X27.0957 Y9.7990
G01 X27.0981 Y9.7895
G01 X27.0995 Y9.7798
G01 X27.1000 Y9.7700
G00 Z2.0000
G00 X29.6000 Y9.7700
G01 F100.00
G01 Z-0.2000
G01 F300.00
G01 X29.5995 Y9.7602
G01 X29.5981 Y9.7505
G01 X29.5957 Y9.7410
G01 X29.5924 Y9.7317
G01 X29.5882 Y9.7229
G01 X29.5831 Y9.7144
G01 X29.5773 Y9.7066
G01 X29.5707 Y9.6993
G01 X29.5634 Y9.6927
G01 X29.5556 Y9.6869
G01 X29.5471 Y9.6818
G01 X29.5383 Y9.6776
G01 X29.5290 Y9.6743
G01 X29.5195 Y9.6719
G01 X29.5098 Y9.6705
G01 X29.5000 Y9.6700
G01 X29.4902 Y9.6705
G01 X29.4805 Y9.6719
G01 X29.4710 Y9.6743
G01 X29.4617 Y9.6776
G01 X29.4529 Y9.6818
G01 X29.4444 Y9.6869
G01 X29.4366 Y9.6927
G01 X29.4293 Y9.6993
G01 X29.4227 Y9.7066
G01 X29.4169 Y9.7144
G01 X29.4118 Y9.7229
G01 X29.4076 Y9.7317
G01 X29.4043 Y9.7410
G01 X29.4019 Y9.7505
G01 X29.4005 Y9.7602
G01 X29.4000 Y9.7700
G01 X29.4005 Y9.7798
G01 X29.4019 Y9.7895
G01 X29.4043 Y9.7990
G01 X29.4076 Y9.8083
G01 X29.4118 Y9.8171
G01 X29.4169 Y9.8256
G01 X29.4227 Y9.8334
G01 X29.4293 Y9.8407
G01 X29.4366 Y9.8473
G01 X29.4444 Y9.8531
G01 X29.4529 Y9.8582
G01 X29.4617 Y9.8624
G01 X29.4710 Y9.8657
G01 X29.4805 Y9.8681
G01 X29.4902 Y9.8695
G01 X29.5000 Y9.8700
G01 X29.5098 Y9.8695
G01 X29.5195 Y9.8681
G01 X29.5290 Y9.8657
G01 X29.5383 Y9.8624
G01 X29.5471 Y9.8582
G01 X29.5556 Y9.8531
G01 X29.5634 Y9.8473
G01 X29.5707 Y9.8407
G01 X29.5773 Y9.8334
G01 X29.5831 Y9.8256
G01 X29.5882 Y9.8171
G01 X29.5924 Y9.8083
G01 X29.5957 Y9.7990
G01 X29.5981 Y9.7895
G01 X29.5995 Y9.7798
G01 X29.6000 Y9.7700
G00 X29.6000 Y9.7700
G01 F100.00
G01 Z-0.4000
G01 F300.00
G01 X29.5995 Y9.7602
G01 X29.5981 Y9.7505
G01 X29.5957 Y9.7410
G01 X29.5924 Y9.7317
G01 X29.5882 Y9.7229
G01 X29.5831 Y9.7144
G01 X29.5773 Y9.7066
G01 X29.5707 Y9.6993
G01 X29.5634 Y9.6927
G01 X29.5556 Y9.6869
G01 X29.5471 Y9.6818
G01 X29.5383 Y9.6776
G01 X29.5290 Y9.6743
G01 X29.5195 Y9.6719
G01 X29.5098 Y9.6705
G01 X29.5000 Y9.6700
G01 X29.4902 Y9.6705
G01 X29.4805 Y9.6719
G01 X29.4710 Y9.6743
G01 X29.4617 Y9.6776
G01 X29.4529 Y9.6818
G01 X29.4444 Y9.6869
G01 X29.4366 Y9.6927
G01 X29.4293 Y9.6993
G01 X29.4227 Y9.7066
G01 X29.4169 Y9.7144
G01 X29.4118 Y9.7229
G01 X29.4076 Y9.7317
G01 X29.4043 Y9.7410
G01 X29.4019 Y9.7505
G01 X29.4005 Y9.7602
G01 X29.4000 Y9.7700
G01 X29.4005 Y9.7798
G01 X29.4019 Y9.7895
G01 X29.4043 Y9.7990
G01 X29.4076 Y9.8083
G01 X29.4118 Y9.8171
G01 X29.4169 Y9.8256
G01 X29.4227 Y9.8334
G01 X29.4293 Y9.8407
G01 X29.4366 Y9.8473
G01 X29.4444 Y9.8531
G01 X29.4529 Y9.8582
G01 X29.4617 Y9.8624
G01 X29.4710 Y9.8657
G01 X29.4805 Y9.8681
G01 X29.4902 Y9.8695
G01 X29.5000 Y9.8700
G01 X29.5098 Y9.8695
G01 X29.5195 Y9.8681
G01 X29.5290 Y9.8657
G01 X29.5383 Y9.8624
G01 X29.5471 Y9.8582
G01 X29.5556 Y9.8531
G01 X29.5634 Y9.8473
G01 X29.5707 Y9.8407
G01 X29.5773 Y9.8334
G01 X29.5831 Y9.8256
G01 X29.5882 Y9.8171
G01 X29.5924 Y9.8083
G01 X29.5957 Y9.7990
G01 X29.5981 Y9.7895
G01 X29.5995 Y9.7798
G01 X29.6000 Y9.7700
G00 X29.6000 Y9.7700
G01 F100.00
G01 Z-0.6000
G01 F300.00
G01 X29.5995 Y9.7602
G01 X29.5981 Y9.7505
G01 X29.5957 Y9.7410
G01 X29.5924 Y9.7317
G01 X29.5882 Y9.7229
G01 X29.5831 Y9.7144
G01 X29.5773 Y9.7066
G01 X29.5707 Y9.6993
G01 X29.5634 Y9.6927
G01 X29.5556 Y9.6869
G01 X29.5471 Y9.6818
G01 X29.5383 Y9.6776
G01 X29.5290 Y9.6743
G01 X29.5195 Y9.6719
G01 X29.5098 Y9.6705
G01 X29.5000 Y9.6700
G01 X29.4902 Y9.6705
G01 X29.4805 Y9.6719
G01 X29.4710 Y9.6743
G01 X29.4617 Y9.6776
G01 X29.4529 Y9.6818
G01 X29.4444 Y9.6869
G01 X29.4366 Y9.6927
G01 X29.4293 Y9.6993
G01 X29.4227 Y9.7066
G01 X29.4169 Y9.7144
G01 X29.4118 Y9.7229
G01 X29.4076 Y9.7317
G01 X29.4043 Y9.7410
G01 X29.4019 Y9.7505
G01 X29.4005 Y9.7602
G01 X29.4000 Y9.7700
G01 X29.4005 Y9.7798
G01 X29.4019 Y9.7895
G01 X29.4043 Y9.7990
G01 X29.4076 Y9.8083
G01 X29.4118 Y9.8171
G01 X29.4169 Y9.8256
G01 X29.4227 Y9.8334
G01 X29.4293 Y9.8407
G01 X29.4366 Y9.8473
G01 X29.4444 Y9.8531
G01 X29.4529 Y9.8582
G01 X29.4617 Y9.8624
G01 X29.4710 Y9.8657
G01 X29.4805 Y9.8681
G01 X29.4902 Y9.8695
G01 X29.5000 Y9.8700
G01 X29.5098 Y9.8695
G01 X29.5195 Y9.8681
G01 X29.5290 Y9.8657
G01 X29.5383 Y9.8624
G01 X29.5471 Y9.8582
G01 X29.5556 Y9.8531
G01 X29.5634 Y9.8473
G01 X29.5707 Y9.8407
G01 X29.5773 Y9.8334
G01 X29.5831 Y9.8256
G01 X29.5882 Y9.8171
G01 X29.5924 Y9.8083
G01 X29.5957 Y9.7990
G01 X29.5981 Y9.7895
G01 X29.5995 Y9.7798
G01 X29.6000 Y9.7700
G00 X29.6000 Y9.7700
G01 F100.00
G01 Z-0.8000
G01 F300.00
G01 X29.5995 Y9.7602
G01 X29.5981 Y9.7505
G01 X29.5957 Y9.7410
G01 X29.5924 Y9.7317
G01 X29.5882 Y9.7229
G01 X29.5831 Y9.7144
G01 X29.5773 Y9.7066
G01 X29.5707 Y9.6993
G01 X29.5634 Y9.6927
G01 X29.5556 Y9.6869
G01 X29.5471 Y9.6818
G01 X29.5383 Y9.6776
G01 X29.5290 Y9.6743
G01 X29.5195 Y9.6719
G01 X29.5098 Y9.6705
G01 X29.5000 Y9.6700
G01 X29.4902 Y9.6705
G01 X29.4805 Y9.6719
G01 X29.4710 Y9.6743
G01 X29.4617 Y9.6776
G01 X29.4529 Y9.6818
G01 X29.4444 Y9.6869
G01 X29.4366 Y9.6927
G01 X29.4293 Y9.6993
G01 X29.4227 Y9.7066
G01 X29.4169 Y9.7144
G01 X29.4118 Y9.7229
G01 X29.4076 Y9.7317
G01 X29.4043 Y9.7410
G01 X29.4019 Y9.7505
G01 X29.4005 Y9.7602
G01 X29.4000 Y9.7700
G01 X29.4005 Y9.7798
G01 X29.4019 Y9.7895
G01 X29.4043 Y9.7990
G01 X29.4076 Y9.8083
G01 X29.4118 Y9.8171
G01 X29.4169 Y9.8256
G01 X29.4227 Y9.8334
G01 X29.4293 Y9.8407
G01 X29.4366 Y9.8473
G01 X29.4444 Y9.8531
G01 X29.4529 Y9.8582
G01 X29.4617 Y9.8624
G01 X29.4710 Y9.8657
G01 X29.4805 Y9.8681
G01 X29.4902 Y9.8695
G01 X29.5000 Y9.8700
G01 X29.5098 Y9.8695
G01 X29.5195 Y9.8681
G01 X29.5290 Y9.8657
G01 X29.5383 Y9.8624
G01 X29.5471 Y9.8582
G01 X29.5556 Y9.8531
G01 X29.5634 Y9.8473
G01 X29.5707 Y9.8407
G01 X29.5773 Y9.8334
G01 X29.5831 Y9.8256
G01 X29.5882 Y9.8171
G01 X29.5924 Y9.8083
G01 X29.5957 Y9.7990
G01 X29.5981 Y9.7895
G01 X29.5995 Y9.7798
G01 X29.6000 Y9.7700
G00 X29.6000 Y9.7700
G01 F100.00
G01 Z-1.0000
G01 F300.00
G01 X29.5995 Y9.7602
G01 X29.5981 Y9.7505
G01 X29.5957 Y9.7410
G01 X29.5924 Y9.7317
G01 X29.5882 Y9.7229
G01 X29.5831 Y9.7144
G01 X29.5773 Y9.7066
G01 X29.5707 Y9.6993
G01 X29.5634 Y9.6927
G01 X29.5556 Y9.6869
G01 X29.5471 Y9.6818
G01 X29.5383 Y9.6776
G01 X29.5290 Y9.6743
G01 X29.5195 Y9.6719
G01 X29.5098 Y9.6705
G01 X29.5000 Y9.6700
G01 X29.4902 Y9.6705
G01 X29.4805 Y9.6719
G01 X29.4710 Y9.6743
G01 X29.4617 Y9.6776
G01 X29.4529 Y9.6818
G01 X29.4444 Y9.6869
G01 X29.4366 Y9.6927
G01 X29.4293 Y9.6993
G01 X29.4227 Y9.7066
G01 X29.4169 Y9.7144
G01 X29.4118 Y9.7229
G01 X29.4076 Y9.7317
G01 X29.4043 Y9.7410
G01 X29.4019 Y9.7505
G01 X29.4005 Y9.7602
G01 X29.4000 Y9.7700
G01 X29.4005 Y9.7798
G01 X29.4019 Y9.7895
G01 X29.4043 Y9.7990
G01 X29.4076 Y9.8083
G01 X29.4118 Y9.8171
G01 X29.4169 Y9.8256
G01 X29.4227 Y9.8334
G01 X29.4293 Y9.8407
G01 X29.4366 Y9.8473
G01 X29.4444 Y9.8531
G01 X29.4529 Y9.8582
G01 X29.4617 Y9.8624
G01 X29.4710 Y9.8657
G01 X29.4805 Y9.8681
G01 X29.4902 Y9.8695
G01 X29.5000 Y9.8700
G01 X29.5098 Y9.8695
G01 X29.5195 Y9.8681
G01 X29.5290 Y9.8657
G01 X29.5383 Y9.8624
G01 X29.5471 Y9.8582
G01 X29.5556 Y9.8531
G01 X29.5634 Y9.8473
G01 X29.5707 Y9.8407
G01 X29.5773 Y9.8334
G01 X29.5831 Y9.8256
G01 X29.5882 Y9.8171
G01 X29.5924 Y9.8083
G01 X29.5957 Y9.7990
G01 X29.5981 Y9.7895
G01 X29.5995 Y9.7798
G01 X29.6000 Y9.7700
G00 X29.6000 Y9.7700
G01 F100.00
G01 Z-1.2000
G01 F300.00
G01 X29.5995 Y9.7602
G01 X29.5981 Y9.7505
G01 X29.5957 Y9.7410
G01 X29.5924 Y9.7317
G01 X29.5882 Y9.7229
G01 X29.5831 Y9.7144
G01 X29.5773 Y9.7066
G01 X29.5707 Y9.6993
G01 X29.5634 Y9.6927
G01 X29.5556 Y9.6869
G01 X29.5471 Y9.6818
G01 X29.5383 Y9.6776
G01 X29.5290 Y9.6743
G01 X29.5195 Y9.6719
G01 X29.5098 Y9.6705
G01 X29.5000 Y9.6700
G01 X29.4902 Y9.6705
G01 X29.4805 Y9.6719
G01 X29.4710 Y9.6743
G01 X29.4617 Y9.6776
G01 X29.4529 Y9.6818
G01 X29.4444 Y9.6869
G01 X29.4366 Y9.6927
G01 X29.4293 Y9.6993
G01 X29.4227 Y9.7066
G01 X29.4169 Y9.7144
G01 X29.4118 Y9.7229
G01 X29.4076 Y9.7317
G01 X29.4043 Y9.7410
G01 X29.4019 Y9.7505
G01 X29.4005 Y9.7602
G01 X29.4000 Y9.7700
G01 X29.4005 Y9.7798
G01 X29.4019 Y9.7895
G01 X29.4043 Y9.7990
G01 X29.4076 Y9.8083
G01 X29.4118 Y9.8171
G01 X29.4169 Y9.8256
G01 X29.4227 Y9.8334
G01 X29.4293 Y9.8407
G01 X29.4366 Y9.8473
G01 X29.4444 Y9.8531
G01 X29.4529 Y9.8582
G01 X29.4617 Y9.8624
G01 X29.4710 Y9.8657
G01 X29.4805 Y9.8681
G01 X29.4902 Y9.8695
G01 X29.5000 Y9.8700
G01 X29.5098 Y9.8695
G01 X29.5195 Y9.8681
G01 X29.5290 Y9.8657
G01 X29.5383 Y9.8624
G01 X29.5471 Y9.8582
G01 X29.5556 Y9.8531
G01 X29.5634 Y9.8473
G01 X29.5707 Y9.8407
G01 X29.5773 Y9.8334
G01 X29.5831 Y9.8256
G01 X29.5882 Y9.8171
G01 X29.5924 Y9.8083
G01 X29.5957 Y9.7990
G01 X29.5981 Y9.7895
G01 X29.5995 Y9.7798
G01 X29.6000 Y9.7700
G00 X29.6000 Y9.7700
G01 F100.00
G01 Z-1.4000
G01 F300.00
G01 X29.5995 Y9.7602
G01 X29.5981 Y9.7505
G01 X29.5957 Y9.7410
G01 X29.5924 Y9.7317
G01 X29.5882 Y9.7229
G01 X29.5831 Y9.7144
G01 X29.5773 Y9.7066
G01 X29.5707 Y9.6993
G01 X29.5634 Y9.6927
G01 X29.5556 Y9.6869
G01 X29.5471 Y9.6818
G01 X29.5383 Y9.6776
G01 X29.5290 Y9.6743
G01 X29.5195 Y9.6719
G01 X29.5098 Y9.6705
G01 X29.5000 Y9.6700
G01 X29.4902 Y9.6705
G01 X29.4805 Y9.6719
G01 X29.4710 Y9.6743
G01 X29.4617 Y9.6776
G01 X29.4529 Y9.6818
G01 X29.4444 Y9.6869
G01 X29.4366 Y9.6927
G01 X29.4293 Y9.6993
G01 X29.4227 Y9.7066
G01 X29.4169 Y9.7144
G01 X29.4118 Y9.7229
G01 X29.4076 Y9.7317
G01 X29.4043 Y9.7410
G01 X29.4019 Y9.7505
G01 X29.4005 Y9.7602
G01 X29.4000 Y9.7700
G01 X29.4005 Y9.7798
G01 X29.4019 Y9.7895
G01 X29.4043 Y9.7990
G01 X29.4076 Y9.8083
G01 X29.4118 Y9.8171
G01 X29.4169 Y9.8256
G01 X29.4227 Y9.8334
G01 X29.4293 Y9.8407
G01 X29.4366 Y9.8473
G01 X29.4444 Y9.8531
G01 X29.4529 Y9.8582
G01 X29.4617 Y9.8624
G01 X29.4710 Y9.8657
G01 X29.4805 Y9.8681
G01 X29.4902 Y9.8695
G01 X29.5000 Y9.8700
G01 X29.5098 Y9.8695
G01 X29.5195 Y9.8681
G01 X29.5290 Y9.8657
G01 X29.5383 Y9.8624
G01 X29.5471 Y9.8582
G01 X29.5556 Y9.8531
G01 X29.5634 Y9.8473
G01 X29.5707 Y9.8407
G01 X29.5773 Y9.8334
G01 X29.5831 Y9.8256
G01 X29.5882 Y9.8171
G01 X29.5924 Y9.8083
G01 X29.5957 Y9.7990
G01 X29.5981 Y9.7895
G01 X29.5995 Y9.7798
G01 X29.6000 Y9.7700
G00 X29.6000 Y9.7700
G01 F100.00
G01 Z-1.6000
G01 F300.00
G01 X29.5995 Y9.7602
G01 X29.5981 Y9.7505
G01 X29.5957 Y9.7410
G01 X29.5924 Y9.7317
G01 X29.5882 Y9.7229
G01 X29.5831 Y9.7144
G01 X29.5773 Y9.7066
G01 X29.5707 Y9.6993
G01 X29.5634 Y9.6927
G01 X29.5556 Y9.6869
G01 X29.5471 Y9.6818
G01 X29.5383 Y9.6776
G01 X29.5290 Y9.6743
G01 X29.5195 Y9.6719
G01 X29.5098 Y9.6705
G01 X29.5000 Y9.6700
G01 X29.4902 Y9.6705
G01 X29.4805 Y9.6719
G01 X29.4710 Y9.6743
G01 X29.4617 Y9.6776
G01 X29.4529 Y9.6818
G01 X29.4444 Y9.6869
G01 X29.4366 Y9.6927
G01 X29.4293 Y9.6993
G01 X29.4227 Y9.7066
G01 X29.4169 Y9.7144
G01 X29.4118 Y9.7229
G01 X29.4076 Y9.7317
G01 X29.4043 Y9.7410
G01 X29.4019 Y9.7505
G01 X29.4005 Y9.7602
G01 X29.4000 Y9.7700
G01 X29.4005 Y9.7798
G01 X29.4019 Y9.7895
G01 X29.4043 Y9.7990
G01 X29.4076 Y9.8083
G01 X29.4118 Y9.8171
G01 X29.4169 Y9.8256
G01 X29.4227 Y9.8334
G01 X29.4293 Y9.8407
G01 X29.4366 Y9.8473
G01 X29.4444 Y9.8531
G01 X29.4529 Y9.8582
G01 X29.4617 Y9.8624
G01 X29.4710 Y9.8657
G01 X29.4805 Y9.8681
G01 X29.4902 Y9.8695
G01 X29.5000 Y9.8700
G01 X29.5098 Y9.8695
G01 X29.5195 Y9.8681
G01 X29.5290 Y9.8657
G01 X29.5383 Y9.8624
G01 X29.5471 Y9.8582
G01 X29.5556 Y9.8531
G01 X29.5634 Y9.8473
G01 X29.5707 Y9.8407
G01 X29.5773 Y9.8334
G01 X29.5831 Y9.8256
G01 X29.5882 Y9.8171
G01 X29.5924 Y9.8083
G01 X29.5957 Y9.7990
G01 X29.5981 Y9.7895
G01 X29.5995 Y9.7798
G01 X29.6000 Y9.7700
G00 X29.6000 Y9.7700
G01 F100.00
G01 Z-1.8000
G01 F300.00
G01 X29.5995 Y9.7602
G01 X29.5981 Y9.7505
G01 X29.5957 Y9.7410
G01 X29.5924 Y9.7317
G01 X29.5882 Y9.7229
G01 X29.5831 Y9.7144
G01 X29.5773 Y9.7066
G01 X29.5707 Y9.6993
G01 X29.5634 Y9.6927
G01 X29.5556 Y9.6869
G01 X29.5471 Y9.6818
G01 X29.5383 Y9.6776
G01 X29.5290 Y9.6743
G01 X29.5195 Y9.6719
G01 X29.5098 Y9.6705
G01 X29.5000 Y9.6700
G01 X29.4902 Y9.6705
G01 X29.4805 Y9.6719
G01 X29.4710 Y9.6743
G01 X29.4617 Y9.6776
G01 X29.4529 Y9.6818
G01 X29.4444 Y9.6869
G01 X29.4366 Y9.6927
G01 X29.4293 Y9.6993
G01 X29.4227 Y9.7066
G01 X29.4169 Y9.7144
G01 X29.4118 Y9.7229
G01 X29.4076 Y9.7317
G01 X29.4043 Y9.7410
G01 X29.4019 Y9.7505
G01 X29.4005 Y9.7602
G01 X29.4000 Y9.7700
G01 X29.4005 Y9.7798
G01 X29.4019 Y9.7895
G01 X29.4043 Y9.7990
G01 X29.4076 Y9.8083
G01 X29.4118 Y9.8171
G01 X29.4169 Y9.8256
G01 X29.4227 Y9.8334
G01 X29.4293 Y9.8407
G01 X29.4366 Y9.8473
G01 X29.4444 Y9.8531
G01 X29.4529 Y9.8582
G01 X29.4617 Y9.8624
G01 X29.4710 Y9.8657
G01 X29.4805 Y9.8681
G01 X29.4902 Y9.8695
G01 X29.5000 Y9.8700
G01 X29.5098 Y9.8695
G01 X29.5195 Y9.8681
G01 X29.5290 Y9.8657
G01 X29.5383 Y9.8624
G01 X29.5471 Y9.8582
G01 X29.5556 Y9.8531
G01 X29.5634 Y9.8473
G01 X29.5707 Y9.8407
G01 X29.5773 Y9.8334
G01 X29.5831 Y9.8256
G01 X29.5882 Y9.8171
G01 X29.5924 Y9.8083
G01 X29.5957 Y9.7990
G01 X29.5981 Y9.7895
G01 X29.5995 Y9.7798
G01 X29.6000 Y9.7700
G00 X29.6000 Y9.7700
G01 F100.00
G01 Z-2.0000
G01 F300.00
G01 X29.5995 Y9.7602
G01 X29.5981 Y9.7505
G01 X29.5957 Y9.7410
G01 X29.5924 Y9.7317
G01 X29.5882 Y9.7229
G01 X29.5831 Y9.7144
G01 X29.5773 Y9.7066
G01 X29.5707 Y9.6993
G01 X29.5634 Y9.6927
G01 X29.5556 Y9.6869
G01 X29.5471 Y9.6818
G01 X29.5383 Y9.6776
G01 X29.5290 Y9.6743
G01 X29.5195 Y9.6719
G01 X29.5098 Y9.6705
G01 X29.5000 Y9.6700
G01 X29.4902 Y9.6705
G01 X29.4805 Y9.6719
G01 X29.4710 Y9.6743
G01 X29.4617 Y9.6776
G01 X29.4529 Y9.6818
G01 X29.4444 Y9.6869
G01 X29.4366 Y9.6927
G01 X29.4293 Y9.6993
G01 X29.4227 Y9.7066
G01 X29.4169 Y9.7144
G01 X29.4118 Y9.7229
G01 X29.4076 Y9.7317
G01 X29.4043 Y9.7410
G01 X29.4019 Y9.7505
G01 X29.4005 Y9.7602
G01 X29.4000 Y9.7700
G01 X29.4005 Y9.7798
G01 X29.4019 Y9.7895
G01 X29.4043 Y9.7990
G01 X29.4076 Y9.8083
G01 X29.4118 Y9.8171
G01 X29.4169 Y9.8256
G01 X29.4227 Y9.8334
G01 X29.4293 Y9.8407
G01 X29.4366 Y9.8473
G01 X29.4444 Y9.8531
G01 X29.4529 Y9.8582
G01 X29.4617 Y9.8624
G01 X29.4710 Y9.8657
G01 X29.4805 Y9.8681
G01 X29.4902 Y9.8695
G01 X29.5000 Y9.8700
G01 X29.5098 Y9.8695
G01 X29.5195 Y9.8681
G01 X29.5290 Y9.8657
G01 X29.5383 Y9.8624
G01 X29.5471 Y9.8582
G01 X29.5556 Y9.8531
G01 X29.5634 Y9.8473
G01 X29.5707 Y9.8407
G01 X29.5773 Y9.8334
G01 X29.5831 Y9.8256
G01 X29.5882 Y9.8171
G01 X29.5924 Y9.8083
G01 X29.5957 Y9.7990
G01 X29.5981 Y9.7895
G01 X29.5995 Y9.7798
G01 X29.6000 Y9.7700
G00 X29.6000 Y9.7700
G01 F100.00
G01 Z-2.2000
G01 F300.00
G01 X29.5995 Y9.7602
G01 X29.5981 Y9.7505
G01 X29.5957 Y9.7410
G01 X29.5924 Y9.7317
G01 X29.5882 Y9.7229
G01 X29.5831 Y9.7144
G01 X29.5773 Y9.7066
G01 X29.5707 Y9.6993
G01 X29.5634 Y9.6927
G01 X29.5556 Y9.6869
G01 X29.5471 Y9.6818
G01 X29.5383 Y9.6776
G01 X29.5290 Y9.6743
G01 X29.5195 Y9.6719
G01 X29.5098 Y9.6705
G01 X29.5000 Y9.6700
G01 X29.4902 Y9.6705
G01 X29.4805 Y9.6719
G01 X29.4710 Y9.6743
G01 X29.4617 Y9.6776
G01 X29.4529 Y9.6818
G01 X29.4444 Y9.6869
G01 X29.4366 Y9.6927
G01 X29.4293 Y9.6993
G01 X29.4227 Y9.7066
G01 X29.4169 Y9.7144
G01 X29.4118 Y9.7229
G01 X29.4076 Y9.7317
G01 X29.4043 Y9.7410
G01 X29.4019 Y9.7505
G01 X29.4005 Y9.7602
G01 X29.4000 Y9.7700
G01 X29.4005 Y9.7798
G01 X29.4019 Y9.7895
G01 X29.4043 Y9.7990
G01 X29.4076 Y9.8083
G01 X29.4118 Y9.8171
G01 X29.4169 Y9.8256
G01 X29.4227 Y9.8334
G01 X29.4293 Y9.8407
G01 X29.4366 Y9.8473
G01 X29.4444 Y9.8531
G01 X29.4529 Y9.8582
G01 X29.4617 Y9.8624
G01 X29.4710 Y9.8657
G01 X29.4805 Y9.8681
G01 X29.4902 Y9.8695
G01 X29.5000 Y9.8700
G01 X29.5098 Y9.8695
G01 X29.5195 Y9.8681
G01 X29.5290 Y9.8657
G01 X29.5383 Y9.8624
G01 X29.5471 Y9.8582
G01 X29.5556 Y9.8531
G01 X29.5634 Y9.8473
G01 X29.5707 Y9.8407
G01 X29.5773 Y9.8334
G01 X29.5831 Y9.8256
G01 X29.5882 Y9.8171
G01 X29.5924 Y9.8083
G01 X29.5957 Y9.7990
G01 X29.5981 Y9.7895
G01 X29.5995 Y9.7798
G01 X29.6000 Y9.7700
G00 X29.6000 Y9.7700
G01 F100.00
G01 Z-2.4000
G01 F300.00
G01 X29.5995 Y9.7602
G01 X29.5981 Y9.7505
G01 X29.5957 Y9.7410
G01 X29.5924 Y9.7317
G01 X29.5882 Y9.7229
G01 X29.5831 Y9.7144
G01 X29.5773 Y9.7066
G01 X29.5707 Y9.6993
G01 X29.5634 Y9.6927
G01 X29.5556 Y9.6869
G01 X29.5471 Y9.6818
G01 X29.5383 Y9.6776
G01 X29.5290 Y9.6743
G01 X29.5195 Y9.6719
G01 X29.5098 Y9.6705
G01 X29.5000 Y9.6700
G01 X29.4902 Y9.6705
G01 X29.4805 Y9.6719
G01 X29.4710 Y9.6743
G01 X29.4617 Y9.6776
G01 X29.4529 Y9.6818
G01 X29.4444 Y9.6869
G01 X29.4366 Y9.6927
G01 X29.4293 Y9.6993
G01 X29.4227 Y9.7066
G01 X29.4169 Y9.7144
G01 X29.4118 Y9.7229
G01 X29.4076 Y9.7317
G01 X29.4043 Y9.7410
G01 X29.4019 Y9.7505
G01 X29.4005 Y9.7602
G01 X29.4000 Y9.7700
G01 X29.4005 Y9.7798
G01 X29.4019 Y9.7895
G01 X29.4043 Y9.7990
G01 X29.4076 Y9.8083
G01 X29.4118 Y9.8171
G01 X29.4169 Y9.8256
G01 X29.4227 Y9.8334
G01 X29.4293 Y9.8407
G01 X29.4366 Y9.8473
G01 X29.4444 Y9.8531
G01 X29.4529 Y9.8582
G01 X29.4617 Y9.8624
G01 X29.4710 Y9.8657
G01 X29.4805 Y9.8681
G01 X29.4902 Y9.8695
G01 X29.5000 Y9.8700
G01 X29.5098 Y9.8695
G01 X29.5195 Y9.8681
G01 X29.5290 Y9.8657
G01 X29.5383 Y9.8624
G01 X29.5471 Y9.8582
G01 X29.5556 Y9.8531
G01 X29.5634 Y9.8473
G01 X29.5707 Y9.8407
G01 X29.5773 Y9.8334
G01 X29.5831 Y9.8256
G01 X29.5882 Y9.8171
G01 X29.5924 Y9.8083
G01 X29.5957 Y9.7990
G01 X29.5981 Y9.7895
G01 X29.5995 Y9.7798
G01 X29.6000 Y9.7700
G00 X29.6000 Y9.7700
G01 F100.00
G01 Z-2.5000
G01 F300.00
G01 X29.5995 Y9.7602
G01 X29.5981 Y9.7505
G01 X29.5957 Y9.7410
G01 X29.5924 Y9.7317
G01 X29.5882 Y9.7229
G01 X29.5831 Y9.7144
G01 X29.5773 Y9.7066
G01 X29.5707 Y9.6993
G01 X29.5634 Y9.6927
G01 X29.5556 Y9.6869
G01 X29.5471 Y9.6818
G01 X29.5383 Y9.6776
G01 X29.5290 Y9.6743
G01 X29.5195 Y9.6719
G01 X29.5098 Y9.6705
G01 X29.5000 Y9.6700
G01 X29.4902 Y9.6705
G01 X29.4805 Y9.6719
G01 X29.4710 Y9.6743
G01 X29.4617 Y9.6776
G01 X29.4529 Y9.6818
G01 X29.4444 Y9.6869
G01 X29.4366 Y9.6927
G01 X29.4293 Y9.6993
G01 X29.4227 Y9.7066
G01 X29.4169 Y9.7144
G01 X29.4118 Y9.7229
G01 X29.4076 Y9.7317
G01 X29.4043 Y9.7410
G01 X29.4019 Y9.7505
G01 X29.4005 Y9.7602
G01 X29.4000 Y9.7700
G01 X29.4005 Y9.7798
G01 X29.4019 Y9.7895
G01 X29.4043 Y9.7990
G01 X29.4076 Y9.8083
G01 X29.4118 Y9.8171
G01 X29.4169 Y9.8256
G01 X29.4227 Y9.8334
G01 X29.4293 Y9.8407
G01 X29.4366 Y9.8473
G01 X29.4444 Y9.8531
G01 X29.4529 Y9.8582
G01 X29.4617 Y9.8624
G01 X29.4710 Y9.8657
G01 X29.4805 Y9.8681
G01 X29.4902 Y9.8695
G01 X29.5000 Y9.8700
G01 X29.5098 Y9.8695
G01 X29.5195 Y9.8681
G01 X29.5290 Y9.8657
G01 X29.5383 Y9.8624
G01 X29.5471 Y9.8582
G01 X29.5556 Y9.8531
G01 X29.5634 Y9.8473
G01 X29.5707 Y9.8407
G01 X29.5773 Y9.8334
G01 X29.5831 Y9.8256
G01 X29.5882 Y9.8171
G01 X29.5924 Y9.8083
G01 X29.5957 Y9.7990
G01 X29.5981 Y9.7895
G01 X29.5995 Y9.7798
G01 X29.6000 Y9.7700
G00 Z2.0000
G00 X34.7000 Y12.0000
G01 F100.00
G01 Z-0.2000
G01 F300.00
G01 X34.6942 Y11.8824
G01 X34.6769 Y11.7659
G01 X34.6483 Y11.6517
G01 X34.6087 Y11.5408
G01 X34.5583 Y11.4343
G01 X34.4978 Y11.3333
G01 X34.4276 Y11.2387
G01 X34.3485 Y11.1515
G01 X34.2613 Y11.0724
G01 X34.1667 Y11.0022
G01 X34.0657 Y10.9417
G01 X33.9592 Y10.8913
G01 X33.8483 Y10.8517
G01 X33.7341 Y10.8231
G01 X33.6176 Y10.8058
G01 X33.5000 Y10.8000
G01 X33.3824 Y10.8058
G01 X33.2659 Y10.8231
G01 X33.1517 Y10.8517
G01 X33.0408 Y10.8913
G01 X32.9343 Y10.9417
G01 X32.8333 Y11.0022
G01 X32.7387 Y11.0724
G01 X32.6515 Y11.1515
G01 X32.5724 Y11.2387
G01 X32.5022 Y11.3333
G01 X32.4417 Y11.4343
G01 X32.3913 Y11.5408
G01 X32.3517 Y11.6517
G01 X32.3231 Y11.7659
G01 X32.3058 Y11.8824
G01 X32.3000 Y12.0000
G01 X32.3058 Y12.1176
G01 X32.3231 Y12.2341
G01 X32.3517 Y12.3483
G01 X32.3913 Y12.4592
G01 X32.4417 Y12.5657
G01 X32.5022 Y12.6667
G01 X32.5724 Y12.7613
G01 X32.6515 Y12.8485
G01 X32.7387 Y12.9276
G01 X32.8333 Y12.9978
G01 X32.9343 Y13.0583
G01 X33.0408 Y13.1087
G01 X33.1517 Y13.1483
G01 X33.2659 Y13.1769
G01 X33.3824 Y13.1942
G01 X33.5000 Y13.2000
G01 X33.6176 Y13.1942
G01 X33.7341 Y13.1769
G01 X33.8483 Y13.1483
G01 X33.9592 Y13.1087
G01 X34.0657 Y13.0583
G01 X34.1667 Y12.9978
G01 X34.2613 Y12.9276
G01 X34.3485 Y12.8485
G01 X34.4276 Y12.7613
G01 X34.4978 Y12.6667
G01 X34.5583 Y12.5657
G01 X34.6087 Y12.4592
G01 X34.6483 Y12.3483
G01 X34.6769 Y12.2341
G01 X34.6942 Y12.1176
G01 X34.7000 Y12.0000
G00 X34.7000 Y12.0000
G01 F100.00
G01 Z-0.4000
G01 F300.00
G01 X34.6942 Y11.8824
G01 X34.6769 Y11.7659
G01 X34.6483 Y11.6517
G01 X34.6087 Y11.5408
G01 X34.5583 Y11.4343
G01 X34.4978 Y11.3333
G01 X34.4276 Y11.2387
G01 X34.3485 Y11.1515
G01 X34.2613 Y11.0724
G01 X34.1667 Y11.0022
G01 X34.0657 Y10.9417
G01 X33.9592 Y10.8913
G01 X33.8483 Y10.8517
G01 X33.7341 Y10.8231
G01 X33.6176 Y10.8058
G01 X33.5000 Y10.8000
G01 X33.3824 Y10.8058
G01 X33.2659 Y10.8231
G01 X33.1517 Y10.8517
G01 X33.0408 Y10.8913
G01 X32.9343 Y10.9417
G01 X32.8333 Y11.0022
G01 X32.7387 Y11.0724
G01 X32.6515 Y11.1515
G01 X32.5724 Y11.2387
G01 X32.5022 Y11.3333
G01 X32.4417 Y11.4343
G01 X32.3913 Y11.5408
G01 X32.3517 Y11.6517
G01 X32.3231 Y11.7659
G01 X32.3058 Y11.8824
G01 X32.3000 Y12.0000
G01 X32.3058 Y12.1176
G01 X32.3231 Y12.2341
G01 X32.3517 Y12.3483
G01 X32.3913 Y12.4592
G01 X32.4417 Y12.5657
G01 X32.5022 Y12.6667
G01 X32.5724 Y12.7613
G01 X32.6515 Y12.8485
G01 X32.7387 Y12.9276
G01 X32.8333 Y12.9978
G01 X32.9343 Y13.0583
G01 X33.0408 Y13.1087
G01 X33.1517 Y13.1483
G01 X33.2659 Y13.1769
G01 X33.3824 Y13.1942
G01 X33.5000 Y13.2000
G01 X33.6176 Y13.1942
G01 X33.7341 Y13.1769
G01 X33.8483 Y13.1483
G01 X33.9592 Y13.1087
G01 X34.0657 Y13.0583
G01 X34.1667 Y12.9978
G01 X34.2613 Y12.9276
G01 X34.3485 Y12.8485
G01 X34.4276 Y12.7613
G01 X34.4978 Y12.6667
G01 X34.5583 Y12.5657
G01 X34.6087 Y12.4592
G01 X34.6483 Y12.3483
G01 X34.6769 Y12.2341
G01 X34.6942 Y12.1176
G01 X34.7000 Y12.0000
G00 X34.7000 Y12.0000
G01 F100.00
G01 Z-0.6000
G01 F300.00
G01 X34.6942 Y11.8824
G01 X34.6769 Y11.7659
G01 X34.6483 Y11.6517
G01 X34.6087 Y11.5408
G01 X34.5583 Y11.4343
G01 X34.4978 Y11.3333
G01 X34.4276 Y11.2387
G01 X34.3485 Y11.1515
G01 X34.2613 Y11.0724
G01 X34.1667 Y11.0022
G01 X34.0657 Y10.9417
G01 X33.9592 Y10.8913
G01 X33.8483 Y10.8517
G01 X33.7341 Y10.8231
G01 X33.6176 Y10.8058
G01 X33.5000 Y10.8000
G01 X33.3824 Y10.8058
G01 X33.2659 Y10.8231
G01 X33.1517 Y10.8517
G01 X33.0408 Y10.8913
G01 X32.9343 Y10.9417
G01 X32.8333 Y11.0022
G01 X32.7387 Y11.0724
G01 X32.6515 Y11.1515
G01 X32.5724 Y11.2387
G01 X32.5022 Y11.3333
G01 X32.4417 Y11.4343
G01 X32.3913 Y11.5408
G01 X32.3517 Y11.6517
G01 X32.3231 Y11.7659
G01 X32.3058 Y11.8824
G01 X32.3000 Y12.0000
G01 X32.3058 Y12.1176
G01 X32.3231 Y12.2341
G01 X32.3517 Y12.3483
G01 X32.3913 Y12.4592
G01 X32.4417 Y12.5657
G01 X32.5022 Y12.6667
G01 X32.5724 Y12.7613
G01 X32.6515 Y12.8485
G01 X32.7387 Y12.9276
G01 X32.8333 Y12.9978
G01 X32.9343 Y13.0583
G01 X33.0408 Y13.1087
G01 X33.1517 Y13.1483
G01 X33.2659 Y13.1769
G01 X33.3824 Y13.1942
G01 X33.5000 Y13.2000
G01 X33.6176 Y13.1942
G01 X33.7341 Y13.1769
G01 X33.8483 Y13.1483
G01 X33.9592 Y13.1087
G01 X34.0657 Y13.0583
G01 X34.1667 Y12.9978
G01 X34.2613 Y12.9276
G01 X34.3485 Y12.8485
G01 X34.4276 Y12.7613
G01 X34.4978 Y12.6667
G01 X34.5583 Y12.5657
G01 X34.6087 Y12.4592
G01 X34.6483 Y12.3483
G01 X34.6769 Y12.2341
G01 X34.6942 Y12.1176
G01 X34.7000 Y12.0000
G00 X34.7000 Y12.0000
G01 F100.00
G01 Z-0.8000
G01 F300.00
G01 X34.6942 Y11.8824
G01 X34.6769 Y11.7659
G01 X34.6483 Y11.6517
G01 X34.6087 Y11.5408
G01 X34.5583 Y11.4343
G01 X34.4978 Y11.3333
G01 X34.4276 Y11.2387
G01 X34.3485 Y11.1515
G01 X34.2613 Y11.0724
G01 X34.1667 Y11.0022
G01 X34.0657 Y10.9417
G01 X33.9592 Y10.8913
G01 X33.8483 Y10.8517
G01 X33.7341 Y10.8231
G01 X33.6176 Y10.8058
G01 X33.5000 Y10.8000
G01 X33.3824 Y10.8058
G01 X33.2659 Y10.8231
G01 X33.1517 Y10.8517
G01 X33.0408 Y10.8913
G01 X32.9343 Y10.9417
G01 X32.8333 Y11.0022
G01 X32.7387 Y11.0724
G01 X32.6515 Y11.1515
G01 X32.5724 Y11.2387
G01 X32.5022 Y11.3333
G01 X32.4417 Y11.4343
G01 X32.3913 Y11.5408
G01 X32.3517 Y11.6517
G01 X32.3231 Y11.7659
G01 X32.3058 Y11.8824
G01 X32.3000 Y12.0000
G01 X32.3058 Y12.1176
G01 X32.3231 Y12.2341
G01 X32.3517 Y12.3483
G01 X32.3913 Y12.4592
G01 X32.4417 Y12.5657
G01 X32.5022 Y12.6667
G01 X32.5724 Y12.7613
G01 X32.6515 Y12.8485
G01 X32.7387 Y12.9276
G01 X32.8333 Y12.9978
G01 X32.9343 Y13.0583
G01 X33.0408 Y13.1087
G01 X33.1517 Y13.1483
G01 X33.2659 Y13.1769
G01 X33.3824 Y13.1942
G01 X33.5000 Y13.2000
G01 X33.6176 Y13.1942
G01 X33.7341 Y13.1769
G01 X33.8483 Y13.1483
G01 X33.9592 Y13.1087
G01 X34.0657 Y13.0583
G01 X34.1667 Y12.9978
G01 X34.2613 Y12.9276
G01 X34.3485 Y12.8485
G01 X34.4276 Y12.7613
G01 X34.4978 Y12.6667
G01 X34.5583 Y12.5657
G01 X34.6087 Y12.4592
G01 X34.6483 Y12.3483
G01 X34.6769 Y12.2341
G01 X34.6942 Y12.1176
G01 X34.7000 Y12.0000
G00 X34.7000 Y12.0000
G01 F100.00
G01 Z-1.0000
G01 F300.00
G01 X34.6942 Y11.8824
G01 X34.6769 Y11.7659
G01 X34.6483 Y11.6517
G01 X34.6087 Y11.5408
G01 X34.5583 Y11.4343
G01 X34.4978 Y11.3333
G01 X34.4276 Y11.2387
G01 X34.3485 Y11.1515
G01 X34.2613 Y11.0724
G01 X34.1667 Y11.0022
G01 X34.0657 Y10.9417
G01 X33.9592 Y10.8913
G01 X33.8483 Y10.8517
G01 X33.7341 Y10.8231
G01 X33.6176 Y10.8058
G01 X33.5000 Y10.8000
G01 X33.3824 Y10.8058
G01 X33.2659 Y10.8231
G01 X33.1517 Y10.8517
G01 X33.0408 Y10.8913
G01 X32.9343 Y10.9417
G01 X32.8333 Y11.0022
G01 X32.7387 Y11.0724
G01 X32.6515 Y11.1515
G01 X32.5724 Y11.2387
G01 X32.5022 Y11.3333
G01 X32.4417 Y11.4343
G01 X32.3913 Y11.5408
G01 X32.3517 Y11.6517
G01 X32.3231 Y11.7659
G01 X32.3058 Y11.8824
G01 X32.3000 Y12.0000
G01 X32.3058 Y12.1176
G01 X32.3231 Y12.2341
G01 X32.3517 Y12.3483
G01 X32.3913 Y12.4592
G01 X32.4417 Y12.5657
G01 X32.5022 Y12.6667
G01 X32.5724 Y12.7613
G01 X32.6515 Y12.8485
G01 X32.7387 Y12.9276
G01 X32.8333 Y12.9978
G01 X32.9343 Y13.0583
G01 X33.0408 Y13.1087
G01 X33.1517 Y13.1483
G01 X33.2659 Y13.1769
G01 X33.3824 Y13.1942
G01 X33.5000 Y13.2000
G01 X33.6176 Y13.1942
G01 X33.7341 Y13.1769
G01 X33.8483 Y13.1483
G01 X33.9592 Y13.1087
G01 X34.0657 Y13.0583
G01 X34.1667 Y12.9978
G01 X34.2613 Y12.9276
G01 X34.3485 Y12.8485
G01 X34.4276 Y12.7613
G01 X34.4978 Y12.6667
G01 X34.5583 Y12.5657
G01 X34.6087 Y12.4592
G01 X34.6483 Y12.3483
G01 X34.6769 Y12.2341
G01 X34.6942 Y12.1176
G01 X34.7000 Y12.0000
G00 X34.7000 Y12.0000
G01 F100.00
G01 Z-1.2000
G01 F300.00
G01 X34.6942 Y11.8824
G01 X34.6769 Y11.7659
G01 X34.6483 Y11.6517
G01 X34.6087 Y11.5408
G01 X34.5583 Y11.4343
G01 X34.4978 Y11.3333
G01 X34.4276 Y11.2387
G01 X34.3485 Y11.1515
G01 X34.2613 Y11.0724
G01 X34.1667 Y11.0022
G01 X34.0657 Y10.9417
G01 X33.9592 Y10.8913
G01 X33.8483 Y10.8517
G01 X33.7341 Y10.8231
G01 X33.6176 Y10.8058
G01 X33.5000 Y10.8000
G01 X33.3824 Y10.8058
G01 X33.2659 Y10.8231
G01 X33.1517 Y10.8517
G01 X33.0408 Y10.8913
G01 X32.9343 Y10.9417
G01 X32.8333 Y11.0022
G01 X32.7387 Y11.0724
G01 X32.6515 Y11.1515
G01 X32.5724 Y11.2387
G01 X32.5022 Y11.3333
G01 X32.4417 Y11.4343
G01 X32.3913 Y11.5408
G01 X32.3517 Y11.6517
G01 X32.3231 Y11.7659
G01 X32.3058 Y11.8824
G01 X32.3000 Y12.0000
G01 X32.3058 Y12.1176
G01 X32.3231 Y12.2341
G01 X32.3517 Y12.3483
G01 X32.3913 Y12.4592
G01 X32.4417 Y12.5657
G01 X32.5022 Y12.6667
G01 X32.5724 Y12.7613
G01 X32.6515 Y12.8485
G01 X32.7387 Y12.9276
G01 X32.8333 Y12.9978
G01 X32.9343 Y13.0583
G01 X33.0408 Y13.1087
G01 X33.1517 Y13.1483
G01 X33.2659 Y13.1769
G01 X33.3824 Y13.1942
G01 X33.5000 Y13.2000
G01 X33.6176 Y13.1942
G01 X33.7341 Y13.1769
G01 X33.8483 Y13.1483
G01 X33.9592 Y13.1087
G01 X34.0657 Y13.0583
G01 X34.1667 Y12.9978
G01 X34.2613 Y12.9276
G01 X34.3485 Y12.8485
G01 X34.4276 Y12.7613
G01 X34.4978 Y12.6667
G01 X34.5583 Y12.5657
G01 X34.6087 Y12.4592
G01 X34.6483 Y12.3483
G01 X34.6769 Y12.2341
G01 X34.6942 Y12.1176
G01 X34.7000 Y12.0000
G00 X34.7000 Y12.0000
G01 F100.00
G01 Z-1.4000
G01 F300.00
G01 X34.6942 Y11.8824
G01 X34.6769 Y11.7659
G01 X34.6483 Y11.6517
G01 X34.6087 Y11.5408
G01 X34.5583 Y11.4343
G01 X34.4978 Y11.3333
G01 X34.4276 Y11.2387
G01 X34.3485 Y11.1515
G01 X34.2613 Y11.0724
G01 X34.1667 Y11.0022
G01 X34.0657 Y10.9417
G01 X33.9592 Y10.8913
G01 X33.8483 Y10.8517
G01 X33.7341 Y10.8231
G01 X33.6176 Y10.8058
G01 X33.5000 Y10.8000
G01 X33.3824 Y10.8058
G01 X33.2659 Y10.8231
G01 X33.1517 Y10.8517
G01 X33.0408 Y10.8913
G01 X32.9343 Y10.9417
G01 X32.8333 Y11.0022
G01 X32.7387 Y11.0724
G01 X32.6515 Y11.1515
G01 X32.5724 Y11.2387
G01 X32.5022 Y11.3333
G01 X32.4417 Y11.4343
G01 X32.3913 Y11.5408
G01 X32.3517 Y11.6517
G01 X32.3231 Y11.7659
G01 X32.3058 Y11.8824
G01 X32.3000 Y12.0000
G01 X32.3058 Y12.1176
G01 X32.3231 Y12.2341
G01 X32.3517 Y12.3483
G01 X32.3913 Y12.4592
G01 X32.4417 Y12.5657
G01 X32.5022 Y12.6667
G01 X32.5724 Y12.7613
G01 X32.6515 Y12.8485
G01 X32.7387 Y12.9276
G01 X32.8333 Y12.9978
G01 X32.9343 Y13.0583
G01 X33.0408 Y13.1087
G01 X33.1517 Y13.1483
G01 X33.2659 Y13.1769
G01 X33.3824 Y13.1942
G01 X33.5000 Y13.2000
G01 X33.6176 Y13.1942
G01 X33.7341 Y13.1769
G01 X33.8483 Y13.1483
G01 X33.9592 Y13.1087
G01 X34.0657 Y13.0583
G01 X34.1667 Y12.9978
G01 X34.2613 Y12.9276
G01 X34.3485 Y12.8485
G01 X34.4276 Y12.7613
G01 X34.4978 Y12.6667
G01 X34.5583 Y12.5657
G01 X34.6087 Y12.4592
G01 X34.6483 Y12.3483
G01 X34.6769 Y12.2341
G01 X34.6942 Y12.1176
G01 X34.7000 Y12.0000
G00 X34.7000 Y12.0000
G01 F100.00
G01 Z-1.6000
G01 F300.00
G01 X34.6942 Y11.8824
G01 X34.6769 Y11.7659
G01 X34.6483 Y11.6517
G01 X34.6087 Y11.5408
G01 X34.5583 Y11.4343
G01 X34.4978 Y11.3333
G01 X34.4276 Y11.2387
G01 X34.3485 Y11.1515
G01 X34.2613 Y11.0724
G01 X34.1667 Y11.0022
G01 X34.0657 Y10.9417
G01 X33.9592 Y10.8913
G01 X33.8483 Y10.8517
G01 X33.7341 Y10.8231
G01 X33.6176 Y10.8058
G01 X33.5000 Y10.8000
G01 X33.3824 Y10.8058
G01 X33.2659 Y10.8231
G01 X33.1517 Y10.8517
G01 X33.0408 Y10.8913
G01 X32.9343 Y10.9417
G01 X32.8333 Y11.0022
G01 X32.7387 Y11.0724
G01 X32.6515 Y11.1515
G01 X32.5724 Y11.2387
G01 X32.5022 Y11.3333
G01 X32.4417 Y11.4343
G01 X32.3913 Y11.5408
G01 X32.3517 Y11.6517
G01 X32.3231 Y11.7659
G01 X32.3058 Y11.8824
G01 X32.3000 Y12.0000
G01 X32.3058 Y12.1176
G01 X32.3231 Y12.2341
G01 X32.3517 Y12.3483
G01 X32.3913 Y12.4592
G01 X32.4417 Y12.5657
G01 X32.5022 Y12.6667
G01 X32.5724 Y12.7613
G01 X32.6515 Y12.8485
G01 X32.7387 Y12.9276
G01 X32.8333 Y12.9978
G01 X32.9343 Y13.0583
G01 X33.0408 Y13.1087
G01 X33.1517 Y13.1483
G01 X33.2659 Y13.1769
G01 X33.3824 Y13.1942
G01 X33.5000 Y13.2000
G01 X33.6176 Y13.1942
G01 X33.7341 Y13.1769
G01 X33.8483 Y13.1483
G01 X33.9592 Y13.1087
G01 X34.0657 Y13.0583
G01 X34.1667 Y12.9978
G01 X34.2613 Y12.9276
G01 X34.3485 Y12.8485
G01 X34.4276 Y12.7613
G01 X34.4978 Y12.6667
G01 X34.5583 Y12.5657
G01 X34.6087 Y12.4592
G01 X34.6483 Y12.3483
G01 X34.6769 Y12.2341
G01 X34.6942 Y12.1176
G01 X34.7000 Y12.0000
G00 X34.7000 Y12.0000
G01 F100.00
G01 Z-1.8000
G01 F300.00
G01 X34.6942 Y11.8824
G01 X34.6769 Y11.7659
G01 X34.6483 Y11.6517
G01 X34.6087 Y11.5408
G01 X34.5583 Y11.4343
G01 X34.4978 Y11.3333
G01 X34.4276 Y11.2387
G01 X34.3485 Y11.1515
G01 X34.2613 Y11.0724
G01 X34.1667 Y11.0022
G01 X34.0657 Y10.9417
G01 X33.9592 Y10.8913
G01 X33.8483 Y10.8517
G01 X33.7341 Y10.8231
G01 X33.6176 Y10.8058
G01 X33.5000 Y10.8000
G01 X33.3824 Y10.8058
G01 X33.2659 Y10.8231
G01 X33.1517 Y10.8517
G01 X33.0408 Y10.8913
G01 X32.9343 Y10.9417
G01 X32.8333 Y11.0022
G01 X32.7387 Y11.0724
G01 X32.6515 Y11.1515
G01 X32.5724 Y11.2387
G01 X32.5022 Y11.3333
G01 X32.4417 Y11.4343
G01 X32.3913 Y11.5408
G01 X32.3517 Y11.6517
G01 X32.3231 Y11.7659
G01 X32.3058 Y11.8824
G01 X32.3000 Y12.0000
G01 X32.3058 Y12.1176
G01 X32.3231 Y12.2341
G01 X32.3517 Y12.3483
G01 X32.3913 Y12.4592
G01 X32.4417 Y12.5657
G01 X32.5022 Y12.6667
G01 X32.5724 Y12.7613
G01 X32.6515 Y12.8485
G01 X32.7387 Y12.9276
G01 X32.8333 Y12.9978
G01 X32.9343 Y13.0583
G01 X33.0408 Y13.1087
G01 X33.1517 Y13.1483
G01 X33.2659 Y13.1769
G01 X33.3824 Y13.1942
G01 X33.5000 Y13.2000
G01 X33.6176 Y13.1942
G01 X33.7341 Y13.1769
G01 X33.8483 Y13.1483
G01 X33.9592 Y13.1087
G01 X34.0657 Y13.0583
G01 X34.1667 Y12.9978
G01 X34.2613 Y12.9276
G01 X34.3485 Y12.8485
G01 X34.4276 Y12.7613
G01 X34.4978 Y12.6667
G01 X34.5583 Y12.5657
G01 X34.6087 Y12.4592
G01 X34.6483 Y12.3483
G01 X34.6769 Y12.2341
G01 X34.6942 Y12.1176
G01 X34.7000 Y12.0000
G00 X34.7000 Y12.0000
G01 F100.00
G01 Z-2.0000
G01 F300.00
G01 X34.6942 Y11.8824
G01 X34.6769 Y11.7659
G01 X34.6483 Y11.6517
G01 X34.6087 Y11.5408
G01 X34.5583 Y11.4343
G01 X34.4978 Y11.3333
G01 X34.4276 Y11.2387
G01 X34.3485 Y11.1515
G01 X34.2613 Y11.0724
G01 X34.1667 Y11.0022
G01 X34.0657 Y10.9417
G01 X33.9592 Y10.8913
G01 X33.8483 Y10.8517
G01 X33.7341 Y10.8231
G01 X33.6176 Y10.8058
G01 X33.5000 Y10.8000
G01 X33.3824 Y10.8058
G01 X33.2659 Y10.8231
G01 X33.1517 Y10.8517
G01 X33.0408 Y10.8913
G01 X32.9343 Y10.9417
G01 X32.8333 Y11.0022
G01 X32.7387 Y11.0724
G01 X32.6515 Y11.1515
G01 X32.5724 Y11.2387
G01 X32.5022 Y11.3333
G01 X32.4417 Y11.4343
G01 X32.3913 Y11.5408
G01 X32.3517 Y11.6517
G01 X32.3231 Y11.7659
G01 X32.3058 Y11.8824
G01 X32.3000 Y12.0000
G01 X32.3058 Y12.1176
G01 X32.3231 Y12.2341
G01 X32.3517 Y12.3483
G01 X32.3913 Y12.4592
G01 X32.4417 Y12.5657
G01 X32.5022 Y12.6667
G01 X32.5724 Y12.7613
G01 X32.6515 Y12.8485
G01 X32.7387 Y12.9276
G01 X32.8333 Y12.9978
G01 X32.9343 Y13.0583
G01 X33.0408 Y13.1087
G01 X33.1517 Y13.1483
G01 X33.2659 Y13.1769
G01 X33.3824 Y13.1942
G01 X33.5000 Y13.2000
G01 X33.6176 Y13.1942
G01 X33.7341 Y13.1769
G01 X33.8483 Y13.1483
G01 X33.9592 Y13.1087
G01 X34.0657 Y13.0583
G01 X34.1667 Y12.9978
G01 X34.2613 Y12.9276
G01 X34.3485 Y12.8485
G01 X34.4276 Y12.7613
G01 X34.4978 Y12.6667
G01 X34.5583 Y12.5657
G01 X34.6087 Y12.4592
G01 X34.6483 Y12.3483
G01 X34.6769 Y12.2341
G01 X34.6942 Y12.1176
G01 X34.7000 Y12.0000
G00 X34.7000 Y12.0000
G01 F100.00
G01 Z-2.2000
G01 F300.00
G01 X34.6942 Y11.8824
G01 X34.6769 Y11.7659
G01 X34.6483 Y11.6517
G01 X34.6087 Y11.5408
G01 X34.5583 Y11.4343
G01 X34.4978 Y11.3333
G01 X34.4276 Y11.2387
G01 X34.3485 Y11.1515
G01 X34.2613 Y11.0724
G01 X34.1667 Y11.0022
G01 X34.0657 Y10.9417
G01 X33.9592 Y10.8913
G01 X33.8483 Y10.8517
G01 X33.7341 Y10.8231
G01 X33.6176 Y10.8058
G01 X33.5000 Y10.8000
G01 X33.3824 Y10.8058
G01 X33.2659 Y10.8231
G01 X33.1517 Y10.8517
G01 X33.0408 Y10.8913
G01 X32.9343 Y10.9417
G01 X32.8333 Y11.0022
G01 X32.7387 Y11.0724
G01 X32.6515 Y11.1515
G01 X32.5724 Y11.2387
G01 X32.5022 Y11.3333
G01 X32.4417 Y11.4343
G01 X32.3913 Y11.5408
G01 X32.3517 Y11.6517
G01 X32.3231 Y11.7659
G01 X32.3058 Y11.8824
G01 X32.3000 Y12.0000
G01 X32.3058 Y12.1176
G01 X32.3231 Y12.2341
G01 X32.3517 Y12.3483
G01 X32.3913 Y12.4592
G01 X32.4417 Y12.5657
G01 X32.5022 Y12.6667
G01 X32.5724 Y12.7613
G01 X32.6515 Y12.8485
G01 X32.7387 Y12.9276
G01 X32.8333 Y12.9978
G01 X32.9343 Y13.0583
G01 X33.0408 Y13.1087
G01 X33.1517 Y13.1483
G01 X33.2659 Y13.1769
G01 X33.3824 Y13.1942
G01 X33.5000 Y13.2000
G01 X33.6176 Y13.1942
G01 X33.7341 Y13.1769
G01 X33.8483 Y13.1483
G01 X33.9592 Y13.1087
G01 X34.0657 Y13.0583
G01 X34.1667 Y12.9978
G01 X34.2613 Y12.9276
G01 X34.3485 Y12.8485
G01 X34.4276 Y12.7613
G01 X34.4978 Y12.6667
G01 X34.5583 Y12.5657
G01 X34.6087 Y12.4592
G01 X34.6483 Y12.3483
G01 X34.6769 Y12.2341
G01 X34.6942 Y12.1176
G01 X34.7000 Y12.0000
G00 X34.7000 Y12.0000
G01 F100.00
G01 Z-2.4000
G01 F300.00
G01 X34.6942 Y11.8824
G01 X34.6769 Y11.7659
G01 X34.6483 Y11.6517
G01 X34.6087 Y11.5408
G01 X34.5583 Y11.4343
G01 X34.4978 Y11.3333
G01 X34.4276 Y11.2387
G01 X34.3485 Y11.1515
G01 X34.2613 Y11.0724
G01 X34.1667 Y11.0022
G01 X34.0657 Y10.9417
G01 X33.9592 Y10.8913
G01 X33.8483 Y10.8517
G01 X33.7341 Y10.8231
G01 X33.6176 Y10.8058
G01 X33.5000 Y10.8000
G01 X33.3824 Y10.8058
G01 X33.2659 Y10.8231
G01 X33.1517 Y10.8517
G01 X33.0408 Y10.8913
G01 X32.9343 Y10.9417
G01 X32.8333 Y11.0022
G01 X32.7387 Y11.0724
G01 X32.6515 Y11.1515
G01 X32.5724 Y11.2387
G01 X32.5022 Y11.3333
G01 X32.4417 Y11.4343
G01 X32.3913 Y11.5408
G01 X32.3517 Y11.6517
G01 X32.3231 Y11.7659
G01 X32.3058 Y11.8824
G01 X32.3000 Y12.0000
G01 X32.3058 Y12.1176
G01 X32.3231 Y12.2341
G01 X32.3517 Y12.3483
G01 X32.3913 Y12.4592
G01 X32.4417 Y12.5657
G01 X32.5022 Y12.6667
G01 X32.5724 Y12.7613
G01 X32.6515 Y12.8485
G01 X32.7387 Y12.9276
G01 X32.8333 Y12.9978
G01 X32.9343 Y13.0583
G01 X33.0408 Y13.1087
G01 X33.1517 Y13.1483
G01 X33.2659 Y13.1769
G01 X33.3824 Y13.1942
G01 X33.5000 Y13.2000
G01 X33.6176 Y13.1942
G01 X33.7341 Y13.1769
G01 X33.8483 Y13.1483
G01 X33.9592 Y13.1087
G01 X34.0657 Y13.0583
G01 X34.1667 Y12.9978
G01 X34.2613 Y12.9276
G01 X34.3485 Y12.8485
G01 X34.4276 Y12.7613
G01 X34.4978 Y12.6667
G01 X34.5583 Y12.5657
G01 X34.6087 Y12.4592
G01 X34.6483 Y12.3483
G01 X34.6769 Y12.2341
G01 X34.6942 Y12.1176
G01 X34.7000 Y12.0000
G00 X34.7000 Y12.0000
G01 F100.00
G01 Z-2.5000
G01 F300.00
G01 X34.6942 Y11.8824
G01 X34.6769 Y11.7659
G01 X34.6483 Y11.6517
G01 X34.6087 Y11.5408
G01 X34.5583 Y11.4343
G01 X34.4978 Y11.3333
G01 X34.4276 Y11.2387
G01 X34.3485 Y11.1515
G01 X34.2613 Y11.0724
G01 X34.1667 Y11.0022
G01 X34.0657 Y10.9417
G01 X33.9592 Y10.8913
G01 X33.8483 Y10.8517
G01 X33.7341 Y10.8231
G01 X33.6176 Y10.8058
G01 X33.5000 Y10.8000
G01 X33.3824 Y10.8058
G01 X33.2659 Y10.8231
G01 X33.1517 Y10.8517
G01 X33.0408 Y10.8913
G01 X32.9343 Y10.9417
G01 X32.8333 Y11.0022
G01 X32.7387 Y11.0724
G01 X32.6515 Y11.1515
G01 X32.5724 Y11.2387
G01 X32.5022 Y11.3333
G01 X32.4417 Y11.4343
G01 X32.3913 Y11.5408
G01 X32.3517 Y11.6517
G01 X32.3231 Y11.7659
G01 X32.3058 Y11.8824
G01 X32.3000 Y12.0000
G01 X32.3058 Y12.1176
G01 X32.3231 Y12.2341
G01 X32.3517 Y12.3483
G01 X32.3913 Y12.4592
G01 X32.4417 Y12.5657
G01 X32.5022 Y12.6667
G01 X32.5724 Y12.7613
G01 X32.6515 Y12.8485
G01 X32.7387 Y12.9276
G01 X32.8333 Y12.9978
G01 X32.9343 Y13.0583
G01 X33.0408 Y13.1087
G01 X33.1517 Y13.1483
G01 X33.2659 Y13.1769
G01 X33.3824 Y13.1942
G01 X33.5000 Y13.2000
G01 X33.6176 Y13.1942
G01 X33.7341 Y13.1769
G01 X33.8483 Y13.1483
G01 X33.9592 Y13.1087
G01 X34.0657 Y13.0583
G01 X34.1667 Y12.9978
G01 X34.2613 Y12.9276
G01 X34.3485 Y12.8485
G01 X34.4276 Y12.7613
G01 X34.4978 Y12.6667
G01 X34.5583 Y12.5657
G01 X34.6087 Y12.4592
G01 X34.6483 Y12.3483
G01 X34.6769 Y12.2341
G01 X34.6942 Y12.1176
G01 X34.7000 Y12.0000
G00 Z2.0000
G00 X37.5950 Y14.9500
G01 F100.00
G01 Z-0.2000
G01 F300.00
G01 X37.5946 Y14.9426
G01 X37.5936 Y14.9354
G01 X37.5918 Y14.9282
G01 X37.5893 Y14.9213
G01 X37.5861 Y14.9146
G01 X37.5824 Y14.9083
G01 X37.5780 Y14.9024
G01 X37.5730 Y14.8970
G01 X37.5676 Y14.8920
G01 X37.5617 Y14.8876
G01 X37.5554 Y14.8839
G01 X37.5487 Y14.8807
G01 X37.5418 Y14.8782
G01 X37.5346 Y14.8764
G01 X37.5274 Y14.8754
G01 X37.5200 Y14.8750
G01 X37.5126 Y14.8754
G01 X37.5054 Y14.8764
G01 X37.4982 Y14.8782
G01 X37.4913 Y14.8807
G01 X37.4846 Y14.8839
G01 X37.4783 Y14.8876
G01 X37.4724 Y14.8920
G01 X37.4670 Y14.8970
G01 X37.4620 Y14.9024
G01 X37.4576 Y14.9083
G01 X37.4539 Y14.9146
G01 X37.4507 Y14.9213
G01 X37.4482 Y14.9282
G01 X37.4464 Y14.9354
G01 X37.4454 Y14.9426
G01 X37.4450 Y14.9500
G01 X37.4454 Y14.9574
G01 X37.4464 Y14.9646
G01 X37.4482 Y14.9718
G01 X37.4507 Y14.9787
G01 X37.4539 Y14.9854
G01 X37.4576 Y14.9917
G01 X37.4620 Y14.9976
G01 X37.4670 Y15.0030
G01 X37.4724 Y15.0080
G01 X37.4783 Y15.0124
G01 X37.4846 Y15.0161
G01 X37.4913 Y15.0193
G01 X37.4982 Y15.0218
G01 X37.5054 Y15.0236
G01 X37.5126 Y15.0246
G01 X37.5200 Y15.0250
G01 X37.5274 Y15.0246
G01 X37.5346 Y15.0236
G01 X37.5418 Y15.0218
G01 X37.5487 Y15.0193
G01 X37.5554 Y15.0161
G01 X37.5617 Y15.0124
G01 X37.5676 Y15.0080
G01 X37.5730 Y15.0030
G01 X37.5780 Y14.9976
G01 X37.5824 Y14.9917
G01 X37.5861 Y14.9854
G01 X37.5893 Y14.9787
G01 X37.5918 Y14.9718
G01 X37.5936 Y14.9646
G01 X37.5946 Y14.9574
G01 X37.5950 Y14.9500
G00 X37.5950 Y14.9500
G01 F100.00
G01 Z-0.4000
G01 F300.00
G01 X37.5946 Y14.9426
G01 X37.5936 Y14.9354
G01 X37.5918 Y14.9282
G01 X37.5893 Y14.9213
G01 X37.5861 Y14.9146
G01 X37.5824 Y14.9083
G01 X37.5780 Y14.9024
G01 X37.5730 Y14.8970
G01 X37.5676 Y14.8920
G01 X37.5617 Y14.8876
G01 X37.5554 Y14.8839
G01 X37.5487 Y14.8807
G01 X37.5418 Y14.8782
G01 X37.5346 Y14.8764
G01 X37.5274 Y14.8754
G01 X37.5200 Y14.8750
G01 X37.5126 Y14.8754
G01 X37.5054 Y14.8764
G01 X37.4982 Y14.8782
G01 X37.4913 Y14.8807
G01 X37.4846 Y14.8839
G01 X37.4783 Y14.8876
G01 X37.4724 Y14.8920
G01 X37.4670 Y14.8970
G01 X37.4620 Y14.9024
G01 X37.4576 Y14.9083
G01 X37.4539 Y14.9146
G01 X37.4507 Y14.9213
G01 X37.4482 Y14.9282
G01 X37.4464 Y14.9354
G01 X37.4454 Y14.9426
G01 X37.4450 Y14.9500
G01 X37.4454 Y14.9574
G01 X37.4464 Y14.9646
G01 X37.4482 Y14.9718
G01 X37.4507 Y14.9787
G01 X37.4539 Y14.9854
G01 X37.4576 Y14.9917
G01 X37.4620 Y14.9976
G01 X37.4670 Y15.0030
G01 X37.4724 Y15.0080
G01 X37.4783 Y15.0124
G01 X37.4846 Y15.0161
G01 X37.4913 Y15.0193
G01 X37.4982 Y15.0218
G01 X37.5054 Y15.0236
G01 X37.5126 Y15.0246
G01 X37.5200 Y15.0250
G01 X37.5274 Y15.0246
G01 X37.5346 Y15.0236
G01 X37.5418 Y15.0218
G01 X37.5487 Y15.0193
G01 X37.5554 Y15.0161
G01 X37.5617 Y15.0124
G01 X37.5676 Y15.0080
G01 X37.5730 Y15.0030
G01 X37.5780 Y14.9976
G01 X37.5824 Y14.9917
G01 X37.5861 Y14.9854
G01 X37.5893 Y14.9787
G01 X37.5918 Y14.9718
G01 X37.5936 Y14.9646
G01 X37.5946 Y14.9574
G01 X37.5950 Y14.9500
G00 X37.5950 Y14.9500
G01 F100.00
G01 Z-0.6000
G01 F300.00
G01 X37.5946 Y14.9426
G01 X37.5936 Y14.9354
G01 X37.5918 Y14.9282
G01 X37.5893 Y14.9213
G01 X37.5861 Y14.9146
G01 X37.5824 Y14.9083
G01 X37.5780 Y14.9024
G01 X37.5730 Y14.8970
G01 X37.5676 Y14.8920
G01 X37.5617 Y14.8876
G01 X37.5554 Y14.8839
G01 X37.5487 Y14.8807
G01 X37.5418 Y14.8782
G01 X37.5346 Y14.8764
G01 X37.5274 Y14.8754
G01 X37.5200 Y14.8750
G01 X37.5126 Y14.8754
G01 X37.5054 Y14.8764
G01 X37.4982 Y14.8782
G01 X37.4913 Y14.8807
G01 X37.4846 Y14.8839
G01 X37.4783 Y14.8876
G01 X37.4724 Y14.8920
G01 X37.4670 Y14.8970
G01 X37.4620 Y14.9024
G01 X37.4576 Y14.9083
G01 X37.4539 Y14.9146
G01 X37.4507 Y14.9213
G01 X37.4482 Y14.9282
G01 X37.4464 Y14.9354
G01 X37.4454 Y14.9426
G01 X37.4450 Y14.9500
G01 X37.4454 Y14.9574
G01 X37.4464 Y14.9646
G01 X37.4482 Y14.9718
G01 X37.4507 Y14.9787
G01 X37.4539 Y14.9854
G01 X37.4576 Y14.9917
G01 X37.4620 Y14.9976
G01 X37.4670 Y15.0030
G01 X37.4724 Y15.0080
G01 X37.4783 Y15.0124
G01 X37.4846 Y15.0161
G01 X37.4913 Y15.0193
G01 X37.4982 Y15.0218
G01 X37.5054 Y15.0236
G01 X37.5126 Y15.0246
G01 X37.5200 Y15.0250
G01 X37.5274 Y15.0246
G01 X37.5346 Y15.0236
G01 X37.5418 Y15.0218
G01 X37.5487 Y15.0193
G01 X37.5554 Y15.0161
G01 X37.5617 Y15.0124
G01 X37.5676 Y15.0080
G01 X37.5730 Y15.0030
G01 X37.5780 Y14.9976
G01 X37.5824 Y14.9917
G01 X37.5861 Y14.9854
G01 X37.5893 Y14.9787
G01 X37.5918 Y14.9718
G01 X37.5936 Y14.9646
G01 X37.5946 Y14.9574
G01 X37.5950 Y14.9500
G00 X37.5950 Y14.9500
G01 F100.00
G01 Z-0.8000
G01 F300.00
G01 X37.5946 Y14.9426
G01 X37.5936 Y14.9354
G01 X37.5918 Y14.9282
G01 X37.5893 Y14.9213
G01 X37.5861 Y14.9146
G01 X37.5824 Y14.9083
G01 X37.5780 Y14.9024
G01 X37.5730 Y14.8970
G01 X37.5676 Y14.8920
G01 X37.5617 Y14.8876
G01 X37.5554 Y14.8839
G01 X37.5487 Y14.8807
G01 X37.5418 Y14.8782
G01 X37.5346 Y14.8764
G01 X37.5274 Y14.8754
G01 X37.5200 Y14.8750
G01 X37.5126 Y14.8754
G01 X37.5054 Y14.8764
G01 X37.4982 Y14.8782
G01 X37.4913 Y14.8807
G01 X37.4846 Y14.8839
G01 X37.4783 Y14.8876
G01 X37.4724 Y14.8920
G01 X37.4670 Y14.8970
G01 X37.4620 Y14.9024
G01 X37.4576 Y14.9083
G01 X37.4539 Y14.9146
G01 X37.4507 Y14.9213
G01 X37.4482 Y14.9282
G01 X37.4464 Y14.9354
G01 X37.4454 Y14.9426
G01 X37.4450 Y14.9500
G01 X37.4454 Y14.9574
G01 X37.4464 Y14.9646
G01 X37.4482 Y14.9718
G01 X37.4507 Y14.9787
G01 X37.4539 Y14.9854
G01 X37.4576 Y14.9917
G01 X37.4620 Y14.9976
G01 X37.4670 Y15.0030
G01 X37.4724 Y15.0080
G01 X37.4783 Y15.0124
G01 X37.4846 Y15.0161
G01 X37.4913 Y15.0193
G01 X37.4982 Y15.0218
G01 X37.5054 Y15.0236
G01 X37.5126 Y15.0246
G01 X37.5200 Y15.0250
G01 X37.5274 Y15.0246
G01 X37.5346 Y15.0236
G01 X37.5418 Y15.0218
G01 X37.5487 Y15.0193
G01 X37.5554 Y15.0161
G01 X37.5617 Y15.0124
G01 X37.5676 Y15.0080
G01 X37.5730 Y15.0030
G01 X37.5780 Y14.9976
G01 X37.5824 Y14.9917
G01 X37.5861 Y14.9854
G01 X37.5893 Y14.9787
G01 X37.5918 Y14.9718
G01 X37.5936 Y14.9646
G01 X37.5946 Y14.9574
G01 X37.5950 Y14.9500
G00 X37.5950 Y14.9500
G01 F100.00
G01 Z-1.0000
G01 F300.00
G01 X37.5946 Y14.9426
G01 X37.5936 Y14.9354
G01 X37.5918 Y14.9282
G01 X37.5893 Y14.9213
G01 X37.5861 Y14.9146
G01 X37.5824 Y14.9083
G01 X37.5780 Y14.9024
G01 X37.5730 Y14.8970
G01 X37.5676 Y14.8920
G01 X37.5617 Y14.8876
G01 X37.5554 Y14.8839
G01 X37.5487 Y14.8807
G01 X37.5418 Y14.8782
G01 X37.5346 Y14.8764
G01 X37.5274 Y14.8754
G01 X37.5200 Y14.8750
G01 X37.5126 Y14.8754
G01 X37.5054 Y14.8764
G01 X37.4982 Y14.8782
G01 X37.4913 Y14.8807
G01 X37.4846 Y14.8839
G01 X37.4783 Y14.8876
G01 X37.4724 Y14.8920
G01 X37.4670 Y14.8970
G01 X37.4620 Y14.9024
G01 X37.4576 Y14.9083
G01 X37.4539 Y14.9146
G01 X37.4507 Y14.9213
G01 X37.4482 Y14.9282
G01 X37.4464 Y14.9354
G01 X37.4454 Y14.9426
G01 X37.4450 Y14.9500
G01 X37.4454 Y14.9574
G01 X37.4464 Y14.9646
G01 X37.4482 Y14.9718
G01 X37.4507 Y14.9787
G01 X37.4539 Y14.9854
G01 X37.4576 Y14.9917
G01 X37.4620 Y14.9976
G01 X37.4670 Y15.0030
G01 X37.4724 Y15.0080
G01 X37.4783 Y15.0124
G01 X37.4846 Y15.0161
G01 X37.4913 Y15.0193
G01 X37.4982 Y15.0218
G01 X37.5054 Y15.0236
G01 X37.5126 Y15.0246
G01 X37.5200 Y15.0250
G01 X37.5274 Y15.0246
G01 X37.5346 Y15.0236
G01 X37.5418 Y15.0218
G01 X37.5487 Y15.0193
G01 X37.5554 Y15.0161
G01 X37.5617 Y15.0124
G01 X37.5676 Y15.0080
G01 X37.5730 Y15.0030
G01 X37.5780 Y14.9976
G01 X37.5824 Y14.9917
G01 X37.5861 Y14.9854
G01 X37.5893 Y14.9787
G01 X37.5918 Y14.9718
G01 X37.5936 Y14.9646
G01 X37.5946 Y14.9574
G01 X37.5950 Y14.9500
G00 X37.5950 Y14.9500
G01 F100.00
G01 Z-1.2000
G01 F300.00
G01 X37.5946 Y14.9426
G01 X37.5936 Y14.9354
G01 X37.5918 Y14.9282
G01 X37.5893 Y14.9213
G01 X37.5861 Y14.9146
G01 X37.5824 Y14.9083
G01 X37.5780 Y14.9024
G01 X37.5730 Y14.8970
G01 X37.5676 Y14.8920
G01 X37.5617 Y14.8876
G01 X37.5554 Y14.8839
G01 X37.5487 Y14.8807
G01 X37.5418 Y14.8782
G01 X37.5346 Y14.8764
G01 X37.5274 Y14.8754
G01 X37.5200 Y14.8750
G01 X37.5126 Y14.8754
G01 X37.5054 Y14.8764
G01 X37.4982 Y14.8782
G01 X37.4913 Y14.8807
G01 X37.4846 Y14.8839
G01 X37.4783 Y14.8876
G01 X37.4724 Y14.8920
G01 X37.4670 Y14.8970
G01 X37.4620 Y14.9024
G01 X37.4576 Y14.9083
G01 X37.4539 Y14.9146
G01 X37.4507 Y14.9213
G01 X37.4482 Y14.9282
G01 X37.4464 Y14.9354
G01 X37.4454 Y14.9426
G01 X37.4450 Y14.9500
G01 X37.4454 Y14.9574
G01 X37.4464 Y14.9646
G01 X37.4482 Y14.9718
G01 X37.4507 Y14.9787
G01 X37.4539 Y14.9854
G01 X37.4576 Y14.9917
G01 X37.4620 Y14.9976
G01 X37.4670 Y15.0030
G01 X37.4724 Y15.0080
G01 X37.4783 Y15.0124
G01 X37.4846 Y15.0161
G01 X37.4913 Y15.0193
G01 X37.4982 Y15.0218
G01 X37.5054 Y15.0236
G01 X37.5126 Y15.0246
G01 X37.5200 Y15.0250
G01 X37.5274 Y15.0246
G01 X37.5346 Y15.0236
G01 X37.5418 Y15.0218
G01 X37.5487 Y15.0193
G01 X37.5554 Y15.0161
G01 X37.5617 Y15.0124
G01 X37.5676 Y15.0080
G01 X37.5730 Y15.0030
G01 X37.5780 Y14.9976
G01 X37.5824 Y14.9917
G01 X37.5861 Y14.9854
G01 X37.5893 Y14.9787
G01 X37.5918 Y14.9718
G01 X37.5936 Y14.9646
G01 X37.5946 Y14.9574
G01 X37.5950 Y14.9500
G00 X37.5950 Y14.9500
G01 F100.00
G01 Z-1.4000
G01 F300.00
G01 X37.5946 Y14.9426
G01 X37.5936 Y14.9354
G01 X37.5918 Y14.9282
G01 X37.5893 Y14.9213
G01 X37.5861 Y14.9146
G01 X37.5824 Y14.9083
G01 X37.5780 Y14.9024
G01 X37.5730 Y14.8970
G01 X37.5676 Y14.8920
G01 X37.5617 Y14.8876
G01 X37.5554 Y14.8839
G01 X37.5487 Y14.8807
G01 X37.5418 Y14.8782
G01 X37.5346 Y14.8764
G01 X37.5274 Y14.8754
G01 X37.5200 Y14.8750
G01 X37.5126 Y14.8754
G01 X37.5054 Y14.8764
G01 X37.4982 Y14.8782
G01 X37.4913 Y14.8807
G01 X37.4846 Y14.8839
G01 X37.4783 Y14.8876
G01 X37.4724 Y14.8920
G01 X37.4670 Y14.8970
G01 X37.4620 Y14.9024
G01 X37.4576 Y14.9083
G01 X37.4539 Y14.9146
G01 X37.4507 Y14.9213
G01 X37.4482 Y14.9282
G01 X37.4464 Y14.9354
G01 X37.4454 Y14.9426
G01 X37.4450 Y14.9500
G01 X37.4454 Y14.9574
G01 X37.4464 Y14.9646
G01 X37.4482 Y14.9718
G01 X37.4507 Y14.9787
G01 X37.4539 Y14.9854
G01 X37.4576 Y14.9917
G01 X37.4620 Y14.9976
G01 X37.4670 Y15.0030
G01 X37.4724 Y15.0080
G01 X37.4783 Y15.0124
G01 X37.4846 Y15.0161
G01 X37.4913 Y15.0193
G01 X37.4982 Y15.0218
G01 X37.5054 Y15.0236
G01 X37.5126 Y15.0246
G01 X37.5200 Y15.0250
G01 X37.5274 Y15.0246
G01 X37.5346 Y15.0236
G01 X37.5418 Y15.0218
G01 X37.5487 Y15.0193
G01 X37.5554 Y15.0161
G01 X37.5617 Y15.0124
G01 X37.5676 Y15.0080
G01 X37.5730 Y15.0030
G01 X37.5780 Y14.9976
G01 X37.5824 Y14.9917
G01 X37.5861 Y14.9854
G01 X37.5893 Y14.9787
G01 X37.5918 Y14.9718
G01 X37.5936 Y14.9646
G01 X37.5946 Y14.9574
G01 X37.5950 Y14.9500
G00 X37.5950 Y14.9500
G01 F100.00
G01 Z-1.6000
G01 F300.00
G01 X37.5946 Y14.9426
G01 X37.5936 Y14.9354
G01 X37.5918 Y14.9282
G01 X37.5893 Y14.9213
G01 X37.5861 Y14.9146
G01 X37.5824 Y14.9083
G01 X37.5780 Y14.9024
G01 X37.5730 Y14.8970
G01 X37.5676 Y14.8920
G01 X37.5617 Y14.8876
G01 X37.5554 Y14.8839
G01 X37.5487 Y14.8807
G01 X37.5418 Y14.8782
G01 X37.5346 Y14.8764
G01 X37.5274 Y14.8754
G01 X37.5200 Y14.8750
G01 X37.5126 Y14.8754
G01 X37.5054 Y14.8764
G01 X37.4982 Y14.8782
G01 X37.4913 Y14.8807
G01 X37.4846 Y14.8839
G01 X37.4783 Y14.8876
G01 X37.4724 Y14.8920
G01 X37.4670 Y14.8970
G01 X37.4620 Y14.9024
G01 X37.4576 Y14.9083
G01 X37.4539 Y14.9146
G01 X37.4507 Y14.9213
G01 X37.4482 Y14.9282
G01 X37.4464 Y14.9354
G01 X37.4454 Y14.9426
G01 X37.4450 Y14.9500
G01 X37.4454 Y14.9574
G01 X37.4464 Y14.9646
G01 X37.4482 Y14.9718
G01 X37.4507 Y14.9787
G01 X37.4539 Y14.9854
G01 X37.4576 Y14.9917
G01 X37.4620 Y14.9976
G01 X37.4670 Y15.0030
G01 X37.4724 Y15.0080
G01 X37.4783 Y15.0124
G01 X37.4846 Y15.0161
G01 X37.4913 Y15.0193
G01 X37.4982 Y15.0218
G01 X37.5054 Y15.0236
G01 X37.5126 Y15.0246
G01 X37.5200 Y15.0250
G01 X37.5274 Y15.0246
G01 X37.5346 Y15.0236
G01 X37.5418 Y15.0218
G01 X37.5487 Y15.0193
G01 X37.5554 Y15.0161
G01 X37.5617 Y15.0124
G01 X37.5676 Y15.0080
G01 X37.5730 Y15.0030
G01 X37.5780 Y14.9976
G01 X37.5824 Y14.9917
G01 X37.5861 Y14.9854
G01 X37.5893 Y14.9787
G01 X37.5918 Y14.9718
G01 X37.5936 Y14.9646
G01 X37.5946 Y14.9574
G01 X37.5950 Y14.9500
G00 X37.5950 Y14.9500
G01 F100.00
G01 Z-1.8000
G01 F300.00
G01 X37.5946 Y14.9426
G01 X37.5936 Y14.9354
G01 X37.5918 Y14.9282
G01 X37.5893 Y14.9213
G01 X37.5861 Y14.9146
G01 X37.5824 Y14.9083
G01 X37.5780 Y14.9024
G01 X37.5730 Y14.8970
G01 X37.5676 Y14.8920
G01 X37.5617 Y14.8876
G01 X37.5554 Y14.8839
G01 X37.5487 Y14.8807
G01 X37.5418 Y14.8782
G01 X37.5346 Y14.8764
G01 X37.5274 Y14.8754
G01 X37.5200 Y14.8750
G01 X37.5126 Y14.8754
G01 X37.5054 Y14.8764
G01 X37.4982 Y14.8782
G01 X37.4913 Y14.8807
G01 X37.4846 Y14.8839
G01 X37.4783 Y14.8876
G01 X37.4724 Y14.8920
G01 X37.4670 Y14.8970
G01 X37.4620 Y14.9024
G01 X37.4576 Y14.9083
G01 X37.4539 Y14.9146
G01 X37.4507 Y14.9213
G01 X37.4482 Y14.9282
G01 X37.4464 Y14.9354
G01 X37.4454 Y14.9426
G01 X37.4450 Y14.9500
G01 X37.4454 Y14.9574
G01 X37.4464 Y14.9646
G01 X37.4482 Y14.9718
G01 X37.4507 Y14.9787
G01 X37.4539 Y14.9854
G01 X37.4576 Y14.9917
G01 X37.4620 Y14.9976
G01 X37.4670 Y15.0030
G01 X37.4724 Y15.0080
G01 X37.4783 Y15.0124
G01 X37.4846 Y15.0161
G01 X37.4913 Y15.0193
G01 X37.4982 Y15.0218
G01 X37.5054 Y15.0236
G01 X37.5126 Y15.0246
G01 X37.5200 Y15.0250
G01 X37.5274 Y15.0246
G01 X37.5346 Y15.0236
G01 X37.5418 Y15.0218
G01 X37.5487 Y15.0193
G01 X37.5554 Y15.0161
G01 X37.5617 Y15.0124
G01 X37.5676 Y15.0080
G01 X37.5730 Y15.0030
G01 X37.5780 Y14.9976
G01 X37.5824 Y14.9917
G01 X37.5861 Y14.9854
G01 X37.5893 Y14.9787
G01 X37.5918 Y14.9718
G01 X37.5936 Y14.9646
G01 X37.5946 Y14.9574
G01 X37.5950 Y14.9500
G00 X37.5950 Y14.9500
G01 F100.00
G01 Z-2.0000
G01 F300.00
G01 X37.5946 Y14.9426
G01 X37.5936 Y14.9354
G01 X37.5918 Y14.9282
G01 X37.5893 Y14.9213
G01 X37.5861 Y14.9146
G01 X37.5824 Y14.9083
G01 X37.5780 Y14.9024
G01 X37.5730 Y14.8970
G01 X37.5676 Y14.8920
G01 X37.5617 Y14.8876
G01 X37.5554 Y14.8839
G01 X37.5487 Y14.8807
G01 X37.5418 Y14.8782
G01 X37.5346 Y14.8764
G01 X37.5274 Y14.8754
G01 X37.5200 Y14.8750
G01 X37.5126 Y14.8754
G01 X37.5054 Y14.8764
G01 X37.4982 Y14.8782
G01 X37.4913 Y14.8807
G01 X37.4846 Y14.8839
G01 X37.4783 Y14.8876
G01 X37.4724 Y14.8920
G01 X37.4670 Y14.8970
G01 X37.4620 Y14.9024
G01 X37.4576 Y14.9083
G01 X37.4539 Y14.9146
G01 X37.4507 Y14.9213
G01 X37.4482 Y14.9282
G01 X37.4464 Y14.9354
G01 X37.4454 Y14.9426
G01 X37.4450 Y14.9500
G01 X37.4454 Y14.9574
G01 X37.4464 Y14.9646
G01 X37.4482 Y14.9718
G01 X37.4507 Y14.9787
G01 X37.4539 Y14.9854
G01 X37.4576 Y14.9917
G01 X37.4620 Y14.9976
G01 X37.4670 Y15.0030
G01 X37.4724 Y15.0080
G01 X37.4783 Y15.0124
G01 X37.4846 Y15.0161
G01 X37.4913 Y15.0193
G01 X37.4982 Y15.0218
G01 X37.5054 Y15.0236
G01 X37.5126 Y15.0246
G01 X37.5200 Y15.0250
G01 X37.5274 Y15.0246
G01 X37.5346 Y15.0236
G01 X37.5418 Y15.0218
G01 X37.5487 Y15.0193
G01 X37.5554 Y15.0161
G01 X37.5617 Y15.0124
G01 X37.5676 Y15.0080
G01 X37.5730 Y15.0030
G01 X37.5780 Y14.9976
G01 X37.5824 Y14.9917
G01 X37.5861 Y14.9854
G01 X37.5893 Y14.9787
G01 X37.5918 Y14.9718
G01 X37.5936 Y14.9646
G01 X37.5946 Y14.9574
G01 X37.5950 Y14.9500
G00 X37.5950 Y14.9500
G01 F100.00
G01 Z-2.2000
G01 F300.00
G01 X37.5946 Y14.9426
G01 X37.5936 Y14.9354
G01 X37.5918 Y14.9282
G01 X37.5893 Y14.9213
G01 X37.5861 Y14.9146
G01 X37.5824 Y14.9083
G01 X37.5780 Y14.9024
G01 X37.5730 Y14.8970
G01 X37.5676 Y14.8920
G01 X37.5617 Y14.8876
G01 X37.5554 Y14.8839
G01 X37.5487 Y14.8807
G01 X37.5418 Y14.8782
G01 X37.5346 Y14.8764
G01 X37.5274 Y14.8754
G01 X37.5200 Y14.8750
G01 X37.5126 Y14.8754
G01 X37.5054 Y14.8764
G01 X37.4982 Y14.8782
G01 X37.4913 Y14.8807
G01 X37.4846 Y14.8839
G01 X37.4783 Y14.8876
G01 X37.4724 Y14.8920
G01 X37.4670 Y14.8970
G01 X37.4620 Y14.9024
G01 X37.4576 Y14.9083
G01 X37.4539 Y14.9146
G01 X37.4507 Y14.9213
G01 X37.4482 Y14.9282
G01 X37.4464 Y14.9354
G01 X37.4454 Y14.9426
G01 X37.4450 Y14.9500
G01 X37.4454 Y14.9574
G01 X37.4464 Y14.9646
G01 X37.4482 Y14.9718
G01 X37.4507 Y14.9787
G01 X37.4539 Y14.9854
G01 X37.4576 Y14.9917
G01 X37.4620 Y14.9976
G01 X37.4670 Y15.0030
G01 X37.4724 Y15.0080
G01 X37.4783 Y15.0124
G01 X37.4846 Y15.0161
G01 X37.4913 Y15.0193
G01 X37.4982 Y15.0218
G01 X37.5054 Y15.0236
G01 X37.5126 Y15.0246
G01 X37.5200 Y15.0250
G01 X37.5274 Y15.0246
G01 X37.5346 Y15.0236
G01 X37.5418 Y15.0218
G01 X37.5487 Y15.0193
G01 X37.5554 Y15.0161
G01 X37.5617 Y15.0124
G01 X37.5676 Y15.0080
G01 X37.5730 Y15.0030
G01 X37.5780 Y14.9976
G01 X37.5824 Y14.9917
G01 X37.5861 Y14.9854
G01 X37.5893 Y14.9787
G01 X37.5918 Y14.9718
G01 X37.5936 Y14.9646
G01 X37.5946 Y14.9574
G01 X37.5950 Y14.9500
G00 X37.5950 Y14.9500
G01 F100.00
G01 Z-2.4000
G01 F300.00
G01 X37.5946 Y14.9426
G01 X37.5936 Y14.9354
G01 X37.5918 Y14.9282
G01 X37.5893 Y14.9213
G01 X37.5861 Y14.9146
G01 X37.5824 Y14.9083
G01 X37.5780 Y14.9024
G01 X37.5730 Y14.8970
G01 X37.5676 Y14.8920
G01 X37.5617 Y14.8876
G01 X37.5554 Y14.8839
G01 X37.5487 Y14.8807
G01 X37.5418 Y14.8782
G01 X37.5346 Y14.8764
G01 X37.5274 Y14.8754
G01 X37.5200 Y14.8750
G01 X37.5126 Y14.8754
G01 X37.5054 Y14.8764
G01 X37.4982 Y14.8782
G01 X37.4913 Y14.8807
G01 X37.4846 Y14.8839
G01 X37.4783 Y14.8876
G01 X37.4724 Y14.8920
G01 X37.4670 Y14.8970
G01 X37.4620 Y14.9024
G01 X37.4576 Y14.9083
G01 X37.4539 Y14.9146
G01 X37.4507 Y14.9213
G01 X37.4482 Y14.9282
G01 X37.4464 Y14.9354
G01 X37.4454 Y14.9426
G01 X37.4450 Y14.9500
G01 X37.4454 Y14.9574
G01 X37.4464 Y14.9646
G01 X37.4482 Y14.9718
G01 X37.4507 Y14.9787
G01 X37.4539 Y14.9854
G01 X37.4576 Y14.9917
G01 X37.4620 Y14.9976
G01 X37.4670 Y15.0030
G01 X37.4724 Y15.0080
G01 X37.4783 Y15.0124
G01 X37.4846 Y15.0161
G01 X37.4913 Y15.0193
G01 X37.4982 Y15.0218
G01 X37.5054 Y15.0236
G01 X37.5126 Y15.0246
G01 X37.5200 Y15.0250
G01 X37.5274 Y15.0246
G01 X37.5346 Y15.0236
G01 X37.5418 Y15.0218
G01 X37.5487 Y15.0193
G01 X37.5554 Y15.0161
G01 X37.5617 Y15.0124
G01 X37.5676 Y15.0080
G01 X37.5730 Y15.0030
G01 X37.5780 Y14.9976
G01 X37.5824 Y14.9917
G01 X37.5861 Y14.9854
G01 X37.5893 Y14.9787
G01 X37.5918 Y14.9718
G01 X37.5936 Y14.9646
G01 X37.5946 Y14.9574
G01 X37.5950 Y14.9500
G00 X37.5950 Y14.9500
G01 F100.00
G01 Z-2.5000
G01 F300.00
G01 X37.5946 Y14.9426
G01 X37.5936 Y14.9354
G01 X37.5918 Y14.9282
G01 X37.5893 Y14.9213
G01 X37.5861 Y14.9146
G01 X37.5824 Y14.9083
G01 X37.5780 Y14.9024
G01 X37.5730 Y14.8970
G01 X37.5676 Y14.8920
G01 X37.5617 Y14.8876
G01 X37.5554 Y14.8839
G01 X37.5487 Y14.8807
G01 X37.5418 Y14.8782
G01 X37.5346 Y14.8764
G01 X37.5274 Y14.8754
G01 X37.5200 Y14.8750
G01 X37.5126 Y14.8754
G01 X37.5054 Y14.8764
G01 X37.4982 Y14.8782
G01 X37.4913 Y14.8807
G01 X37.4846 Y14.8839
G01 X37.4783 Y14.8876
G01 X37.4724 Y14.8920
G01 X37.4670 Y14.8970
G01 X37.4620 Y14.9024
G01 X37.4576 Y14.9083
G01 X37.4539 Y14.9146
G01 X37.4507 Y14.9213
G01 X37.4482 Y14.9282
G01 X37.4464 Y14.9354
G01 X37.4454 Y14.9426
G01 X37.4450 Y14.9500
G01 X37.4454 Y14.9574
G01 X37.4464 Y14.9646
G01 X37.4482 Y14.9718
G01 X37.4507 Y14.9787
G01 X37.4539 Y14.9854
G01 X37.4576 Y14.9917
G01 X37.4620 Y14.9976
G01 X37.4670 Y15.0030
G01 X37.4724 Y15.0080
G01 X37.4783 Y15.0124
G01 X37.4846 Y15.0161
G01 X37.4913 Y15.0193
G01 X37.4982 Y15.0218
G01 X37.5054 Y15.0236
G01 X37.5126 Y15.0246
G01 X37.5200 Y15.0250
G01 X37.5274 Y15.0246
G01 X37.5346 Y15.0236
G01 X37.5418 Y15.0218
G01 X37.5487 Y15.0193
G01 X37.5554 Y15.0161
G01 X37.5617 Y15.0124
G01 X37.5676 Y15.0080
G01 X37.5730 Y15.0030
G01 X37.5780 Y14.9976
G01 X37.5824 Y14.9917
G01 X37.5861 Y14.9854
G01 X37.5893 Y14.9787
G01 X37.5918 Y14.9718
G01 X37.5936 Y14.9646
G01 X37.5946 Y14.9574
G01 X37.5950 Y14.9500
G00 Z2.0000
G00 X37.5950 Y17.4500
G01 F100.00
G01 Z-0.2000
G01 F300.00
G01 X37.5946 Y17.4426
G01 X37.5936 Y17.4354
G01 X37.5918 Y17.4282
G01 X37.5893 Y17.4213
G01 X37.5861 Y17.4146
G01 X37.5824 Y17.4083
G01 X37.5780 Y17.4024
G01 X37.5730 Y17.3970
G01 X37.5676 Y17.3920
G01 X37.5617 Y17.3876
G01 X37.5554 Y17.3839
G01 X37.5487 Y17.3807
G01 X37.5418 Y17.3782
G01 X37.5346 Y17.3764
G01 X37.5274 Y17.3754
G01 X37.5200 Y17.3750
G01 X37.5126 Y17.3754
G01 X37.5054 Y17.3764
G01 X37.4982 Y17.3782
G01 X37.4913 Y17.3807
G01 X37.4846 Y17.3839
G01 X37.4783 Y17.3876
G01 X37.4724 Y17.3920
G01 X37.4670 Y17.3970
G01 X37.4620 Y17.4024
G01 X37.4576 Y17.4083
G01 X37.4539 Y17.4146
G01 X37.4507 Y17.4213
G01 X37.4482 Y17.4282
G01 X37.4464 Y17.4354
G01 X37.4454 Y17.4426
G01 X37.4450 Y17.4500
G01 X37.4454 Y17.4574
G01 X37.4464 Y17.4646
G01 X37.4482 Y17.4718
G01 X37.4507 Y17.4787
G01 X37.4539 Y17.4854
G01 X37.4576 Y17.4917
G01 X37.4620 Y17.4976
G01 X37.4670 Y17.5030
G01 X37.4724 Y17.5080
G01 X37.4783 Y17.5124
G01 X37.4846 Y17.5161
G01 X37.4913 Y17.5193
G01 X37.4982 Y17.5218
G01 X37.5054 Y17.5236
G01 X37.5126 Y17.5246
G01 X37.5200 Y17.5250
G01 X37.5274 Y17.5246
G01 X37.5346 Y17.5236
G01 X37.5418 Y17.5218
G01 X37.5487 Y17.5193
G01 X37.5554 Y17.5161
G01 X37.5617 Y17.5124
G01 X37.5676 Y17.5080
G01 X37.5730 Y17.5030
G01 X37.5780 Y17.4976
G01 X37.5824 Y17.4917
G01 X37.5861 Y17.4854
G01 X37.5893 Y17.4787
G01 X37.5918 Y17.4718
G01 X37.5936 Y17.4646
G01 X37.5946 Y17.4574
G01 X37.5950 Y17.4500
G00 X37.5950 Y17.4500
G01 F100.00
G01 Z-0.4000
G01 F300.00
G01 X37.5946 Y17.4426
G01 X37.5936 Y17.4354
G01 X37.5918 Y17.4282
G01 X37.5893 Y17.4213
G01 X37.5861 Y17.4146
G01 X37.5824 Y17.4083
G01 X37.5780 Y17.4024
G01 X37.5730 Y17.3970
G01 X37.5676 Y17.3920
G01 X37.5617 Y17.3876
G01 X37.5554 Y17.3839
G01 X37.5487 Y17.3807
G01 X37.5418 Y17.3782
G01 X37.5346 Y17.3764
G01 X37.5274 Y17.3754
G01 X37.5200 Y17.3750
G01 X37.5126 Y17.3754
G01 X37.5054 Y17.3764
G01 X37.4982 Y17.3782
G01 X37.4913 Y17.3807
G01 X37.4846 Y17.3839
G01 X37.4783 Y17.3876
G01 X37.4724 Y17.3920
G01 X37.4670 Y17.3970
G01 X37.4620 Y17.4024
G01 X37.4576 Y17.4083
G01 X37.4539 Y17.4146
G01 X37.4507 Y17.4213
G01 X37.4482 Y17.4282
G01 X37.4464 Y17.4354
G01 X37.4454 Y17.4426
G01 X37.4450 Y17.4500
G01 X37.4454 Y17.4574
G01 X37.4464 Y17.4646
G01 X37.4482 Y17.4718
G01 X37.4507 Y17.4787
G01 X37.4539 Y17.4854
G01 X37.4576 Y17.4917
G01 X37.4620 Y17.4976
G01 X37.4670 Y17.5030
G01 X37.4724 Y17.5080
G01 X37.4783 Y17.5124
G01 X37.4846 Y17.5161
G01 X37.4913 Y17.5193
G01 X37.4982 Y17.5218
G01 X37.5054 Y17.5236
G01 X37.5126 Y17.5246
G01 X37.5200 Y17.5250
G01 X37.5274 Y17.5246
G01 X37.5346 Y17.5236
G01 X37.5418 Y17.5218
G01 X37.5487 Y17.5193
G01 X37.5554 Y17.5161
G01 X37.5617 Y17.5124
G01 X37.5676 Y17.5080
G01 X37.5730 Y17.5030
G01 X37.5780 Y17.4976
G01 X37.5824 Y17.4917
G01 X37.5861 Y17.4854
G01 X37.5893 Y17.4787
G01 X37.5918 Y17.4718
G01 X37.5936 Y17.4646
G01 X37.5946 Y17.4574
G01 X37.5950 Y17.4500
G00 X37.5950 Y17.4500
G01 F100.00
G01 Z-0.6000
G01 F300.00
G01 X37.5946 Y17.4426
G01 X37.5936 Y17.4354
G01 X37.5918 Y17.4282
G01 X37.5893 Y17.4213
G01 X37.5861 Y17.4146
G01 X37.5824 Y17.4083
G01 X37.5780 Y17.4024
G01 X37.5730 Y17.3970
G01 X37.5676 Y17.3920
G01 X37.5617 Y17.3876
G01 X37.5554 Y17.3839
G01 X37.5487 Y17.3807
G01 X37.5418 Y17.3782
G01 X37.5346 Y17.3764
G01 X37.5274 Y17.3754
G01 X37.5200 Y17.3750
G01 X37.5126 Y17.3754
G01 X37.5054 Y17.3764
G01 X37.4982 Y17.3782
G01 X37.4913 Y17.3807
G01 X37.4846 Y17.3839
G01 X37.4783 Y17.3876
G01 X37.4724 Y17.3920
G01 X37.4670 Y17.3970
G01 X37.4620 Y17.4024
G01 X37.4576 Y17.4083
G01 X37.4539 Y17.4146
G01 X37.4507 Y17.4213
G01 X37.4482 Y17.4282
G01 X37.4464 Y17.4354
G01 X37.4454 Y17.4426
G01 X37.4450 Y17.4500
G01 X37.4454 Y17.4574
G01 X37.4464 Y17.4646
G01 X37.4482 Y17.4718
G01 X37.4507 Y17.4787
G01 X37.4539 Y17.4854
G01 X37.4576 Y17.4917
G01 X37.4620 Y17.4976
G01 X37.4670 Y17.5030
G01 X37.4724 Y17.5080
G01 X37.4783 Y17.5124
G01 X37.4846 Y17.5161
G01 X37.4913 Y17.5193
G01 X37.4982 Y17.5218
G01 X37.5054 Y17.5236
G01 X37.5126 Y17.5246
G01 X37.5200 Y17.5250
G01 X37.5274 Y17.5246
G01 X37.5346 Y17.5236
G01 X37.5418 Y17.5218
G01 X37.5487 Y17.5193
G01 X37.5554 Y17.5161
G01 X37.5617 Y17.5124
G01 X37.5676 Y17.5080
G01 X37.5730 Y17.5030
G01 X37.5780 Y17.4976
G01 X37.5824 Y17.4917
G01 X37.5861 Y17.4854
G01 X37.5893 Y17.4787
G01 X37.5918 Y17.4718
G01 X37.5936 Y17.4646
G01 X37.5946 Y17.4574
G01 X37.5950 Y17.4500
G00 X37.5950 Y17.4500
G01 F100.00
G01 Z-0.8000
G01 F300.00
G01 X37.5946 Y17.4426
G01 X37.5936 Y17.4354
G01 X37.5918 Y17.4282
G01 X37.5893 Y17.4213
G01 X37.5861 Y17.4146
G01 X37.5824 Y17.4083
G01 X37.5780 Y17.4024
G01 X37.5730 Y17.3970
G01 X37.5676 Y17.3920
G01 X37.5617 Y17.3876
G01 X37.5554 Y17.3839
G01 X37.5487 Y17.3807
G01 X37.5418 Y17.3782
G01 X37.5346 Y17.3764
G01 X37.5274 Y17.3754
G01 X37.5200 Y17.3750
G01 X37.5126 Y17.3754
G01 X37.5054 Y17.3764
G01 X37.4982 Y17.3782
G01 X37.4913 Y17.3807
G01 X37.4846 Y17.3839
G01 X37.4783 Y17.3876
G01 X37.4724 Y17.3920
G01 X37.4670 Y17.3970
G01 X37.4620 Y17.4024
G01 X37.4576 Y17.4083
G01 X37.4539 Y17.4146
G01 X37.4507 Y17.4213
G01 X37.4482 Y17.4282
G01 X37.4464 Y17.4354
G01 X37.4454 Y17.4426
G01 X37.4450 Y17.4500
G01 X37.4454 Y17.4574
G01 X37.4464 Y17.4646
G01 X37.4482 Y17.4718
G01 X37.4507 Y17.4787
G01 X37.4539 Y17.4854
G01 X37.4576 Y17.4917
G01 X37.4620 Y17.4976
G01 X37.4670 Y17.5030
G01 X37.4724 Y17.5080
G01 X37.4783 Y17.5124
G01 X37.4846 Y17.5161
G01 X37.4913 Y17.5193
G01 X37.4982 Y17.5218
G01 X37.5054 Y17.5236
G01 X37.5126 Y17.5246
G01 X37.5200 Y17.5250
G01 X37.5274 Y17.5246
G01 X37.5346 Y17.5236
G01 X37.5418 Y17.5218
G01 X37.5487 Y17.5193
G01 X37.5554 Y17.5161
G01 X37.5617 Y17.5124
G01 X37.5676 Y17.5080
G01 X37.5730 Y17.5030
G01 X37.5780 Y17.4976
G01 X37.5824 Y17.4917
G01 X37.5861 Y17.4854
G01 X37.5893 Y17.4787
G01 X37.5918 Y17.4718
G01 X37.5936 Y17.4646
G01 X37.5946 Y17.4574
G01 X37.5950 Y17.4500
G00 X37.5950 Y17.4500
G01 F100.00
G01 Z-1.0000
G01 F300.00
G01 X37.5946 Y17.4426
G01 X37.5936 Y17.4354
G01 X37.5918 Y17.4282
G01 X37.5893 Y17.4213
G01 X37.5861 Y17.4146
G01 X37.5824 Y17.4083
G01 X37.5780 Y17.4024
G01 X37.5730 Y17.3970
G01 X37.5676 Y17.3920
G01 X37.5617 Y17.3876
G01 X37.5554 Y17.3839
G01 X37.5487 Y17.3807
G01 X37.5418 Y17.3782
G01 X37.5346 Y17.3764
G01 X37.5274 Y17.3754
G01 X37.5200 Y17.3750
G01 X37.5126 Y17.3754
G01 X37.5054 Y17.3764
G01 X37.4982 Y17.3782
G01 X37.4913 Y17.3807
G01 X37.4846 Y17.3839
G01 X37.4783 Y17.3876
G01 X37.4724 Y17.3920
G01 X37.4670 Y17.3970
G01 X37.4620 Y17.4024
G01 X37.4576 Y17.4083
G01 X37.4539 Y17.4146
G01 X37.4507 Y17.4213
G01 X37.4482 Y17.4282
G01 X37.4464 Y17.4354
G01 X37.4454 Y17.4426
G01 X37.4450 Y17.4500
G01 X37.4454 Y17.4574
G01 X37.4464 Y17.4646
G01 X37.4482 Y17.4718
G01 X37.4507 Y17.4787
G01 X37.4539 Y17.4854
G01 X37.4576 Y17.4917
G01 X37.4620 Y17.4976
G01 X37.4670 Y17.5030
G01 X37.4724 Y17.5080
G01 X37.4783 Y17.5124
G01 X37.4846 Y17.5161
G01 X37.4913 Y17.5193
G01 X37.4982 Y17.5218
G01 X37.5054 Y17.5236
G01 X37.5126 Y17.5246
G01 X37.5200 Y17.5250
G01 X37.5274 Y17.5246
G01 X37.5346 Y17.5236
G01 X37.5418 Y17.5218
G01 X37.5487 Y17.5193
G01 X37.5554 Y17.5161
G01 X37.5617 Y17.5124
G01 X37.5676 Y17.5080
G01 X37.5730 Y17.5030
G01 X37.5780 Y17.4976
G01 X37.5824 Y17.4917
G01 X37.5861 Y17.4854
G01 X37.5893 Y17.4787
G01 X37.5918 Y17.4718
G01 X37.5936 Y17.4646
G01 X37.5946 Y17.4574
G01 X37.5950 Y17.4500
G00 X37.5950 Y17.4500
G01 F100.00
G01 Z-1.2000
G01 F300.00
G01 X37.5946 Y17.4426
G01 X37.5936 Y17.4354
G01 X37.5918 Y17.4282
G01 X37.5893 Y17.4213
G01 X37.5861 Y17.4146
G01 X37.5824 Y17.4083
G01 X37.5780 Y17.4024
G01 X37.5730 Y17.3970
G01 X37.5676 Y17.3920
G01 X37.5617 Y17.3876
G01 X37.5554 Y17.3839
G01 X37.5487 Y17.3807
G01 X37.5418 Y17.3782
G01 X37.5346 Y17.3764
G01 X37.5274 Y17.3754
G01 X37.5200 Y17.3750
G01 X37.5126 Y17.3754
G01 X37.5054 Y17.3764
G01 X37.4982 Y17.3782
G01 X37.4913 Y17.3807
G01 X37.4846 Y17.3839
G01 X37.4783 Y17.3876
G01 X37.4724 Y17.3920
G01 X37.4670 Y17.3970
G01 X37.4620 Y17.4024
G01 X37.4576 Y17.4083
G01 X37.4539 Y17.4146
G01 X37.4507 Y17.4213
G01 X37.4482 Y17.4282
G01 X37.4464 Y17.4354
G01 X37.4454 Y17.4426
G01 X37.4450 Y17.4500
G01 X37.4454 Y17.4574
G01 X37.4464 Y17.4646
G01 X37.4482 Y17.4718
G01 X37.4507 Y17.4787
G01 X37.4539 Y17.4854
G01 X37.4576 Y17.4917
G01 X37.4620 Y17.4976
G01 X37.4670 Y17.5030
G01 X37.4724 Y17.5080
G01 X37.4783 Y17.5124
G01 X37.4846 Y17.5161
G01 X37.4913 Y17.5193
G01 X37.4982 Y17.5218
G01 X37.5054 Y17.5236
G01 X37.5126 Y17.5246
G01 X37.5200 Y17.5250
G01 X37.5274 Y17.5246
G01 X37.5346 Y17.5236
G01 X37.5418 Y17.5218
G01 X37.5487 Y17.5193
G01 X37.5554 Y17.5161
G01 X37.5617 Y17.5124
G01 X37.5676 Y17.5080
G01 X37.5730 Y17.5030
G01 X37.5780 Y17.4976
G01 X37.5824 Y17.4917
G01 X37.5861 Y17.4854
G01 X37.5893 Y17.4787
G01 X37.5918 Y17.4718
G01 X37.5936 Y17.4646
G01 X37.5946 Y17.4574
G01 X37.5950 Y17.4500
G00 X37.5950 Y17.4500
G01 F100.00
G01 Z-1.4000
G01 F300.00
G01 X37.5946 Y17.4426
G01 X37.5936 Y17.4354
G01 X37.5918 Y17.4282
G01 X37.5893 Y17.4213
G01 X37.5861 Y17.4146
G01 X37.5824 Y17.4083
G01 X37.5780 Y17.4024
G01 X37.5730 Y17.3970
G01 X37.5676 Y17.3920
G01 X37.5617 Y17.3876
G01 X37.5554 Y17.3839
G01 X37.5487 Y17.3807
G01 X37.5418 Y17.3782
G01 X37.5346 Y17.3764
G01 X37.5274 Y17.3754
G01 X37.5200 Y17.3750
G01 X37.5126 Y17.3754
G01 X37.5054 Y17.3764
G01 X37.4982 Y17.3782
G01 X37.4913 Y17.3807
G01 X37.4846 Y17.3839
G01 X37.4783 Y17.3876
G01 X37.4724 Y17.3920
G01 X37.4670 Y17.3970
G01 X37.4620 Y17.4024
G01 X37.4576 Y17.4083
G01 X37.4539 Y17.4146
G01 X37.4507 Y17.4213
G01 X37.4482 Y17.4282
G01 X37.4464 Y17.4354
G01 X37.4454 Y17.4426
G01 X37.4450 Y17.4500
G01 X37.4454 Y17.4574
G01 X37.4464 Y17.4646
G01 X37.4482 Y17.4718
G01 X37.4507 Y17.4787
G01 X37.4539 Y17.4854
G01 X37.4576 Y17.4917
G01 X37.4620 Y17.4976
G01 X37.4670 Y17.5030
G01 X37.4724 Y17.5080
G01 X37.4783 Y17.5124
G01 X37.4846 Y17.5161
G01 X37.4913 Y17.5193
G01 X37.4982 Y17.5218
G01 X37.5054 Y17.5236
G01 X37.5126 Y17.5246
G01 X37.5200 Y17.5250
G01 X37.5274 Y17.5246
G01 X37.5346 Y17.5236
G01 X37.5418 Y17.5218
G01 X37.5487 Y17.5193
G01 X37.5554 Y17.5161
G01 X37.5617 Y17.5124
G01 X37.5676 Y17.5080
G01 X37.5730 Y17.5030
G01 X37.5780 Y17.4976
G01 X37.5824 Y17.4917
G01 X37.5861 Y17.4854
G01 X37.5893 Y17.4787
G01 X37.5918 Y17.4718
G01 X37.5936 Y17.4646
G01 X37.5946 Y17.4574
G01 X37.5950 Y17.4500
G00 X37.5950 Y17.4500
G01 F100.00
G01 Z-1.6000
G01 F300.00
G01 X37.5946 Y17.4426
G01 X37.5936 Y17.4354
G01 X37.5918 Y17.4282
G01 X37.5893 Y17.4213
G01 X37.5861 Y17.4146
G01 X37.5824 Y17.4083
G01 X37.5780 Y17.4024
G01 X37.5730 Y17.3970
G01 X37.5676 Y17.3920
G01 X37.5617 Y17.3876
G01 X37.5554 Y17.3839
G01 X37.5487 Y17.3807
G01 X37.5418 Y17.3782
G01 X37.5346 Y17.3764
G01 X37.5274 Y17.3754
G01 X37.5200 Y17.3750
G01 X37.5126 Y17.3754
G01 X37.5054 Y17.3764
G01 X37.4982 Y17.3782
G01 X37.4913 Y17.3807
G01 X37.4846 Y17.3839
G01 X37.4783 Y17.3876
G01 X37.4724 Y17.3920
G01 X37.4670 Y17.3970
G01 X37.4620 Y17.4024
G01 X37.4576 Y17.4083
G01 X37.4539 Y17.4146
G01 X37.4507 Y17.4213
G01 X37.4482 Y17.4282
G01 X37.4464 Y17.4354
G01 X37.4454 Y17.4426
G01 X37.4450 Y17.4500
G01 X37.4454 Y17.4574
G01 X37.4464 Y17.4646
G01 X37.4482 Y17.4718
G01 X37.4507 Y17.4787
G01 X37.4539 Y17.4854
G01 X37.4576 Y17.4917
G01 X37.4620 Y17.4976
G01 X37.4670 Y17.5030
G01 X37.4724 Y17.5080
G01 X37.4783 Y17.5124
G01 X37.4846 Y17.5161
G01 X37.4913 Y17.5193
G01 X37.4982 Y17.5218
G01 X37.5054 Y17.5236
G01 X37.5126 Y17.5246
G01 X37.5200 Y17.5250
G01 X37.5274 Y17.5246
G01 X37.5346 Y17.5236
G01 X37.5418 Y17.5218
G01 X37.5487 Y17.5193
G01 X37.5554 Y17.5161
G01 X37.5617 Y17.5124
G01 X37.5676 Y17.5080
G01 X37.5730 Y17.5030
G01 X37.5780 Y17.4976
G01 X37.5824 Y17.4917
G01 X37.5861 Y17.4854
G01 X37.5893 Y17.4787
G01 X37.5918 Y17.4718
G01 X37.5936 Y17.4646
G01 X37.5946 Y17.4574
G01 X37.5950 Y17.4500
G00 X37.5950 Y17.4500
G01 F100.00
G01 Z-1.8000
G01 F300.00
G01 X37.5946 Y17.4426
G01 X37.5936 Y17.4354
G01 X37.5918 Y17.4282
G01 X37.5893 Y17.4213
G01 X37.5861 Y17.4146
G01 X37.5824 Y17.4083
G01 X37.5780 Y17.4024
G01 X37.5730 Y17.3970
G01 X37.5676 Y17.3920
G01 X37.5617 Y17.3876
G01 X37.5554 Y17.3839
G01 X37.5487 Y17.3807
G01 X37.5418 Y17.3782
G01 X37.5346 Y17.3764
G01 X37.5274 Y17.3754
G01 X37.5200 Y17.3750
G01 X37.5126 Y17.3754
G01 X37.5054 Y17.3764
G01 X37.4982 Y17.3782
G01 X37.4913 Y17.3807
G01 X37.4846 Y17.3839
G01 X37.4783 Y17.3876
G01 X37.4724 Y17.3920
G01 X37.4670 Y17.3970
G01 X37.4620 Y17.4024
G01 X37.4576 Y17.4083
G01 X37.4539 Y17.4146
G01 X37.4507 Y17.4213
G01 X37.4482 Y17.4282
G01 X37.4464 Y17.4354
G01 X37.4454 Y17.4426
G01 X37.4450 Y17.4500
G01 X37.4454 Y17.4574
G01 X37.4464 Y17.4646
G01 X37.4482 Y17.4718
G01 X37.4507 Y17.4787
G01 X37.4539 Y17.4854
G01 X37.4576 Y17.4917
G01 X37.4620 Y17.4976
G01 X37.4670 Y17.5030
G01 X37.4724 Y17.5080
G01 X37.4783 Y17.5124
G01 X37.4846 Y17.5161
G01 X37.4913 Y17.5193
G01 X37.4982 Y17.5218
G01 X37.5054 Y17.5236
G01 X37.5126 Y17.5246
G01 X37.5200 Y17.5250
G01 X37.5274 Y17.5246
G01 X37.5346 Y17.5236
G01 X37.5418 Y17.5218
G01 X37.5487 Y17.5193
G01 X37.5554 Y17.5161
G01 X37.5617 Y17.5124
G01 X37.5676 Y17.5080
G01 X37.5730 Y17.5030
G01 X37.5780 Y17.4976
G01 X37.5824 Y17.4917
G01 X37.5861 Y17.4854
G01 X37.5893 Y17.4787
G01 X37.5918 Y17.4718
G01 X37.5936 Y17.4646
G01 X37.5946 Y17.4574
G01 X37.5950 Y17.4500
G00 X37.5950 Y17.4500
G01 F100.00
G01 Z-2.0000
G01 F300.00
G01 X37.5946 Y17.4426
G01 X37.5936 Y17.4354
G01 X37.5918 Y17.4282
G01 X37.5893 Y17.4213
G01 X37.5861 Y17.4146
G01 X37.5824 Y17.4083
G01 X37.5780 Y17.4024
G01 X37.5730 Y17.3970
G01 X37.5676 Y17.3920
G01 X37.5617 Y17.3876
G01 X37.5554 Y17.3839
G01 X37.5487 Y17.3807
G01 X37.5418 Y17.3782
G01 X37.5346 Y17.3764
G01 X37.5274 Y17.3754
G01 X37.5200 Y17.3750
G01 X37.5126 Y17.3754
G01 X37.5054 Y17.3764
G01 X37.4982 Y17.3782
G01 X37.4913 Y17.3807
G01 X37.4846 Y17.3839
G01 X37.4783 Y17.3876
G01 X37.4724 Y17.3920
G01 X37.4670 Y17.3970
G01 X37.4620 Y17.4024
G01 X37.4576 Y17.4083
G01 X37.4539 Y17.4146
G01 X37.4507 Y17.4213
G01 X37.4482 Y17.4282
G01 X37.4464 Y17.4354
G01 X37.4454 Y17.4426
G01 X37.4450 Y17.4500
G01 X37.4454 Y17.4574
G01 X37.4464 Y17.4646
G01 X37.4482 Y17.4718
G01 X37.4507 Y17.4787
G01 X37.4539 Y17.4854
G01 X37.4576 Y17.4917
G01 X37.4620 Y17.4976
G01 X37.4670 Y17.5030
G01 X37.4724 Y17.5080
G01 X37.4783 Y17.5124
G01 X37.4846 Y17.5161
G01 X37.4913 Y17.5193
G01 X37.4982 Y17.5218
G01 X37.5054 Y17.5236
G01 X37.5126 Y17.5246
G01 X37.5200 Y17.5250
G01 X37.5274 Y17.5246
G01 X37.5346 Y17.5236
G01 X37.5418 Y17.5218
G01 X37.5487 Y17.5193
G01 X37.5554 Y17.5161
G01 X37.5617 Y17.5124
G01 X37.5676 Y17.5080
G01 X37.5730 Y17.5030
G01 X37.5780 Y17.4976
G01 X37.5824 Y17.4917
G01 X37.5861 Y17.4854
G01 X37.5893 Y17.4787
G01 X37.5918 Y17.4718
G01 X37.5936 Y17.4646
G01 X37.5946 Y17.4574
G01 X37.5950 Y17.4500
G00 X37.5950 Y17.4500
G01 F100.00
G01 Z-2.2000
G01 F300.00
G01 X37.5946 Y17.4426
G01 X37.5936 Y17.4354
G01 X37.5918 Y17.4282
G01 X37.5893 Y17.4213
G01 X37.5861 Y17.4146
G01 X37.5824 Y17.4083
G01 X37.5780 Y17.4024
G01 X37.5730 Y17.3970
G01 X37.5676 Y17.3920
G01 X37.5617 Y17.3876
G01 X37.5554 Y17.3839
G01 X37.5487 Y17.3807
G01 X37.5418 Y17.3782
G01 X37.5346 Y17.3764
G01 X37.5274 Y17.3754
G01 X37.5200 Y17.3750
G01 X37.5126 Y17.3754
G01 X37.5054 Y17.3764
G01 X37.4982 Y17.3782
G01 X37.4913 Y17.3807
