(G-CODE GENERATED BY FLATCAM v8.994 - www.flatcam.org - Version Date: 2020/11/7)

(Name: AutoKey-F_Cu.gbr_ncc_cnc)
(Type: G-code from Geometry)
(Units: MM)

(Created on Thursday, 30 November 2023 at 10:02)

(This preprocessor is the default preprocessor used by FlatCAM.)
(It is made to work with MACH3 compatible motion controllers.)

(TOOL DIAMETER: 0.2 mm)
(Feedrate_XY: 300.0 mm/min)
(Feedrate_Z: 100.0 mm/min)
(Feedrate rapids 1500.0 mm/min)

(Z_Cut: -0.15 mm)
(Z_Move: 2.0 mm)
(Z Start: None mm)
(Z End: 15.0 mm)
(X,Y End: None mm)
(Steps per circle: 64)
(Preprocessor Geometry: default)

(X range:   -0.5995 ...   44.5995  mm)
(Y range:   -0.5995 ...   42.5995  mm)

(Spindle Speed: 10000.0 RPM)
G21
G90
G94

G01 F300.00

M5
G00 Z15.0000
G00 X0.0000 Y0.0000
T1
M6    
(MSG, Change to Tool Dia = 0.2000)
M0
G00 Z15.0000

M03 S10000.0
G01 F300.00
G00 X0.3815 Y-0.0057
G01 F100.00
G01 Z-0.1500
G01 F300.00
G01 X0.7338 Y0.0073
G01 X1.1997 Y0.0359
G01 X1.6648 Y0.0760
G01 X2.1288 Y0.1274
G01 X2.5913 Y0.1902
G01 X2.6552 Y0.2005
G00 Z2.0000
G00 X0.5519 Y-0.1195
G01 F100.00
G01 Z-0.1500
G01 F300.00
G01 X0.7397 Y-0.1126
G01 X1.2085 Y-0.0838
G01 X1.6765 Y-0.0435
G01 X2.1434 Y0.0083
G01 X2.6089 Y0.0715
G01 X3.0727 Y0.1462
G01 X3.3646 Y0.2005
G00 Z2.0000
G00 X4.2371 Y-0.5995
G01 F100.00
G01 Z-0.1500
G01 F300.00
G01 X4.6844 Y-0.4933
G01 X5.1614 Y-0.3675
G01 X5.6352 Y-0.2301
G01 X6.1055 Y-0.0812
G01 X6.5720 Y0.0793
G01 X6.8980 Y0.2005
G01 X6.5536 Y0.2005
G01 X6.5316 Y0.1923
G01 X6.0679 Y0.0328
G01 X5.6004 Y-0.1153
G01 X5.1294 Y-0.2519
G01 X4.6552 Y-0.3769
G01 X4.1781 Y-0.4902
G01 X3.6984 Y-0.5917
G01 X3.6566 Y-0.5995
G01 X2.9705 Y-0.5995
G01 X3.1958 Y-0.5632
G01 X3.6750 Y-0.4740
G01 X4.1519 Y-0.3731
G01 X4.6261 Y-0.2605
G01 X5.0974 Y-0.1362
G01 X5.5656 Y-0.0005
G01 X6.0302 Y0.1467
G01 X6.1865 Y0.2005
G01 X5.8026 Y0.2005
G01 X5.5307 Y0.1144
G01 X5.0654 Y-0.0206
G01 X4.5969 Y-0.1441
G01 X4.1256 Y-0.2560
G01 X3.6516 Y-0.3563
G01 X3.1753 Y-0.4450
G01 X2.6970 Y-0.5220
G01 X2.2169 Y-0.5872
G01 X2.1058 Y-0.5995
G00 Z2.0000
G00 X1.9680 Y-0.5995
G01 F100.00
G01 Z-0.1500
G01 F300.00
G01 X1.8558 Y-0.5884
G01 X1.1113 Y-0.4404
G01 X0.9028 Y-0.3540
G01 X0.2451 Y0.0855
G01 X0.0855 Y0.2451
G01 X-0.3540 Y0.9028
G01 X-0.4404 Y1.1113
G01 X-0.5884 Y1.8558
G01 X-0.5995 Y1.9680
G01 X-0.5995 Y40.0320
G01 X-0.5884 Y40.1442
G01 X-0.4404 Y40.8887
G01 X-0.3540 Y41.0972
G01 X0.0855 Y41.7549
G01 X0.2451 Y41.9145
G01 X0.9028 Y42.3540
G01 X1.1113 Y42.4404
G01 X1.8558 Y42.5884
G01 X1.9680 Y42.5995
G01 X38.0217 Y42.5995
G01 X38.0791 Y42.5963
G01 X39.4054 Y42.4469
G01 X39.5310 Y42.4182
G01 X40.8047 Y41.9725
G01 X40.9208 Y41.9166
G01 X42.0634 Y41.1986
G01 X42.1641 Y41.1183
G01 X43.1183 Y40.1641
G01 X43.1986 Y40.0634
G01 X43.9166 Y38.9208
G01 X43.9725 Y38.8047
G01 X44.4182 Y37.5310
G01 X44.4468 Y37.4054
G01 X44.5963 Y36.0791
G01 X44.5995 Y36.0218
G01 X44.5995 Y1.9680
G01 X44.5884 Y1.8558
G01 X44.4404 Y1.1113
G01 X44.3540 Y0.9028
G01 X43.9145 Y0.2451
G01 X43.7549 Y0.0855
G01 X43.0972 Y-0.3540
G01 X42.8887 Y-0.4404
G01 X42.1442 Y-0.5884
G01 X42.0320 Y-0.5995
G01 X1.9680 Y-0.5995
G01 X1.5798 Y-0.5335
G01 X1.7236 Y-0.5212
G01 X2.2022 Y-0.4681
G01 X2.6794 Y-0.4033
G01 X3.1548 Y-0.3268
G01 X3.6282 Y-0.2386
G01 X4.0993 Y-0.1389
G01 X4.5678 Y-0.0276
G01 X5.0334 Y0.0951
G01 X5.3969 Y0.2005
G00 Z2.0000
G00 X4.9626 Y0.2005
G01 F100.00
G01 Z-0.1500
G01 F300.00
G01 X4.5386 Y0.0888
G01 X4.0730 Y-0.0218
G01 X3.6048 Y-0.1209
G01 X3.1343 Y-0.2085
G01 X2.6617 Y-0.2846
G01 X2.1875 Y-0.3490
G01 X1.7118 Y-0.4017
G01 X1.2350 Y-0.4428
G01 X1.1499 Y-0.4480
G01 X0.8877 Y-0.3439
G01 X1.2262 Y-0.3231
G01 X1.7001 Y-0.2823
G01 X2.1728 Y-0.2299
G01 X2.6441 Y-0.1659
G01 X3.1137 Y-0.0903
G01 X3.5814 Y-0.0033
G01 X4.0467 Y0.0953
G01 X4.4898 Y0.2005
G01 X3.9645 Y0.2005
G01 X3.5579 Y0.1144
G01 X3.0932 Y0.0279
G01 X2.6265 Y-0.0472
G01 X2.1581 Y-0.1108
G01 X1.6883 Y-0.1629
G01 X1.2174 Y-0.2034
G01 X0.7455 Y-0.2324
G01 X0.7222 Y-0.2333
G00 Z2.0000
G00 X1.2164 Y0.3986
G01 F100.00
G01 Z-0.1500
G01 F300.00
G01 X1.1732 Y0.3949
G01 X0.7161 Y0.3668
G01 X0.2584 Y0.3500
G01 X0.0174 Y0.3470
G01 X-0.0622 Y0.4660
G01 X0.2555 Y0.4699
G01 X0.7102 Y0.4867
G01 X1.0531 Y0.5078
G00 Z2.0000
G00 X0.8883 Y0.6179
G01 F100.00
G01 Z-0.1500
G01 F300.00
G01 X0.7043 Y0.6066
G01 X0.2525 Y0.5899
G01 X-0.1417 Y0.5851
G01 X-0.2216 Y0.7046
G01 X-0.1995 Y0.7044
G01 X0.2496 Y0.7099
G01 X0.6984 Y0.7264
G01 X0.7334 Y0.7286
G00 Z2.0000
G00 X0.6471 Y0.8446
G01 F100.00
G01 Z-0.1500
G01 F300.00
G01 X0.2467 Y0.8298
G01 X-0.1995 Y0.8244
G01 X-0.3024 Y0.8256
G01 X-0.3721 Y0.9465
G01 X-0.1995 Y0.9444
G01 X0.2437 Y0.9498
G01 X0.5688 Y0.9618
G00 Z2.0000
G00 X0.4905 Y1.0790
G01 F100.00
G01 Z-0.1500
G01 F300.00
G01 X0.2408 Y1.0698
G01 X-0.1995 Y1.0644
G01 X-0.4220 Y1.0671
G01 X-0.4555 Y1.1875
G01 X-0.1995 Y1.1844
G01 X0.2378 Y1.1897
G01 X0.4121 Y1.1962
G00 Z2.0000
G00 X0.3417 Y1.3136
G01 F100.00
G01 Z-0.1500
G01 F300.00
G01 X0.2349 Y1.3097
G01 X-0.1995 Y1.3044
G01 X-0.4794 Y1.3078
G00 Z2.0000
G00 X-0.5034 Y1.4281
G01 F100.00
G01 Z-0.1500
G01 F300.00
G01 X-0.1995 Y1.4244
G01 X0.2319 Y1.4297
G01 X0.3114 Y1.4326
G00 Z2.0000
G00 X0.2877 Y1.5518
G01 F100.00
G01 Z-0.1500
G01 F300.00
G01 X0.2290 Y1.5496
G01 X-0.1995 Y1.5444
G01 X-0.5273 Y1.5484
G00 Z2.0000
G00 X-0.5512 Y1.6687
G01 F100.00
G01 Z-0.1500
G01 F300.00
G01 X-0.1995 Y1.6644
G01 X0.2260 Y1.6696
G01 X0.2640 Y1.6710
G01 X0.2403 Y1.7902
G01 X0.2231 Y1.7896
G01 X-0.1995 Y1.7844
G01 X-0.5752 Y1.7890
G01 X-0.5937 Y1.9092
G01 X-0.1995 Y1.9044
G01 X0.2165 Y1.9095
G00 Z2.0000
G00 X0.2005 Y2.0293
G01 F100.00
G01 Z-0.1500
G01 F300.00
G01 X-0.1995 Y2.0244
G01 X-0.5995 Y2.0293
G00 Z2.0000
G00 X-0.5995 Y2.1493
G01 F100.00
G01 Z-0.1500
G01 F300.00
G01 X-0.1995 Y2.1444
G01 X0.2005 Y2.1493
G00 Z2.0000
G00 X0.2005 Y2.2693
G01 F100.00
G01 Z-0.1500
G01 F300.00
G01 X-0.1995 Y2.2644
G01 X-0.5995 Y2.2693
G01 X-0.5995 Y2.3893
G01 X-0.1995 Y2.3844
G01 X0.2005 Y2.3893
G00 Z2.0000
G00 X0.2005 Y2.5093
G01 F100.00
G01 Z-0.1500
G01 F300.00
G01 X-0.1995 Y2.5044
G01 X-0.5995 Y2.5093
G01 X-0.5995 Y2.6293
G01 X-0.1995 Y2.6244
G01 X0.2005 Y2.6293
G00 Z2.0000
G00 X0.2005 Y2.7493
G01 F100.00
G01 Z-0.1500
G01 F300.00
G01 X-0.1995 Y2.7444
G01 X-0.5995 Y2.7493
G00 Z2.0000
G00 X-0.5995 Y2.8694
G01 F100.00
G01 Z-0.1500
G01 F300.00
G01 X-0.1995 Y2.8644
G01 X0.2005 Y2.8694
G01 X0.2005 Y2.9894
G01 X-0.1995 Y2.9844
G01 X-0.5995 Y2.9894
G00 Z2.0000
G00 X-0.5995 Y3.1095
G01 F100.00
G01 Z-0.1500
G01 F300.00
G01 X-0.1995 Y3.1044
G01 X0.2005 Y3.1095
G01 X0.2005 Y3.2296
G01 X0.1878 Y3.2291
G01 X-0.1995 Y3.2244
G01 X-0.5868 Y3.2291
G01 X-0.5995 Y3.2296
G00 Z2.0000
G00 X-0.5995 Y3.3497
G01 F100.00
G01 Z-0.1500
G01 F300.00
G01 X-0.5838 Y3.3491
G01 X-0.1995 Y3.3444
G01 X0.1848 Y3.3491
G01 X0.2005 Y3.3497
G01 X0.2005 Y3.4697
G01 X0.1819 Y3.4690
G01 X-0.1995 Y3.4644
G01 X-0.5809 Y3.4690
G01 X-0.5995 Y3.4697
G00 Z2.0000
G00 X-0.5995 Y3.5898
G01 F100.00
G01 Z-0.1500
G01 F300.00
G01 X-0.5779 Y3.5890
G01 X-0.1995 Y3.5844
G01 X0.1789 Y3.5890
G01 X0.2005 Y3.5898
G01 X0.2005 Y3.7099
G01 X0.1760 Y3.7090
G01 X-0.1995 Y3.7044
G01 X-0.5750 Y3.7090
G01 X-0.5995 Y3.7099
G00 Z2.0000
G00 X-0.5995 Y3.8299
G01 F100.00
G01 Z-0.1500
G01 F300.00
G01 X-0.5720 Y3.8289
G01 X-0.1995 Y3.8244
G01 X0.1730 Y3.8289
G01 X0.2005 Y3.8299
G00 Z2.0000
G00 X0.2005 Y3.9500
G01 F100.00
G01 Z-0.1500
G01 F300.00
G01 X0.1701 Y3.9489
G01 X-0.1995 Y3.9444
G01 X-0.5691 Y3.9489
G01 X-0.5995 Y3.9500
G00 Z2.0000
G00 X-0.5995 Y4.0701
G01 F100.00
G01 Z-0.1500
G01 F300.00
G01 X-0.5661 Y4.0689
G01 X-0.1995 Y4.0644
G01 X0.1671 Y4.0689
G01 X0.2005 Y4.0701
G00 Z2.0000
G00 X0.2005 Y4.1902
G01 F100.00
G01 Z-0.1500
G01 F300.00
G01 X0.1642 Y4.1888
G01 X-0.1995 Y4.1844
G01 X-0.5632 Y4.1888
G01 X-0.5995 Y4.1902
G00 Z2.0000
G00 X-0.5995 Y4.3102
G01 F100.00
G01 Z-0.1500
G01 F300.00
G01 X-0.5603 Y4.3088
G01 X-0.1995 Y4.3044
G01 X0.1613 Y4.3088
G01 X0.2005 Y4.3102
G00 Z2.0000
G00 X0.2005 Y4.4303
G01 F100.00
G01 Z-0.1500
G01 F300.00
G01 X0.1583 Y4.4288
G01 X-0.1995 Y4.4244
G01 X-0.5573 Y4.4288
G01 X-0.5995 Y4.4303
G00 Z2.0000
G00 X-0.5995 Y4.5504
G01 F100.00
G01 Z-0.1500
G01 F300.00
G01 X-0.5544 Y4.5487
G01 X-0.1995 Y4.5444
G01 X0.1554 Y4.5487
G01 X0.2005 Y4.5504
G00 Z2.0000
G00 X0.2005 Y4.6705
G01 F100.00
G01 Z-0.1500
G01 F300.00
G01 X0.1524 Y4.6687
G01 X-0.1995 Y4.6644
G01 X-0.5514 Y4.6687
G01 X-0.5995 Y4.6705
G00 Z2.0000
G00 X-0.5995 Y4.7905
G01 F100.00
G01 Z-0.1500
G01 F300.00
G01 X-0.5485 Y4.7886
G01 X-0.1995 Y4.7844
G01 X0.1495 Y4.7886
G01 X0.2005 Y4.7905
G00 Z2.0000
G00 X0.2005 Y4.9106
G01 F100.00
G01 Z-0.1500
G01 F300.00
G01 X0.1465 Y4.9086
G01 X-0.1995 Y4.9044
G01 X-0.5455 Y4.9086
G01 X-0.5995 Y4.9106
G00 Z2.0000
G00 X-0.5995 Y5.0307
G01 F100.00
G01 Z-0.1500
G01 F300.00
G01 X-0.5426 Y5.0286
G01 X-0.1995 Y5.0244
G01 X0.1436 Y5.0286
G01 X0.2005 Y5.0307
G00 Z2.0000
G00 X0.2005 Y5.1507
G01 F100.00
G01 Z-0.1500
G01 F300.00
G01 X0.1406 Y5.1485
G01 X-0.1995 Y5.1444
G01 X-0.5396 Y5.1485
G01 X-0.5995 Y5.1507
G00 Z2.0000
G00 X-0.5995 Y5.2708
G01 F100.00
G01 Z-0.1500
G01 F300.00
G01 X-0.5367 Y5.2685
G01 X-0.1995 Y5.2644
G01 X0.1377 Y5.2685
G01 X0.2005 Y5.2708
G00 Z2.0000
G00 X0.2005 Y5.3909
G01 F100.00
G01 Z-0.1500
G01 F300.00
G01 X0.1348 Y5.3885
G01 X-0.1995 Y5.3844
G01 X-0.5338 Y5.3885
G01 X-0.5995 Y5.3909
G00 Z2.0000
G00 X-0.5995 Y5.5110
G01 F100.00
G01 Z-0.1500
G01 F300.00
G01 X-0.5308 Y5.5084
G01 X-0.1995 Y5.5044
G01 X0.1318 Y5.5084
G01 X0.2005 Y5.5110
G00 Z2.0000
G00 X0.2005 Y5.6310
G01 F100.00
G01 Z-0.1500
G01 F300.00
G01 X0.1289 Y5.6284
G01 X-0.1995 Y5.6244
G01 X-0.5279 Y5.6284
G01 X-0.5995 Y5.6310
G00 Z2.0000
G00 X-0.5995 Y5.7511
G01 F100.00
G01 Z-0.1500
G01 F300.00
G01 X-0.5249 Y5.7484
G01 X-0.1995 Y5.7444
G01 X0.1259 Y5.7484
G01 X0.2005 Y5.7511
G00 Z2.0000
G00 X0.2005 Y5.8712
G01 F100.00
G01 Z-0.1500
G01 F300.00
G01 X0.1230 Y5.8683
G01 X-0.1995 Y5.8644
G01 X-0.5220 Y5.8683
G01 X-0.5995 Y5.8712
G00 Z2.0000
G00 X-0.5995 Y5.9912
G01 F100.00
G01 Z-0.1500
G01 F300.00
G01 X-0.5190 Y5.9883
G01 X-0.1995 Y5.9844
G01 X0.1200 Y5.9883
G01 X0.2005 Y5.9912
G00 Z2.0000
G00 X0.2005 Y6.1113
G01 F100.00
G01 Z-0.1500
G01 F300.00
G01 X0.1171 Y6.1082
G01 X-0.1995 Y6.1044
G01 X-0.5161 Y6.1082
G01 X-0.5995 Y6.1113
G00 Z2.0000
G00 X-0.5995 Y6.2314
G01 F100.00
G01 Z-0.1500
G01 F300.00
G01 X-0.5131 Y6.2282
G01 X-0.1995 Y6.2244
G01 X0.1141 Y6.2282
G01 X0.2005 Y6.2314
G00 Z2.0000
G00 X0.2005 Y6.3515
G01 F100.00
G01 Z-0.1500
G01 F300.00
G01 X0.1112 Y6.3482
G01 X-0.1995 Y6.3444
G01 X-0.5102 Y6.3482
G01 X-0.5995 Y6.3515
G00 Z2.0000
G00 X-0.5995 Y6.4715
G01 F100.00
G01 Z-0.1500
G01 F300.00
G01 X-0.5072 Y6.4681
G01 X-0.1995 Y6.4644
G01 X0.1082 Y6.4681
G01 X0.2005 Y6.4715
G00 Z2.0000
G00 X0.2005 Y6.5916
G01 F100.00
G01 Z-0.1500
G01 F300.00
G01 X0.1053 Y6.5881
G01 X-0.1995 Y6.5844
G01 X-0.5043 Y6.5881
G01 X-0.5995 Y6.5916
G00 Z2.0000
G00 X-0.5995 Y6.7117
G01 F100.00
G01 Z-0.1500
G01 F300.00
G01 X-0.5014 Y6.7081
G01 X-0.1995 Y6.7044
G01 X0.1024 Y6.7081
G01 X0.2005 Y6.7117
G00 Z2.0000
G00 X0.2005 Y6.8318
G01 F100.00
G01 Z-0.1500
G01 F300.00
G01 X0.0994 Y6.8280
G01 X-0.1995 Y6.8244
G01 X-0.4984 Y6.8280
G01 X-0.5995 Y6.8318
G00 Z2.0000
G00 X-0.5995 Y6.9518
G01 F100.00
G01 Z-0.1500
G01 F300.00
G01 X-0.4955 Y6.9480
G01 X-0.1995 Y6.9444
G01 X0.0965 Y6.9480
G01 X0.2005 Y6.9518
G00 Z2.0000
G00 X0.2005 Y7.0719
G01 F100.00
G01 Z-0.1500
G01 F300.00
G01 X0.0935 Y7.0680
G01 X-0.1995 Y7.0644
G01 X-0.4925 Y7.0680
G01 X-0.5995 Y7.0719
G00 Z2.0000
G00 X-0.5995 Y7.1920
G01 F100.00
G01 Z-0.1500
G01 F300.00
G01 X-0.4896 Y7.1879
G01 X-0.1995 Y7.1844
G01 X0.0906 Y7.1879
G01 X0.2005 Y7.1920
G00 Z2.0000
G00 X0.2005 Y7.3120
G01 F100.00
G01 Z-0.1500
G01 F300.00
G01 X0.0876 Y7.3079
G01 X-0.1995 Y7.3044
G01 X-0.4866 Y7.3079
G01 X-0.5995 Y7.3120
G01 X-0.5995 Y7.4321
G01 X-0.4837 Y7.4279
G01 X-0.1995 Y7.4244
G01 X0.0847 Y7.4279
G01 X0.2005 Y7.4321
G00 Z2.0000
G00 X0.2005 Y7.5522
G01 F100.00
G01 Z-0.1500
G01 F300.00
G01 X0.0817 Y7.5478
G01 X-0.1995 Y7.5444
G01 X-0.4807 Y7.5478
G01 X-0.5995 Y7.5522
G01 X-0.5995 Y7.6723
G01 X-0.4778 Y7.6678
G01 X-0.1995 Y7.6644
G01 X0.0788 Y7.6678
G01 X0.2005 Y7.6723
G01 X0.2005 Y7.7923
G01 X0.0759 Y7.7877
G01 X-0.1995 Y7.7844
G01 X-0.4749 Y7.7877
G01 X-0.5995 Y7.7923
G00 Z2.0000
G00 X-0.5995 Y7.9124
G01 F100.00
G01 Z-0.1500
G01 F300.00
G01 X-0.4719 Y7.9077
G01 X-0.1995 Y7.9044
G01 X0.0729 Y7.9077
G01 X0.2005 Y7.9124
G01 X0.2005 Y8.0325
G01 X0.0700 Y8.0277
G01 X-0.1995 Y8.0244
G01 X-0.4690 Y8.0277
G01 X-0.5995 Y8.0325
G00 Z2.0000
G00 X-0.5995 Y8.1526
G01 F100.00
G01 Z-0.1500
G01 F300.00
G01 X-0.4660 Y8.1476
G01 X-0.1995 Y8.1444
G01 X0.0670 Y8.1476
G01 X0.2005 Y8.1526
G01 X0.2005 Y8.2726
G01 X0.0641 Y8.2676
G01 X-0.1995 Y8.2644
G01 X-0.4631 Y8.2676
G01 X-0.5995 Y8.2726
G00 Z2.0000
G00 X-0.5995 Y8.3927
G01 F100.00
G01 Z-0.1500
G01 F300.00
G01 X-0.4601 Y8.3876
G01 X-0.1995 Y8.3844
G01 X0.0611 Y8.3876
G01 X0.2005 Y8.3927
G01 X0.2005 Y8.5128
G01 X0.0582 Y8.5075
G01 X-0.1995 Y8.5044
G01 X-0.4572 Y8.5075
G01 X-0.5995 Y8.5128
G00 Z2.0000
G00 X-0.5995 Y8.6328
G01 F100.00
G01 Z-0.1500
G01 F300.00
G01 X-0.4542 Y8.6275
G01 X-0.1995 Y8.6244
G01 X0.0552 Y8.6275
G01 X0.2005 Y8.6328
G01 X0.2005 Y8.7529
G01 X0.0523 Y8.7475
G01 X-0.1995 Y8.7444
G01 X-0.4513 Y8.7475
G01 X-0.5995 Y8.7529
G00 Z2.0000
G00 X-0.5995 Y8.8730
G01 F100.00
G01 Z-0.1500
G01 F300.00
G01 X-0.4483 Y8.8674
G01 X-0.1995 Y8.8644
G01 X0.0493 Y8.8674
G01 X0.2005 Y8.8730
G01 X0.2005 Y8.9931
G01 X0.0464 Y8.9874
G01 X-0.1995 Y8.9844
G01 X-0.4454 Y8.9874
G01 X-0.5995 Y8.9931
G00 Z2.0000
G00 X-0.5995 Y9.1131
G01 F100.00
G01 Z-0.1500
G01 F300.00
G01 X-0.4425 Y9.1073
G01 X-0.1995 Y9.1044
G01 X0.0435 Y9.1073
G01 X0.2005 Y9.1131
G00 Z2.0000
G00 X0.2005 Y9.2332
G01 F100.00
G01 Z-0.1500
G01 F300.00
G01 X0.0405 Y9.2273
G01 X-0.1995 Y9.2244
G01 X-0.4395 Y9.2273
G01 X-0.5995 Y9.2332
G00 Z2.0000
G00 X-0.5995 Y9.3533
G01 F100.00
G01 Z-0.1500
G01 F300.00
G01 X-0.4366 Y9.3473
G01 X-0.1995 Y9.3444
G01 X0.0376 Y9.3473
G01 X0.2005 Y9.3533
G00 Z2.0000
G00 X0.2005 Y9.4733
G01 F100.00
G01 Z-0.1500
G01 F300.00
G01 X0.0346 Y9.4672
G01 X-0.1995 Y9.4644
G01 X-0.4336 Y9.4672
G01 X-0.5995 Y9.4733
G00 Z2.0000
G00 X-0.5995 Y9.5934
G01 F100.00
G01 Z-0.1500
G01 F300.00
G01 X-0.4307 Y9.5872
G01 X-0.1995 Y9.5844
G01 X0.0317 Y9.5872
G01 X0.2005 Y9.5934
G00 Z2.0000
G00 X0.2005 Y9.7135
G01 F100.00
G01 Z-0.1500
G01 F300.00
G01 X0.0287 Y9.7072
G01 X-0.1995 Y9.7044
G01 X-0.4277 Y9.7072
G01 X-0.5995 Y9.7135
G00 Z2.0000
G00 X-0.5995 Y9.8336
G01 F100.00
G01 Z-0.1500
G01 F300.00
G01 X-0.4248 Y9.8271
G01 X-0.1995 Y9.8244
G01 X0.0258 Y9.8271
G01 X0.2005 Y9.8336
G00 Z2.0000
G00 X0.2005 Y9.9536
G01 F100.00
G01 Z-0.1500
G01 F300.00
G01 X0.0228 Y9.9471
G01 X-0.1995 Y9.9444
G01 X-0.4218 Y9.9471
G01 X-0.5995 Y9.9536
G00 Z2.0000
G00 X-0.5995 Y10.0737
G01 F100.00
G01 Z-0.1500
G01 F300.00
G01 X-0.4189 Y10.0671
G01 X-0.1995 Y10.0644
G01 X0.0199 Y10.0671
G01 X0.2005 Y10.0737
G00 Z2.0000
G00 X0.2005 Y10.1938
G01 F100.00
G01 Z-0.1500
G01 F300.00
G01 X0.0170 Y10.1870
G01 X-0.1995 Y10.1844
G01 X-0.4160 Y10.1870
G01 X-0.5995 Y10.1938
G00 Z2.0000
G00 X-0.5995 Y10.3139
G01 F100.00
G01 Z-0.1500
G01 F300.00
G01 X-0.4130 Y10.3070
G01 X-0.1995 Y10.3044
G01 X0.0140 Y10.3070
G01 X0.2005 Y10.3139
G00 Z2.0000
G00 X0.2005 Y10.4339
G01 F100.00
G01 Z-0.1500
G01 F300.00
G01 X0.0111 Y10.4269
G01 X-0.1995 Y10.4244
G01 X-0.4101 Y10.4269
G01 X-0.5995 Y10.4339
G00 Z2.0000
G00 X-0.5995 Y10.5540
G01 F100.00
G01 Z-0.1500
G01 F300.00
G01 X-0.4071 Y10.5469
G01 X-0.1995 Y10.5444
G01 X0.0081 Y10.5469
G01 X0.2005 Y10.5540
G00 Z2.0000
G00 X0.2005 Y10.6741
G01 F100.00
G01 Z-0.1500
G01 F300.00
G01 X0.0052 Y10.6669
G01 X-0.1995 Y10.6644
G01 X-0.4042 Y10.6669
G01 X-0.5995 Y10.6741
G00 Z2.0000
G00 X-0.5995 Y10.7941
G01 F100.00
G01 Z-0.1500
G01 F300.00
G01 X-0.4012 Y10.7868
G01 X-0.1995 Y10.7844
G01 X0.0022 Y10.7868
G01 X0.2005 Y10.7941
G00 Z2.0000
G00 X0.2005 Y10.9143
G01 F100.00
G01 Z-0.1500
G01 F300.00
G01 X-0.0007 Y10.9068
G01 X-0.1995 Y10.9044
G01 X-0.3983 Y10.9068
G01 X-0.5995 Y10.9143
G01 X-0.5995 Y11.0345
G01 X-0.3953 Y11.0268
G01 X-0.1995 Y11.0244
G01 X-0.0037 Y11.0268
G01 X0.2005 Y11.0345
G00 Z2.0000
G00 X0.2005 Y11.1547
G01 F100.00
G01 Z-0.1500
G01 F300.00
G01 X0.1862 Y11.1538
G01 X-0.0066 Y11.1467
G01 X-0.1995 Y11.1444
G01 X-0.3924 Y11.1467
G01 X-0.5852 Y11.1538
G01 X-0.5995 Y11.1547
G00 Z2.0000
G00 X-0.5995 Y11.2749
G01 F100.00
G01 Z-0.1500
G01 F300.00
G01 X-0.5793 Y11.2737
G01 X-0.3894 Y11.2667
G01 X-0.1995 Y11.2644
G01 X-0.0096 Y11.2667
G01 X0.1803 Y11.2737
G01 X0.2005 Y11.2749
G00 Z2.0000
G00 X0.2005 Y11.3951
G01 F100.00
G01 Z-0.1500
G01 F300.00
G01 X0.1744 Y11.3935
G01 X-0.0125 Y11.3867
G01 X-0.1995 Y11.3844
G01 X-0.3865 Y11.3867
G01 X-0.5734 Y11.3935
G01 X-0.5995 Y11.3951
G00 Z2.0000
G00 X-0.5995 Y11.5154
G01 F100.00
G01 Z-0.1500
G01 F300.00
G01 X-0.5675 Y11.5134
G01 X-0.3836 Y11.5066
G01 X-0.1995 Y11.5044
G01 X-0.0154 Y11.5066
G01 X0.1685 Y11.5134
G01 X0.2005 Y11.5154
G00 Z2.0000
G00 X0.2005 Y11.6356
G01 F100.00
G01 Z-0.1500
G01 F300.00
G01 X0.1626 Y11.6333
G01 X-0.0184 Y11.6266
G01 X-0.1995 Y11.6244
G01 X-0.3806 Y11.6266
G01 X-0.5616 Y11.6333
G01 X-0.5995 Y11.6356
G00 Z2.0000
G00 X-0.5995 Y11.7558
G01 F100.00
G01 Z-0.1500
G01 F300.00
G01 X-0.5557 Y11.7531
G01 X-0.3777 Y11.7466
G01 X-0.1995 Y11.7444
G01 X-0.0213 Y11.7466
G01 X0.1567 Y11.7531
G01 X0.2005 Y11.7558
G00 Z2.0000
G00 X0.2005 Y11.8760
G01 F100.00
G01 Z-0.1500
G01 F300.00
G01 X0.1508 Y11.8730
G01 X-0.0243 Y11.8665
G01 X-0.1995 Y11.8644
G01 X-0.3747 Y11.8665
G01 X-0.5498 Y11.8730
G01 X-0.5995 Y11.8760
G00 Z2.0000
G00 X-0.5995 Y11.9962
G01 F100.00
G01 Z-0.1500
G01 F300.00
G01 X-0.5440 Y11.9928
G01 X-0.3718 Y11.9865
G01 X-0.1995 Y11.9844
G01 X-0.0272 Y11.9865
G01 X0.1450 Y11.9928
G01 X0.2005 Y11.9962
G00 Z2.0000
G00 X0.2005 Y12.1165
G01 F100.00
G01 Z-0.1500
G01 F300.00
G01 X0.1391 Y12.1127
G01 X-0.0302 Y12.1064
G01 X-0.1995 Y12.1044
G01 X-0.3688 Y12.1064
G01 X-0.5381 Y12.1127
G01 X-0.5995 Y12.1165
G01 X-0.5995 Y12.2367
G01 X-0.5322 Y12.2325
G01 X-0.3659 Y12.2264
G01 X-0.1995 Y12.2244
G01 X-0.0331 Y12.2264
G01 X0.1332 Y12.2325
G01 X0.2005 Y12.2367
G01 X0.2005 Y12.3569
G01 X0.1273 Y12.3524
G01 X-0.0361 Y12.3464
G01 X-0.1995 Y12.3444
G01 X-0.3629 Y12.3464
G01 X-0.5263 Y12.3524
G01 X-0.5995 Y12.3569
G00 Z2.0000
G00 X-0.5995 Y12.4771
G01 F100.00
G01 Z-0.1500
G01 F300.00
G01 X-0.5204 Y12.4722
G01 X-0.3600 Y12.4663
G01 X-0.1995 Y12.4644
G01 X-0.0390 Y12.4663
G01 X0.1214 Y12.4722
G01 X0.2005 Y12.4771
G00 Z2.0000
G00 X0.2005 Y12.5973
G01 F100.00
G01 Z-0.1500
G01 F300.00
G01 X0.1155 Y12.5921
G01 X-0.0419 Y12.5863
G01 X-0.1995 Y12.5844
G01 X-0.3571 Y12.5863
G01 X-0.5145 Y12.5921
G01 X-0.5995 Y12.5973
G00 Z2.0000
G00 X-0.5995 Y12.7175
G01 F100.00
G01 Z-0.1500
G01 F300.00
G01 X-0.5086 Y12.7120
G01 X-0.3541 Y12.7063
G01 X-0.1995 Y12.7044
G01 X-0.0449 Y12.7063
G01 X0.1096 Y12.7120
G01 X0.2005 Y12.7175
G00 Z2.0000
G00 X0.2005 Y12.8378
G01 F100.00
G01 Z-0.1500
G01 F300.00
G01 X0.1037 Y12.8318
G01 X-0.0478 Y12.8262
G01 X-0.1995 Y12.8244
G01 X-0.3512 Y12.8262
G01 X-0.5027 Y12.8318
G01 X-0.5995 Y12.8378
G01 X-0.5995 Y12.9580
G01 X-0.4969 Y12.9517
G01 X-0.3482 Y12.9462
G01 X-0.1995 Y12.9444
G01 X-0.0508 Y12.9462
G01 X0.0979 Y12.9517
G01 X0.2005 Y12.9580
G01 X0.2005 Y13.0782
G01 X0.0920 Y13.0715
G01 X-0.0537 Y13.0662
G01 X-0.1995 Y13.0644
G01 X-0.3453 Y13.0662
G01 X-0.4910 Y13.0715
G01 X-0.5995 Y13.0782
G00 Z2.0000
G00 X-0.5995 Y13.1984
G01 F100.00
G01 Z-0.1500
G01 F300.00
G01 X-0.4851 Y13.1914
G01 X-0.3423 Y13.1861
G01 X-0.1995 Y13.1844
G01 X-0.0567 Y13.1861
G01 X0.0861 Y13.1914
G01 X0.2005 Y13.1984
G00 Z2.0000
G00 X0.2005 Y13.3186
G01 F100.00
G01 Z-0.1500
G01 F300.00
G01 X0.0802 Y13.3112
G01 X-0.0596 Y13.3061
G01 X-0.1995 Y13.3044
G01 X-0.3394 Y13.3061
G01 X-0.4792 Y13.3112
G01 X-0.5995 Y13.3186
G00 Z2.0000
G00 X-0.5995 Y13.4388
G01 F100.00
G01 Z-0.1500
G01 F300.00
G01 X-0.4733 Y13.4311
G01 X-0.3364 Y13.4260
G01 X-0.1995 Y13.4244
G01 X-0.0626 Y13.4260
G01 X0.0743 Y13.4311
G01 X0.2005 Y13.4388
G01 X0.2005 Y13.5591
G01 X0.0684 Y13.5509
G01 X-0.0655 Y13.5460
G01 X-0.1995 Y13.5444
G01 X-0.3335 Y13.5460
G01 X-0.4674 Y13.5509
G01 X-0.5995 Y13.5591
G00 Z2.0000
G00 X-0.5995 Y13.6795
G01 F100.00
G01 Z-0.1500
G01 F300.00
G01 X-0.4615 Y13.6708
G01 X-0.3306 Y13.6660
G01 X-0.1995 Y13.6644
G01 X-0.0684 Y13.6660
G01 X0.0625 Y13.6708
G01 X0.2005 Y13.6795
G00 Z2.0000
G00 X0.2005 Y13.7999
G01 F100.00
G01 Z-0.1500
G01 F300.00
G01 X0.1845 Y13.7985
G01 X0.0566 Y13.7907
G01 X-0.0714 Y13.7859
G01 X-0.1995 Y13.7844
G01 X-0.3276 Y13.7859
G01 X-0.4556 Y13.7907
G01 X-0.5835 Y13.7985
G01 X-0.5995 Y13.7999
G00 Z2.0000
G00 X-0.5995 Y13.9203
G01 F100.00
G01 Z-0.1500
G01 F300.00
G01 X-0.5747 Y13.9182
G01 X-0.4497 Y13.9105
G01 X-0.3247 Y13.9059
G01 X-0.1995 Y13.9044
G01 X-0.0743 Y13.9059
G01 X0.0507 Y13.9105
G01 X0.1757 Y13.9182
G01 X0.2005 Y13.9203
G01 X0.2005 Y14.0408
G01 X0.1669 Y14.0379
G01 X0.0449 Y14.0304
G01 X-0.0773 Y14.0259
G01 X-0.1995 Y14.0244
G01 X-0.3217 Y14.0259
G01 X-0.4439 Y14.0304
G01 X-0.5659 Y14.0379
G01 X-0.5995 Y14.0408
G00 Z2.0000
G00 X-0.5995 Y14.1612
G01 F100.00
G01 Z-0.1500
G01 F300.00
G01 X-0.5570 Y14.1575
G01 X-0.4380 Y14.1502
G01 X-0.3188 Y14.1458
G01 X-0.1995 Y14.1444
G01 X-0.0802 Y14.1458
G01 X0.0390 Y14.1502
G01 X0.1580 Y14.1575
G01 X0.2005 Y14.1612
G00 Z2.0000
G00 X0.2005 Y14.2816
G01 F100.00
G01 Z-0.1500
G01 F300.00
G01 X0.1492 Y14.2772
G01 X0.0331 Y14.2701
G01 X-0.0832 Y14.2658
G01 X-0.1995 Y14.2644
G01 X-0.3158 Y14.2658
G01 X-0.4321 Y14.2701
G01 X-0.5482 Y14.2772
G01 X-0.5995 Y14.2816
G00 Z2.0000
G00 X-0.5995 Y14.4021
G01 F100.00
G01 Z-0.1500
G01 F300.00
G01 X-0.5394 Y14.3969
G01 X-0.4262 Y14.3899
G01 X-0.3129 Y14.3858
G01 X-0.1995 Y14.3844
G01 X-0.0861 Y14.3858
G01 X0.0272 Y14.3899
G01 X0.1404 Y14.3969
G01 X0.2005 Y14.4021
G00 Z2.0000
G00 X0.2005 Y14.5225
G01 F100.00
G01 Z-0.1500
G01 F300.00
G01 X0.1315 Y14.5166
G01 X0.0213 Y14.5098
G01 X-0.0891 Y14.5057
G01 X-0.1995 Y14.5044
G01 X-0.3099 Y14.5057
G01 X-0.4203 Y14.5098
G01 X-0.5305 Y14.5166
G01 X-0.5995 Y14.5225
G00 Z2.0000
G00 X-0.5995 Y14.6429
G01 F100.00
G01 Z-0.1500
G01 F300.00
G01 X-0.5217 Y14.6362
G01 X-0.4144 Y14.6296
G01 X-0.3070 Y14.6257
G01 X-0.1995 Y14.6244
G01 X-0.0920 Y14.6257
G01 X0.0154 Y14.6296
G01 X0.1227 Y14.6362
G01 X0.2005 Y14.6429
G00 Z2.0000
G00 X0.2005 Y14.7634
G01 F100.00
G01 Z-0.1500
G01 F300.00
G01 X0.1139 Y14.7559
G01 X0.0095 Y14.7495
G01 X-0.0950 Y14.7456
G01 X-0.1995 Y14.7444
G01 X-0.3040 Y14.7456
G01 X-0.4085 Y14.7495
G01 X-0.5129 Y14.7559
G01 X-0.5995 Y14.7634
G00 Z2.0000
G00 X-0.5995 Y14.8838
G01 F100.00
G01 Z-0.1500
G01 F300.00
G01 X-0.5041 Y14.8756
G01 X-0.4026 Y14.8694
G01 X-0.3011 Y14.8656
G01 X-0.1995 Y14.8644
G01 X-0.0979 Y14.8656
G01 X0.0036 Y14.8694
G01 X0.1051 Y14.8756
G01 X0.2005 Y14.8838
G00 Z2.0000
G00 X0.2005 Y15.0044
G01 F100.00
G01 Z-0.1500
G01 F300.00
G01 X0.0962 Y14.9953
G01 X-0.0022 Y14.9892
G01 X-0.1008 Y14.9856
G01 X-0.1995 Y14.9844
G01 X-0.2982 Y14.9856
G01 X-0.3968 Y14.9892
G01 X-0.4952 Y14.9953
G01 X-0.5995 Y15.0044
G01 X-0.5995 Y15.1251
G01 X-0.5818 Y15.1231
G01 X-0.4864 Y15.1149
G01 X-0.3909 Y15.1091
G01 X-0.2952 Y15.1055
G01 X-0.1995 Y15.1044
G01 X-0.1038 Y15.1055
G01 X-0.0081 Y15.1091
G01 X0.0874 Y15.1149
G01 X0.1828 Y15.1231
G01 X0.2005 Y15.1251
G01 X0.2005 Y15.2458
G01 X0.1710 Y15.2426
G01 X0.0786 Y15.2346
G01 X-0.0140 Y15.2289
G01 X-0.1067 Y15.2255
G01 X-0.1995 Y15.2244
G01 X-0.2923 Y15.2255
G01 X-0.3850 Y15.2289
G01 X-0.4776 Y15.2346
G01 X-0.5700 Y15.2426
G01 X-0.5995 Y15.2458
G00 Z2.0000
G00 X-0.5995 Y15.3666
G01 F100.00
G01 Z-0.1500
G01 F300.00
G01 X-0.5582 Y15.3620
G01 X-0.4687 Y15.3543
G01 X-0.3791 Y15.3488
G01 X-0.2893 Y15.3455
G01 X-0.1995 Y15.3444
G01 X-0.1097 Y15.3455
G01 X-0.0199 Y15.3488
G01 X0.0697 Y15.3543
G01 X0.1592 Y15.3620
G01 X0.2005 Y15.3666
G00 Z2.0000
G00 X0.2005 Y15.4873
G01 F100.00
G01 Z-0.1500
G01 F300.00
G01 X0.1475 Y15.4814
G01 X0.0609 Y15.4740
G01 X-0.0258 Y15.4686
G01 X-0.1126 Y15.4654
G01 X-0.1995 Y15.4644
G01 X-0.2864 Y15.4654
G01 X-0.3732 Y15.4686
G01 X-0.4599 Y15.4740
G01 X-0.5465 Y15.4814
G01 X-0.5995 Y15.4873
G01 X-0.5995 Y15.6080
G01 X-0.5347 Y15.6008
G01 X-0.4511 Y15.5936
G01 X-0.3673 Y15.5885
G01 X-0.2834 Y15.5854
G01 X-0.1995 Y15.5844
G01 X-0.1156 Y15.5854
G01 X-0.0317 Y15.5885
G01 X0.0521 Y15.5936
G01 X0.1357 Y15.6008
G01 X0.2005 Y15.6080
G00 Z2.0000
G00 X0.2005 Y15.7287
G01 F100.00
G01 Z-0.1500
G01 F300.00
G01 X0.1240 Y15.7203
G01 X0.0433 Y15.7133
G01 X-0.0376 Y15.7083
G01 X-0.1185 Y15.7054
G01 X-0.1995 Y15.7044
G01 X-0.2805 Y15.7054
G01 X-0.3614 Y15.7083
G01 X-0.4423 Y15.7133
G01 X-0.5230 Y15.7203
G01 X-0.5995 Y15.7287
G00 Z2.0000
G00 X-0.5995 Y15.8497
G01 F100.00
G01 Z-0.1500
G01 F300.00
G01 X-0.5112 Y15.8397
G01 X-0.4334 Y15.8330
G01 X-0.3555 Y15.8282
G01 X-0.2775 Y15.8253
G01 X-0.1995 Y15.8244
G01 X-0.1215 Y15.8253
G01 X-0.0435 Y15.8282
G01 X0.0344 Y15.8330
G01 X0.1122 Y15.8397
G01 X0.2005 Y15.8497
G00 Z2.0000
G00 X0.2005 Y15.9708
G01 F100.00
G01 Z-0.1500
G01 F300.00
G01 X0.1751 Y15.9674
G01 X0.1004 Y15.9591
G01 X0.0256 Y15.9527
G01 X-0.0494 Y15.9481
G01 X-0.1244 Y15.9453
G01 X-0.1995 Y15.9444
G01 X-0.2746 Y15.9453
G01 X-0.3496 Y15.9481
G01 X-0.4246 Y15.9527
G01 X-0.4994 Y15.9591
G01 X-0.5741 Y15.9674
G01 X-0.5995 Y15.9708
G00 Z2.0000
G00 X-0.5995 Y16.0919
G01 F100.00
G01 Z-0.1500
G01 F300.00
G01 X-0.5594 Y16.0865
G01 X-0.4877 Y16.0785
G01 X-0.4158 Y16.0723
G01 X-0.3438 Y16.0679
G01 X-0.2717 Y16.0652
G01 X-0.1995 Y16.0644
G01 X-0.1273 Y16.0652
G01 X-0.0552 Y16.0679
G01 X0.0168 Y16.0723
G01 X0.0887 Y16.0785
G01 X0.1604 Y16.0865
G01 X0.2005 Y16.0919
G00 Z2.0000
G00 X0.2005 Y16.2130
G01 F100.00
G01 Z-0.1500
G01 F300.00
G01 X0.1457 Y16.2056
G01 X0.0769 Y16.1979
G01 X0.0080 Y16.1920
G01 X-0.0611 Y16.1878
G01 X-0.1303 Y16.1852
G01 X-0.1995 Y16.1844
G01 X-0.2687 Y16.1852
G01 X-0.3379 Y16.1878
G01 X-0.4070 Y16.1920
G01 X-0.4759 Y16.1979
G01 X-0.5447 Y16.2056
G01 X-0.5995 Y16.2130
G01 X-0.5995 Y16.3342
G01 X-0.5300 Y16.3247
G01 X-0.4641 Y16.3174
G01 X-0.3981 Y16.3117
G01 X-0.3320 Y16.3076
G01 X-0.2658 Y16.3052
G01 X-0.1995 Y16.3044
G01 X-0.1332 Y16.3052
G01 X-0.0670 Y16.3076
G01 X-0.0009 Y16.3117
G01 X0.0651 Y16.3174
G01 X0.1310 Y16.3247
G01 X0.2005 Y16.3342
G00 Z2.0000
G00 X0.2005 Y16.4557
G01 F100.00
G01 Z-0.1500
G01 F300.00
G01 X0.1791 Y16.4523
G01 X0.1163 Y16.4438
G01 X0.0534 Y16.4368
G01 X-0.0097 Y16.4314
G01 X-0.0729 Y16.4275
G01 X-0.1362 Y16.4251
G01 X-0.1995 Y16.4244
G01 X-0.2628 Y16.4251
G01 X-0.3261 Y16.4275
G01 X-0.3893 Y16.4314
G01 X-0.4524 Y16.4368
G01 X-0.5153 Y16.4438
G01 X-0.5781 Y16.4523
G01 X-0.5995 Y16.4557
G00 Z2.0000
G00 X-0.5995 Y16.5773
G01 F100.00
G01 Z-0.1500
G01 F300.00
G01 X-0.5605 Y16.5710
G01 X-0.5006 Y16.5629
G01 X-0.4406 Y16.5562
G01 X-0.3805 Y16.5510
G01 X-0.3202 Y16.5473
G01 X-0.2599 Y16.5451
G01 X-0.1995 Y16.5444
G01 X-0.1391 Y16.5451
G01 X-0.0788 Y16.5473
G01 X-0.0185 Y16.5510
G01 X0.0416 Y16.5562
G01 X0.1016 Y16.5629
G01 X0.1615 Y16.5710
G01 X0.2005 Y16.5773
G01 X0.2005 Y16.6988
G01 X0.1438 Y16.6897
G01 X0.0869 Y16.6820
G01 X0.0299 Y16.6756
G01 X-0.0274 Y16.6707
G01 X-0.0847 Y16.6672
G01 X-0.1421 Y16.6651
G01 X-0.1995 Y16.6644
G01 X-0.2569 Y16.6651
G01 X-0.3143 Y16.6672
G01 X-0.3716 Y16.6707
G01 X-0.4289 Y16.6756
G01 X-0.4859 Y16.6820
G01 X-0.5428 Y16.6897
G01 X-0.5995 Y16.6988
G00 Z2.0000
G00 X-0.5995 Y16.8209
G01 F100.00
G01 Z-0.1500
G01 F300.00
G01 X-0.5790 Y16.8170
G01 X-0.5252 Y16.8084
G01 X-0.4713 Y16.8011
G01 X-0.4171 Y16.7951
G01 X-0.3628 Y16.7904
G01 X-0.3084 Y16.7870
G01 X-0.2540 Y16.7850
G01 X-0.1995 Y16.7844
G01 X-0.1450 Y16.7850
G01 X-0.0906 Y16.7870
G01 X-0.0362 Y16.7904
G01 X0.0181 Y16.7951
G01 X0.0723 Y16.8011
G01 X0.1262 Y16.8084
G01 X0.1800 Y16.8170
G01 X0.2005 Y16.8209
G00 Z2.0000
G00 X0.2005 Y16.9429
G01 F100.00
G01 Z-0.1500
G01 F300.00
G01 X0.1595 Y16.9353
G01 X0.1086 Y16.9271
G01 X0.0576 Y16.9202
G01 X0.0063 Y16.9145
G01 X-0.0450 Y16.9101
G01 X-0.0965 Y16.9069
G01 X-0.1480 Y16.9050
G01 X-0.1995 Y16.9044
G01 X-0.2510 Y16.9050
G01 X-0.3025 Y16.9069
G01 X-0.3540 Y16.9101
G01 X-0.4053 Y16.9145
G01 X-0.4566 Y16.9202
G01 X-0.5076 Y16.9271
G01 X-0.5585 Y16.9353
G01 X-0.5995 Y16.9429
G01 X-0.5995 Y17.0653
G01 X-0.5858 Y17.0624
G01 X-0.5380 Y17.0535
G01 X-0.4900 Y17.0458
G01 X-0.4419 Y17.0393
G01 X-0.3936 Y17.0339
G01 X-0.3452 Y17.0297
G01 X-0.2967 Y17.0267
G01 X-0.2481 Y17.0250
G01 X-0.1995 Y17.0244
G01 X-0.1509 Y17.0250
G01 X-0.1023 Y17.0267
G01 X-0.0538 Y17.0297
G01 X-0.0054 Y17.0339
G01 X0.0429 Y17.0393
G01 X0.0910 Y17.0458
G01 X0.1390 Y17.0535
G01 X0.1868 Y17.0624
G01 X0.2005 Y17.0653
G00 Z2.0000
G00 X0.2005 Y17.1880
G01 F100.00
G01 Z-0.1500
G01 F300.00
G01 X0.1634 Y17.1801
G01 X0.1185 Y17.1717
G01 X0.0734 Y17.1645
G01 X0.0282 Y17.1584
G01 X-0.0172 Y17.1533
G01 X-0.0627 Y17.1494
G01 X-0.1082 Y17.1466
G01 X-0.1539 Y17.1449
G01 X-0.1995 Y17.1444
G01 X-0.2451 Y17.1449
G01 X-0.2908 Y17.1466
G01 X-0.3363 Y17.1494
G01 X-0.3818 Y17.1533
G01 X-0.4272 Y17.1584
G01 X-0.4724 Y17.1645
G01 X-0.5175 Y17.1717
G01 X-0.5624 Y17.1801
G01 X-0.5995 Y17.1880
G01 X-0.5995 Y17.3111
G01 X-0.5807 Y17.3066
G01 X-0.5390 Y17.2978
G01 X-0.4970 Y17.2900
G01 X-0.4548 Y17.2832
G01 X-0.4125 Y17.2775
G01 X-0.3700 Y17.2727
G01 X-0.3275 Y17.2691
G01 X-0.2849 Y17.2665
G01 X-0.2422 Y17.2649
G01 X-0.1995 Y17.2644
G01 X-0.1568 Y17.2649
G01 X-0.1141 Y17.2665
G01 X-0.0715 Y17.2691
G01 X-0.0290 Y17.2727
G01 X0.0135 Y17.2775
G01 X0.0558 Y17.2832
G01 X0.0980 Y17.2900
G01 X0.1400 Y17.2978
G01 X0.1817 Y17.3066
G01 X0.2005 Y17.3111
G00 Z2.0000
G00 X0.2005 Y17.4346
G01 F100.00
G01 Z-0.1500
G01 F300.00
G01 X0.1554 Y17.4237
G01 X0.1165 Y17.4155
G01 X0.0775 Y17.4082
G01 X0.0382 Y17.4019
G01 X-0.0012 Y17.3965
G01 X-0.0407 Y17.3922
G01 X-0.0803 Y17.3888
G01 X-0.1200 Y17.3863
G01 X-0.1597 Y17.3849
G01 X-0.1995 Y17.3844
G01 X-0.2393 Y17.3849
G01 X-0.2790 Y17.3863
G01 X-0.3187 Y17.3888
G01 X-0.3583 Y17.3922
G01 X-0.3978 Y17.3965
G01 X-0.4372 Y17.4019
G01 X-0.4765 Y17.4082
G01 X-0.5155 Y17.4155
G01 X-0.5544 Y17.4237
G01 X-0.5995 Y17.4346
G00 Z2.0000
G00 X-0.5995 Y17.5587
G01 F100.00
G01 Z-0.1500
G01 F300.00
G01 X-0.5640 Y17.5493
G01 X-0.5282 Y17.5408
G01 X-0.4921 Y17.5332
G01 X-0.4559 Y17.5264
G01 X-0.4196 Y17.5206
G01 X-0.3831 Y17.5156
G01 X-0.3465 Y17.5116
G01 X-0.3098 Y17.5084
G01 X-0.2731 Y17.5062
G01 X-0.2363 Y17.5048
G01 X-0.1995 Y17.5044
G01 X-0.1627 Y17.5048
G01 X-0.1259 Y17.5062
G01 X-0.0892 Y17.5084
G01 X-0.0525 Y17.5116
G01 X-0.0159 Y17.5156
G01 X0.0206 Y17.5206
G01 X0.0569 Y17.5264
G01 X0.0931 Y17.5332
G01 X0.1292 Y17.5408
G01 X0.1650 Y17.5493
G01 X0.2005 Y17.5587
G01 X0.2005 Y17.6836
G01 X0.1686 Y17.6744
G01 X0.1358 Y17.6657
G01 X0.1029 Y17.6579
G01 X0.0697 Y17.6509
G01 X0.0364 Y17.6447
G01 X0.0030 Y17.6393
G01 X-0.0306 Y17.6347
G01 X-0.0642 Y17.6310
G01 X-0.0980 Y17.6281
G01 X-0.1318 Y17.6260
G01 X-0.1656 Y17.6248
G01 X-0.1995 Y17.6244
G01 X-0.2334 Y17.6248
G01 X-0.2672 Y17.6260
G01 X-0.3010 Y17.6281
G01 X-0.3348 Y17.6310
G01 X-0.3684 Y17.6347
G01 X-0.4020 Y17.6393
G01 X-0.4354 Y17.6447
G01 X-0.4687 Y17.6509
G01 X-0.5019 Y17.6579
G01 X-0.5348 Y17.6657
G01 X-0.5676 Y17.6744
G01 X-0.5995 Y17.6836
G00 Z2.0000
G00 X-0.5995 Y17.8096
G01 F100.00
G01 Z-0.1500
G01 F300.00
G01 X-0.5653 Y17.7986
G01 X-0.5356 Y17.7900
G01 X-0.5057 Y17.7821
G01 X-0.4756 Y17.7750
G01 X-0.4453 Y17.7686
G01 X-0.4149 Y17.7629
G01 X-0.3844 Y17.7580
G01 X-0.3537 Y17.7538
G01 X-0.3230 Y17.7504
G01 X-0.2922 Y17.7478
G01 X-0.2613 Y17.7459
G01 X-0.2304 Y17.7447
G01 X-0.1995 Y17.7444
G01 X-0.1686 Y17.7447
G01 X-0.1377 Y17.7459
G01 X-0.1068 Y17.7478
G01 X-0.0760 Y17.7504
G01 X-0.0453 Y17.7538
G01 X-0.0146 Y17.7580
G01 X0.0159 Y17.7629
G01 X0.0463 Y17.7686
G01 X0.0766 Y17.7750
G01 X0.1067 Y17.7821
G01 X0.1366 Y17.7900
G01 X0.1663 Y17.7986
G01 X0.2005 Y17.8096
G00 Z2.0000
G00 X0.2005 Y17.9369
G01 F100.00
G01 Z-0.1500
G01 F300.00
G01 X0.1846 Y17.9310
G01 X0.1581 Y17.9219
G01 X0.1314 Y17.9135
G01 X0.1046 Y17.9057
G01 X0.0775 Y17.8985
G01 X0.0503 Y17.8921
G01 X0.0229 Y17.8863
G01 X-0.0046 Y17.8811
G01 X-0.0322 Y17.8767
G01 X-0.0600 Y17.8729
G01 X-0.0878 Y17.8699
G01 X-0.1156 Y17.8675
G01 X-0.1436 Y17.8657
G01 X-0.1715 Y17.8647
G01 X-0.1995 Y17.8644
G01 X-0.2275 Y17.8647
G01 X-0.2554 Y17.8657
G01 X-0.2834 Y17.8675
G01 X-0.3112 Y17.8699
G01 X-0.3390 Y17.8729
G01 X-0.3668 Y17.8767
G01 X-0.3944 Y17.8811
G01 X-0.4219 Y17.8863
G01 X-0.4493 Y17.8921
G01 X-0.4765 Y17.8985
G01 X-0.5036 Y17.9057
G01 X-0.5304 Y17.9135
G01 X-0.5571 Y17.9219
G01 X-0.5836 Y17.9310
G01 X-0.5995 Y17.9369
G00 Z2.0000
G00 X-0.5995 Y18.0661
G01 F100.00
G01 Z-0.1500
G01 F300.00
G01 X-0.5666 Y18.0527
G01 X-0.5431 Y18.0440
G01 X-0.5195 Y18.0358
G01 X-0.4956 Y18.0283
G01 X-0.4715 Y18.0213
G01 X-0.4473 Y18.0149
G01 X-0.4230 Y18.0091
G01 X-0.3985 Y18.0040
G01 X-0.3739 Y17.9994
G01 X-0.3492 Y17.9954
G01 X-0.3244 Y17.9920
G01 X-0.2995 Y17.9893
G01 X-0.2745 Y17.9871
G01 X-0.2495 Y17.9856
G01 X-0.2245 Y17.9847
G01 X-0.1995 Y17.9844
G01 X-0.1745 Y17.9847
G01 X-0.1495 Y17.9856
G01 X-0.1245 Y17.9871
G01 X-0.0995 Y17.9893
G01 X-0.0746 Y17.9920
G01 X-0.0498 Y17.9954
G01 X-0.0251 Y17.9994
G01 X-0.0005 Y18.0040
G01 X0.0240 Y18.0091
G01 X0.0483 Y18.0149
G01 X0.0725 Y18.0213
G01 X0.0966 Y18.0283
G01 X0.1205 Y18.0358
G01 X0.1441 Y18.0440
G01 X0.1676 Y18.0527
G01 X0.2005 Y18.0661
G00 Z2.0000
G00 X0.2005 Y18.1982
G01 F100.00
G01 Z-0.1500
G01 F300.00
G01 X0.1652 Y18.1816
G01 X0.1449 Y18.1729
G01 X0.1244 Y18.1647
G01 X0.1037 Y18.1570
G01 X0.0828 Y18.1498
G01 X0.0618 Y18.1431
G01 X0.0405 Y18.1370
G01 X0.0192 Y18.1313
G01 X-0.0023 Y18.1262
G01 X-0.0239 Y18.1217
G01 X-0.0456 Y18.1176
G01 X-0.0674 Y18.1141
G01 X-0.0893 Y18.1111
G01 X-0.1113 Y18.1087
G01 X-0.1333 Y18.1068
G01 X-0.1553 Y18.1054
G01 X-0.1774 Y18.1046
G01 X-0.1995 Y18.1044
G01 X-0.2216 Y18.1046
G01 X-0.2437 Y18.1054
G01 X-0.2657 Y18.1068
G01 X-0.2877 Y18.1087
G01 X-0.3097 Y18.1111
G01 X-0.3316 Y18.1141
G01 X-0.3534 Y18.1176
G01 X-0.3751 Y18.1217
G01 X-0.3967 Y18.1262
G01 X-0.4182 Y18.1313
G01 X-0.4395 Y18.1370
G01 X-0.4608 Y18.1431
G01 X-0.4818 Y18.1498
G01 X-0.5027 Y18.1570
G01 X-0.5234 Y18.1647
G01 X-0.5439 Y18.1729
G01 X-0.5642 Y18.1816
G01 X-0.5995 Y18.1982
G00 Z2.0000
G00 X-0.5995 Y18.3348
G01 F100.00
G01 Z-0.1500
G01 F300.00
G01 X-0.5672 Y18.3165
G01 X-0.5502 Y18.3076
G01 X-0.5156 Y18.2913
G01 X-0.4980 Y18.2837
G01 X-0.4623 Y18.2700
G01 X-0.4442 Y18.2637
G01 X-0.4075 Y18.2526
G01 X-0.3704 Y18.2433
G01 X-0.3517 Y18.2394
G01 X-0.3139 Y18.2328
G01 X-0.2760 Y18.2281
G01 X-0.2569 Y18.2265
G01 X-0.2378 Y18.2253
G01 X-0.1995 Y18.2244
G01 X-0.1612 Y18.2253
G01 X-0.1230 Y18.2281
G01 X-0.1040 Y18.2302
G01 X-0.0661 Y18.2358
G01 X-0.0473 Y18.2394
G01 X-0.0286 Y18.2433
G01 X0.0085 Y18.2526
G01 X0.0269 Y18.2580
G01 X0.0633 Y18.2700
G01 X0.0990 Y18.2837
G01 X0.1340 Y18.2993
G01 X0.1512 Y18.3076
G01 X0.1682 Y18.3165
G01 X0.2005 Y18.3348
G00 Z2.0000
G00 X0.2005 Y18.4795
G01 F100.00
G01 Z-0.1500
G01 F300.00
G01 X0.1805 Y18.4648
G01 X0.1536 Y18.4468
G01 X0.1258 Y18.4301
G01 X0.1116 Y18.4223
G01 X0.0827 Y18.4077
G01 X0.0531 Y18.3946
G01 X0.0380 Y18.3886
G01 X0.0075 Y18.3777
G01 X-0.0235 Y18.3683
G01 X-0.0391 Y18.3641
G01 X-0.0707 Y18.3570
G01 X-0.1027 Y18.3515
G01 X-0.1348 Y18.3475
G01 X-0.1509 Y18.3462
G01 X-0.1671 Y18.3452
G01 X-0.1995 Y18.3444
G01 X-0.2319 Y18.3452
G01 X-0.2481 Y18.3462
G01 X-0.2642 Y18.3475
G01 X-0.2963 Y18.3515
G01 X-0.3283 Y18.3570
G01 X-0.3599 Y18.3641
G01 X-0.3755 Y18.3683
G01 X-0.4065 Y18.3777
G01 X-0.4370 Y18.3886
G01 X-0.4521 Y18.3946
G01 X-0.4817 Y18.4077
G01 X-0.5106 Y18.4223
G01 X-0.5388 Y18.4383
G01 X-0.5526 Y18.4468
G01 X-0.5795 Y18.4648
G01 X-0.5995 Y18.4795
G00 Z2.0000
G00 X-0.5995 Y18.6416
G01 F100.00
G01 Z-0.1500
G01 F300.00
G01 X-0.5813 Y18.6225
G01 X-0.5719 Y18.6133
G01 X-0.5522 Y18.5955
G01 X-0.5317 Y18.5787
G01 X-0.5104 Y18.5629
G01 X-0.4884 Y18.5481
G01 X-0.4657 Y18.5345
G01 X-0.4423 Y18.5220
G01 X-0.4183 Y18.5107
G01 X-0.3938 Y18.5005
G01 X-0.3689 Y18.4916
G01 X-0.3435 Y18.4839
G01 X-0.3178 Y18.4775
G01 X-0.2918 Y18.4723
G01 X-0.2787 Y18.4702
G01 X-0.2524 Y18.4670
G01 X-0.2260 Y18.4650
G01 X-0.1995 Y18.4644
G01 X-0.1730 Y18.4650
G01 X-0.1466 Y18.4670
G01 X-0.1203 Y18.4702
G01 X-0.0942 Y18.4747
G01 X-0.0683 Y18.4805
G01 X-0.0555 Y18.4839
G01 X-0.0301 Y18.4916
G01 X-0.0052 Y18.5005
G01 X0.0193 Y18.5107
G01 X0.0433 Y18.5220
G01 X0.0667 Y18.5345
G01 X0.0894 Y18.5481
G01 X0.1114 Y18.5629
G01 X0.1327 Y18.5787
G01 X0.1532 Y18.5955
G01 X0.1729 Y18.6133
G01 X0.1823 Y18.6225
G01 X0.2005 Y18.6416
G01 X0.2005 Y18.8764
G01 X0.1959 Y18.8629
G01 X0.1885 Y18.8436
G01 X0.1802 Y18.8248
G01 X0.1757 Y18.8155
G01 X0.1709 Y18.8064
G01 X0.1607 Y18.7884
G01 X0.1497 Y18.7710
G01 X0.1439 Y18.7625
G01 X0.1316 Y18.7460
G01 X0.1252 Y18.7379
G01 X0.1117 Y18.7223
G01 X0.0975 Y18.7074
G01 X0.0826 Y18.6932
G01 X0.0748 Y18.6863
G01 X0.0589 Y18.6733
G01 X0.0507 Y18.6670
G01 X0.0338 Y18.6551
G01 X0.0164 Y18.6441
G01 X-0.0015 Y18.6340
G01 X-0.0107 Y18.6292
G01 X-0.0293 Y18.6204
G01 X-0.0388 Y18.6163
G01 X-0.0580 Y18.6089
G01 X-0.0678 Y18.6056
G01 X-0.0776 Y18.6024
G01 X-0.0974 Y18.5970
G01 X-0.1075 Y18.5946
G01 X-0.1277 Y18.5905
G01 X-0.1379 Y18.5889
G01 X-0.1583 Y18.5864
G01 X-0.1789 Y18.5849
G01 X-0.1995 Y18.5844
G01 X-0.2201 Y18.5849
G01 X-0.2407 Y18.5864
G01 X-0.2611 Y18.5889
G01 X-0.2713 Y18.5905
G01 X-0.2814 Y18.5924
G01 X-0.3016 Y18.5970
G01 X-0.3214 Y18.6024
G01 X-0.3312 Y18.6056
G01 X-0.3507 Y18.6125
G01 X-0.3602 Y18.6163
G01 X-0.3697 Y18.6204
G01 X-0.3883 Y18.6292
G01 X-0.3975 Y18.6340
G01 X-0.4154 Y18.6441
G01 X-0.4328 Y18.6551
G01 X-0.4497 Y18.6670
G01 X-0.4659 Y18.6797
G01 X-0.4738 Y18.6863
G01 X-0.4891 Y18.7002
G01 X-0.4965 Y18.7074
G01 X-0.5107 Y18.7223
G01 X-0.5242 Y18.7379
G01 X-0.5306 Y18.7460
G01 X-0.5429 Y18.7625
G01 X-0.5487 Y18.7710
G01 X-0.5597 Y18.7884
G01 X-0.5699 Y18.8064
G01 X-0.5747 Y18.8155
G01 X-0.5835 Y18.8342
G01 X-0.5875 Y18.8436
G01 X-0.5949 Y18.8629
G01 X-0.5995 Y18.8764
G00 Z2.0000
G00 X-0.5995 Y19.1323
G01 F100.00
G01 Z-0.1500
G01 F300.00
G01 X-0.5949 Y19.1459
G01 X-0.5875 Y19.1651
G01 X-0.5792 Y19.1839
G01 X-0.5747 Y19.1932
G01 X-0.5649 Y19.2114
G01 X-0.5597 Y19.2203
G01 X-0.5487 Y19.2377
G01 X-0.5429 Y19.2462
G01 X-0.5306 Y19.2628
G01 X-0.5242 Y19.2708
G01 X-0.5107 Y19.2864
G01 X-0.4965 Y19.3013
G01 X-0.4891 Y19.3085
G01 X-0.4738 Y19.3224
G01 X-0.4659 Y19.3290
G01 X-0.4497 Y19.3417
G01 X-0.4328 Y19.3536
G01 X-0.4154 Y19.3646
G01 X-0.3975 Y19.3748
G01 X-0.3883 Y19.3795
G01 X-0.3697 Y19.3883
G01 X-0.3602 Y19.3924
G01 X-0.3507 Y19.3962
G01 X-0.3312 Y19.4032
G01 X-0.3214 Y19.4063
G01 X-0.3016 Y19.4118
G01 X-0.2814 Y19.4163
G01 X-0.2713 Y19.4182
G01 X-0.2611 Y19.4198
G01 X-0.2407 Y19.4223
G01 X-0.2201 Y19.4239
G01 X-0.1995 Y19.4244
G01 X-0.1789 Y19.4239
G01 X-0.1686 Y19.4232
G01 X-0.1481 Y19.4212
G01 X-0.1277 Y19.4182
G01 X-0.1176 Y19.4163
G01 X-0.0974 Y19.4118
G01 X-0.0776 Y19.4063
G01 X-0.0678 Y19.4032
G01 X-0.0483 Y19.3962
G01 X-0.0388 Y19.3924
G01 X-0.0293 Y19.3883
G01 X-0.0107 Y19.3795
G01 X-0.0015 Y19.3748
G01 X0.0164 Y19.3646
G01 X0.0338 Y19.3536
G01 X0.0507 Y19.3417
G01 X0.0669 Y19.3290
G01 X0.0748 Y19.3224
G01 X0.0901 Y19.3085
G01 X0.0975 Y19.3013
G01 X0.1117 Y19.2864
G01 X0.1185 Y19.2787
G01 X0.1252 Y19.2708
G01 X0.1316 Y19.2628
G01 X0.1439 Y19.2462
G01 X0.1497 Y19.2377
G01 X0.1607 Y19.2203
G01 X0.1709 Y19.2024
G01 X0.1757 Y19.1932
G01 X0.1845 Y19.1746
G01 X0.1885 Y19.1651
G01 X0.1959 Y19.1459
G01 X0.2005 Y19.1323
G01 X0.1005 Y19.0044
G01 X0.1001 Y18.9896
G01 X0.0991 Y18.9750
G01 X0.0973 Y18.9603
G01 X0.0947 Y18.9458
G01 X0.0896 Y18.9244
G01 X0.0854 Y18.9103
G01 X0.0804 Y18.8964
G01 X0.0748 Y18.8828
G01 X0.0685 Y18.8695
G01 X0.0615 Y18.8565
G01 X0.0499 Y18.8377
G01 X0.0415 Y18.8257
G01 X0.0324 Y18.8140
G01 X0.0178 Y18.7975
G01 X0.0074 Y18.7871
G01 X-0.0035 Y18.7772
G01 X-0.0208 Y18.7634
G01 X-0.0328 Y18.7549
G01 X-0.0516 Y18.7433
G01 X-0.0646 Y18.7364
G01 X-0.0779 Y18.7301
G01 X-0.0984 Y18.7219
G01 X-0.1195 Y18.7152
G01 X-0.1338 Y18.7117
G01 X-0.1555 Y18.7076
G01 X-0.1774 Y18.7052
G01 X-0.1995 Y18.7044
G01 X-0.2142 Y18.7047
G01 X-0.2289 Y18.7058
G01 X-0.2508 Y18.7088
G01 X-0.2652 Y18.7117
G01 X-0.2866 Y18.7173
G01 X-0.3006 Y18.7219
G01 X-0.3211 Y18.7301
G01 X-0.3344 Y18.7364
G01 X-0.3474 Y18.7433
G01 X-0.3600 Y18.7509
G01 X-0.3782 Y18.7634
G01 X-0.3955 Y18.7772
G01 X-0.4064 Y18.7871
G01 X-0.4168 Y18.7975
G01 X-0.4314 Y18.8140
G01 X-0.4405 Y18.8257
G01 X-0.4530 Y18.8439
G01 X-0.4605 Y18.8565
G01 X-0.4707 Y18.8761
G01 X-0.4767 Y18.8896
G01 X-0.4844 Y18.9103
G01 X-0.4886 Y18.9244
G01 X-0.4937 Y18.9458
G01 X-0.4972 Y18.9676
G01 X-0.4987 Y18.9823
G01 X-0.4995 Y19.0044
G01 X-0.4991 Y19.0191
G01 X-0.4981 Y19.0338
G01 X-0.4951 Y19.0557
G01 X-0.4922 Y19.0701
G01 X-0.4886 Y19.0844
G01 X-0.4820 Y19.1054
G01 X-0.4767 Y19.1192
G01 X-0.4675 Y19.1392
G01 X-0.4605 Y19.1522
G01 X-0.4489 Y19.1710
G01 X-0.4405 Y19.1831
G01 X-0.4267 Y19.2003
G01 X-0.4168 Y19.2112
G01 X-0.4064 Y19.2216
G01 X-0.3955 Y19.2315
G01 X-0.3841 Y19.2409
G01 X-0.3662 Y19.2538
G01 X-0.3537 Y19.2617
G01 X-0.3409 Y19.2689
G01 X-0.3278 Y19.2756
G01 X-0.3075 Y19.2843
G01 X-0.2936 Y19.2892
G01 X-0.2724 Y19.2954
G01 X-0.2580 Y19.2986
G01 X-0.2362 Y19.3021
G01 X-0.2216 Y19.3036
G01 X-0.2069 Y19.3043
G01 X-0.1848 Y19.3040
G01 X-0.1701 Y19.3029
G01 X-0.1555 Y19.3011
G01 X-0.1338 Y19.2971
G01 X-0.1124 Y19.2914
G01 X-0.0984 Y19.2868
G01 X-0.0847 Y19.2815
G01 X-0.0712 Y19.2756
G01 X-0.0581 Y19.2689
G01 X-0.0453 Y19.2617
G01 X-0.0328 Y19.2538
G01 X-0.0149 Y19.2409
G01 X0.0020 Y19.2266
G01 X0.0126 Y19.2165
G01 X0.0228 Y19.2058
G01 X0.0324 Y19.1947
G01 X0.0370 Y19.1889
G01 X0.0415 Y19.1831
G01 X0.0499 Y19.1710
G01 X0.0615 Y19.1522
G01 X0.0717 Y19.1326
G01 X0.0777 Y19.1192
G01 X0.0830 Y19.1054
G01 X0.0896 Y19.0844
G01 X0.0932 Y19.0701
G01 X0.0961 Y19.0557
G01 X0.0991 Y19.0338
G01 X0.1001 Y19.0191
G01 X0.1005 Y19.0044
G01 X-0.0195 Y19.0044
G01 X-0.0200 Y18.9911
G01 X-0.0221 Y18.9736
G01 X-0.0260 Y18.9564
G01 X-0.0300 Y18.9437
G01 X-0.0349 Y18.9314
G01 X-0.0408 Y18.9195
G01 X-0.0498 Y18.9044
G01 X-0.0576 Y18.8936
G01 X-0.0691 Y18.8802
G01 X-0.0786 Y18.8710
G01 X-0.0888 Y18.8625
G01 X-0.0995 Y18.8547
G01 X-0.1108 Y18.8477
G01 X-0.1225 Y18.8416
G01 X-0.1347 Y18.8364
G01 X-0.1515 Y18.8309
G01 X-0.1644 Y18.8278
G01 X-0.1819 Y18.8252
G01 X-0.1951 Y18.8244
G01 X-0.2083 Y18.8246
G01 X-0.2215 Y18.8257
G01 X-0.2346 Y18.8278
G01 X-0.2475 Y18.8309
G01 X-0.2601 Y18.8349
G01 X-0.2724 Y18.8398
G01 X-0.2844 Y18.8456
G01 X-0.2958 Y18.8523
G01 X-0.3067 Y18.8598
G01 X-0.3171 Y18.8681
G01 X-0.3299 Y18.8802
G01 X-0.3386 Y18.8902
G01 X-0.3467 Y18.9007
G01 X-0.3539 Y18.9118
G01 X-0.3603 Y18.9234
G01 X-0.3658 Y18.9355
G01 X-0.3704 Y18.9479
G01 X-0.3741 Y18.9606
G01 X-0.3768 Y18.9736
G01 X-0.3786 Y18.9867
G01 X-0.3794 Y18.9999
G01 X-0.3793 Y19.0132
G01 X-0.3781 Y19.0264
G01 X-0.3760 Y19.0395
G01 X-0.3730 Y19.0524
G01 X-0.3674 Y19.0691
G01 X-0.3622 Y19.0813
G01 X-0.3561 Y19.0931
G01 X-0.3492 Y19.1044
G01 X-0.3414 Y19.1151
G01 X-0.3329 Y19.1252
G01 X-0.3204 Y19.1377
G01 X-0.3102 Y19.1463
G01 X-0.2995 Y19.1540
G01 X-0.2844 Y19.1631
G01 X-0.2724 Y19.1689
G01 X-0.2601 Y19.1738
G01 X-0.2475 Y19.1778
G01 X-0.2346 Y19.1809
G01 X-0.2171 Y19.1835
G01 X-0.2039 Y19.1843
G01 X-0.1907 Y19.1841
G01 X-0.1775 Y19.1830
G01 X-0.1644 Y19.1809
G01 X-0.1472 Y19.1766
G01 X-0.1347 Y19.1723
G01 X-0.1225 Y19.1671
G01 X-0.1070 Y19.1588
G01 X-0.0959 Y19.1515
G01 X-0.0853 Y19.1435
G01 X-0.0754 Y19.1347
G01 X-0.0661 Y19.1252
G01 X-0.0549 Y19.1116
G01 X-0.0523 Y19.1080
G01 X-0.0498 Y19.1044
G01 X-0.0474 Y19.1007
G01 X-0.0408 Y19.0892
G01 X-0.0349 Y19.0773
G01 X-0.0286 Y19.0608
G01 X-0.0249 Y19.0481
G01 X-0.0221 Y19.0351
G01 X-0.0200 Y19.0176
G01 X-0.0195 Y19.0044
G01 X-0.1395 Y19.0044
G01 X-0.1398 Y18.9985
G01 X-0.1407 Y18.9927
G01 X-0.1421 Y18.9869
G01 X-0.1441 Y18.9814
G01 X-0.1466 Y18.9761
G01 X-0.1496 Y18.9710
G01 X-0.1531 Y18.9663
G01 X-0.1571 Y18.9619
G01 X-0.1614 Y18.9580
G01 X-0.1662 Y18.9545
G01 X-0.1712 Y18.9514
G01 X-0.1765 Y18.9489
G01 X-0.1821 Y18.9469
G01 X-0.1878 Y18.9455
G01 X-0.1936 Y18.9447
G01 X-0.1995 Y18.9444
G01 X-0.2054 Y18.9447
G01 X-0.2112 Y18.9455
G01 X-0.2169 Y18.9469
G01 X-0.2225 Y18.9489
G01 X-0.2278 Y18.9514
G01 X-0.2328 Y18.9545
G01 X-0.2376 Y18.9580
G01 X-0.2419 Y18.9619
G01 X-0.2459 Y18.9663
G01 X-0.2494 Y18.9710
G01 X-0.2524 Y18.9761
G01 X-0.2549 Y18.9814
G01 X-0.2569 Y18.9869
G01 X-0.2583 Y18.9927
G01 X-0.2592 Y18.9985
G01 X-0.2595 Y19.0044
G01 X-0.2592 Y19.0102
G01 X-0.2583 Y19.0161
G01 X-0.2569 Y19.0218
G01 X-0.2549 Y19.0273
G01 X-0.2524 Y19.0326
G01 X-0.2494 Y19.0377
G01 X-0.2459 Y19.0424
G01 X-0.2419 Y19.0468
G01 X-0.2376 Y19.0507
G01 X-0.2328 Y19.0543
G01 X-0.2278 Y19.0573
G01 X-0.2225 Y19.0598
G01 X-0.2169 Y19.0618
G01 X-0.2112 Y19.0632
G01 X-0.2054 Y19.0641
G01 X-0.1995 Y19.0644
G01 X-0.1936 Y19.0641
G01 X-0.1878 Y19.0632
G01 X-0.1821 Y19.0618
G01 X-0.1765 Y19.0598
G01 X-0.1712 Y19.0573
G01 X-0.1662 Y19.0543
G01 X-0.1614 Y19.0507
G01 X-0.1571 Y19.0468
G01 X-0.1531 Y19.0424
G01 X-0.1496 Y19.0377
G01 X-0.1466 Y19.0326
G01 X-0.1441 Y19.0273
G01 X-0.1421 Y19.0218
G01 X-0.1407 Y19.0161
G01 X-0.1398 Y19.0102
G01 X-0.1395 Y19.0044
G01 X0.2005 Y19.3671
G01 X0.1823 Y19.3862
G01 X0.1729 Y19.3955
G01 X0.1532 Y19.4133
G01 X0.1327 Y19.4301
G01 X0.1114 Y19.4459
G01 X0.0894 Y19.4606
G01 X0.0667 Y19.4742
G01 X0.0433 Y19.4867
G01 X0.0193 Y19.4980
G01 X-0.0052 Y19.5082
G01 X-0.0301 Y19.5171
G01 X-0.0555 Y19.5248
G01 X-0.0812 Y19.5312
G01 X-0.1072 Y19.5364
G01 X-0.1334 Y19.5403
G01 X-0.1598 Y19.5429
G01 X-0.1862 Y19.5442
G01 X-0.1995 Y19.5444
G01 X-0.2260 Y19.5437
G01 X-0.2524 Y19.5418
G01 X-0.2787 Y19.5385
G01 X-0.3048 Y19.5340
G01 X-0.3307 Y19.5282
G01 X-0.3563 Y19.5211
G01 X-0.3689 Y19.5171
G01 X-0.3938 Y19.5082
G01 X-0.4183 Y19.4980
G01 X-0.4423 Y19.4867
G01 X-0.4657 Y19.4742
G01 X-0.4884 Y19.4606
G01 X-0.5104 Y19.4459
G01 X-0.5317 Y19.4301
G01 X-0.5522 Y19.4133
G01 X-0.5719 Y19.3955
G01 X-0.5813 Y19.3862
G01 X-0.5995 Y19.3671
G00 Z2.0000
G00 X-0.5995 Y19.5293
G01 F100.00
G01 Z-0.1500
G01 F300.00
G01 X-0.5795 Y19.5440
G01 X-0.5526 Y19.5620
G01 X-0.5248 Y19.5786
G01 X-0.5106 Y19.5864
G01 X-0.4817 Y19.6010
G01 X-0.4521 Y19.6141
G01 X-0.4370 Y19.6201
G01 X-0.4065 Y19.6311
G01 X-0.3911 Y19.6359
G01 X-0.3599 Y19.6446
G01 X-0.3283 Y19.6517
G01 X-0.2963 Y19.6572
G01 X-0.2642 Y19.6612
G01 X-0.2481 Y19.6626
G01 X-0.2157 Y19.6642
G01 X-0.1995 Y19.6644
G01 X-0.1671 Y19.6636
G01 X-0.1509 Y19.6626
G01 X-0.1187 Y19.6594
G01 X-0.1027 Y19.6572
G01 X-0.0707 Y19.6517
G01 X-0.0391 Y19.6446
G01 X-0.0235 Y19.6405
G01 X0.0075 Y19.6311
G01 X0.0380 Y19.6201
G01 X0.0531 Y19.6141
G01 X0.0827 Y19.6010
G01 X0.1116 Y19.5864
G01 X0.1398 Y19.5705
G01 X0.1536 Y19.5620
G01 X0.1805 Y19.5440
G01 X0.2005 Y19.5293
G01 X0.2005 Y19.6740
G01 X0.1682 Y19.6923
G01 X0.1340 Y19.7095
G01 X0.0990 Y19.7250
G01 X0.0633 Y19.7388
G01 X0.0269 Y19.7508
G01 X0.0085 Y19.7561
G01 X-0.0286 Y19.7654
G01 X-0.0661 Y19.7729
G01 X-0.1040 Y19.7785
G01 X-0.1230 Y19.7806
G01 X-0.1612 Y19.7834
G01 X-0.1995 Y19.7844
G01 X-0.2378 Y19.7834
G01 X-0.2569 Y19.7823
G01 X-0.2950 Y19.7785
G01 X-0.3329 Y19.7729
G01 X-0.3704 Y19.7654
G01 X-0.3890 Y19.7610
G01 X-0.4259 Y19.7508
G01 X-0.4623 Y19.7388
G01 X-0.4980 Y19.7250
G01 X-0.5330 Y19.7095
G01 X-0.5672 Y19.6923
G01 X-0.5995 Y19.6740
G00 Z2.0000
G00 X-0.5995 Y19.8105
G01 F100.00
G01 Z-0.1500
G01 F300.00
G01 X-0.5642 Y19.8272
G01 X-0.5439 Y19.8359
G01 X-0.5234 Y19.8441
G01 X-0.5027 Y19.8518
G01 X-0.4818 Y19.8589
G01 X-0.4608 Y19.8656
G01 X-0.4395 Y19.8718
G01 X-0.4182 Y19.8774
G01 X-0.3967 Y19.8825
G01 X-0.3751 Y19.8871
G01 X-0.3534 Y19.8911
G01 X-0.3316 Y19.8946
G01 X-0.3097 Y19.8976
G01 X-0.2877 Y19.9000
G01 X-0.2657 Y19.9019
G01 X-0.2437 Y19.9033
G01 X-0.2216 Y19.9041
G01 X-0.1995 Y19.9044
G01 X-0.1774 Y19.9041
G01 X-0.1553 Y19.9033
G01 X-0.1333 Y19.9019
G01 X-0.1113 Y19.9000
G01 X-0.0893 Y19.8976
G01 X-0.0674 Y19.8946
G01 X-0.0456 Y19.8911
G01 X-0.0239 Y19.8871
G01 X-0.0023 Y19.8825
G01 X0.0192 Y19.8774
G01 X0.0405 Y19.8718
G01 X0.0618 Y19.8656
G01 X0.0828 Y19.8589
G01 X0.1037 Y19.8518
G01 X0.1244 Y19.8441
G01 X0.1449 Y19.8359
G01 X0.1652 Y19.8272
G01 X0.2005 Y19.8105
G00 Z2.0000
G00 X0.2005 Y19.9426
G01 F100.00
G01 Z-0.1500
G01 F300.00
G01 X0.1676 Y19.9560
G01 X0.1441 Y19.9647
G01 X0.1205 Y19.9729
G01 X0.0966 Y19.9804
G01 X0.0725 Y19.9874
G01 X0.0483 Y19.9938
G01 X0.0240 Y19.9996
G01 X-0.0005 Y20.0048
G01 X-0.0251 Y20.0093
G01 X-0.0498 Y20.0133
G01 X-0.0746 Y20.0167
G01 X-0.0995 Y20.0195
G01 X-0.1245 Y20.0216
G01 X-0.1495 Y20.0231
G01 X-0.1745 Y20.0241
G01 X-0.1995 Y20.0244
G01 X-0.2245 Y20.0241
G01 X-0.2495 Y20.0231
G01 X-0.2745 Y20.0216
G01 X-0.2995 Y20.0195
G01 X-0.3244 Y20.0167
G01 X-0.3492 Y20.0133
G01 X-0.3739 Y20.0093
G01 X-0.3985 Y20.0048
G01 X-0.4230 Y19.9996
G01 X-0.4473 Y19.9938
G01 X-0.4715 Y19.9874
G01 X-0.4956 Y19.9804
G01 X-0.5195 Y19.9729
G01 X-0.5431 Y19.9647
G01 X-0.5666 Y19.9560
G01 X-0.5995 Y19.9426
G00 Z2.0000
G00 X-0.5995 Y20.0718
G01 F100.00
G01 Z-0.1500
G01 F300.00
G01 X-0.5836 Y20.0777
G01 X-0.5571 Y20.0868
G01 X-0.5304 Y20.0953
G01 X-0.5036 Y20.1031
G01 X-0.4765 Y20.1102
G01 X-0.4493 Y20.1167
G01 X-0.4219 Y20.1225
G01 X-0.3944 Y20.1276
G01 X-0.3668 Y20.1320
G01 X-0.3390 Y20.1358
G01 X-0.3112 Y20.1389
G01 X-0.2834 Y20.1413
G01 X-0.2554 Y20.1430
G01 X-0.2275 Y20.1440
G01 X-0.1995 Y20.1444
G01 X-0.1715 Y20.1440
G01 X-0.1436 Y20.1430
G01 X-0.1156 Y20.1413
G01 X-0.0878 Y20.1389
G01 X-0.0600 Y20.1358
G01 X-0.0322 Y20.1320
G01 X-0.0046 Y20.1276
G01 X0.0229 Y20.1225
G01 X0.0503 Y20.1167
G01 X0.0775 Y20.1102
G01 X0.1046 Y20.1031
G01 X0.1314 Y20.0953
G01 X0.1581 Y20.0868
G01 X0.1846 Y20.0777
G01 X0.2005 Y20.0718
G01 X0.2005 Y20.1991
G01 X0.1663 Y20.2101
G01 X0.1366 Y20.2187
G01 X0.1067 Y20.2266
G01 X0.0766 Y20.2337
G01 X0.0463 Y20.2402
G01 X0.0159 Y20.2458
G01 X-0.0146 Y20.2507
G01 X-0.0453 Y20.2549
G01 X-0.0760 Y20.2583
G01 X-0.1068 Y20.2610
G01 X-0.1377 Y20.2628
G01 X-0.1686 Y20.2640
G01 X-0.1995 Y20.2644
G01 X-0.2304 Y20.2640
G01 X-0.2613 Y20.2628
G01 X-0.2922 Y20.2610
G01 X-0.3230 Y20.2583
G01 X-0.3537 Y20.2549
G01 X-0.3844 Y20.2507
G01 X-0.4149 Y20.2458
G01 X-0.4453 Y20.2402
G01 X-0.4756 Y20.2337
G01 X-0.5057 Y20.2266
G01 X-0.5356 Y20.2187
G01 X-0.5653 Y20.2101
G01 X-0.5995 Y20.1991
G00 Z2.0000
G00 X-0.5995 Y20.3251
G01 F100.00
G01 Z-0.1500
G01 F300.00
G01 X-0.5676 Y20.3344
G01 X-0.5348 Y20.3430
G01 X-0.5019 Y20.3508
G01 X-0.4687 Y20.3578
G01 X-0.4354 Y20.3640
G01 X-0.4020 Y20.3694
G01 X-0.3684 Y20.3740
G01 X-0.3348 Y20.3777
G01 X-0.3010 Y20.3806
G01 X-0.2672 Y20.3827
G01 X-0.2334 Y20.3839
G01 X-0.1995 Y20.3844
G01 X-0.1656 Y20.3839
G01 X-0.1318 Y20.3827
G01 X-0.0980 Y20.3806
G01 X-0.0642 Y20.3777
G01 X-0.0306 Y20.3740
G01 X0.0030 Y20.3694
G01 X0.0364 Y20.3640
G01 X0.0697 Y20.3578
G01 X0.1029 Y20.3508
G01 X0.1358 Y20.3430
G01 X0.1686 Y20.3344
G01 X0.2005 Y20.3251
G00 Z2.0000
G00 X0.2005 Y20.4500
G01 F100.00
G01 Z-0.1500
G01 F300.00
G01 X0.1650 Y20.4594
G01 X0.1292 Y20.4679
G01 X0.0931 Y20.4755
G01 X0.0569 Y20.4823
G01 X0.0206 Y20.4881
G01 X-0.0159 Y20.4931
G01 X-0.0525 Y20.4971
G01 X-0.0892 Y20.5003
G01 X-0.1259 Y20.5026
G01 X-0.1627 Y20.5039
G01 X-0.1995 Y20.5044
G01 X-0.2363 Y20.5039
G01 X-0.2731 Y20.5026
G01 X-0.3098 Y20.5003
G01 X-0.3465 Y20.4971
G01 X-0.3831 Y20.4931
G01 X-0.4196 Y20.4881
G01 X-0.4559 Y20.4823
G01 X-0.4921 Y20.4755
G01 X-0.5282 Y20.4679
G01 X-0.5640 Y20.4594
G01 X-0.5995 Y20.4500
G00 Z2.0000
G00 X-0.5995 Y20.5741
G01 F100.00
G01 Z-0.1500
G01 F300.00
G01 X-0.5544 Y20.5850
G01 X-0.5155 Y20.5932
G01 X-0.4765 Y20.6005
G01 X-0.4372 Y20.6068
G01 X-0.3978 Y20.6122
G01 X-0.3583 Y20.6166
G01 X-0.3187 Y20.6200
G01 X-0.2790 Y20.6224
G01 X-0.2393 Y20.6239
G01 X-0.1995 Y20.6244
G01 X-0.1597 Y20.6239
G01 X-0.1200 Y20.6224
G01 X-0.0803 Y20.6200
G01 X-0.0407 Y20.6166
G01 X-0.0012 Y20.6122
G01 X0.0382 Y20.6068
G01 X0.0775 Y20.6005
G01 X0.1165 Y20.5932
G01 X0.1554 Y20.5850
G01 X0.2005 Y20.5741
G01 X0.2005 Y20.6976
G01 X0.1817 Y20.7021
G01 X0.1400 Y20.7109
G01 X0.0980 Y20.7187
G01 X0.0558 Y20.7255
G01 X0.0135 Y20.7313
G01 X-0.0290 Y20.7360
G01 X-0.0715 Y20.7396
G01 X-0.1141 Y20.7423
G01 X-0.1568 Y20.7438
G01 X-0.1995 Y20.7444
G01 X-0.2422 Y20.7438
G01 X-0.2849 Y20.7423
G01 X-0.3275 Y20.7396
G01 X-0.3700 Y20.7360
G01 X-0.4125 Y20.7313
G01 X-0.4548 Y20.7255
G01 X-0.4970 Y20.7187
G01 X-0.5390 Y20.7109
G01 X-0.5807 Y20.7021
G01 X-0.5995 Y20.6976
G00 Z2.0000
G00 X-0.5995 Y20.8208
G01 F100.00
G01 Z-0.1500
G01 F300.00
G01 X-0.5624 Y20.8286
G01 X-0.5175 Y20.8370
G01 X-0.4724 Y20.8442
G01 X-0.4272 Y20.8504
G01 X-0.3818 Y20.8554
G01 X-0.3363 Y20.8593
G01 X-0.2908 Y20.8621
G01 X-0.2451 Y20.8638
G01 X-0.1995 Y20.8644
G01 X-0.1539 Y20.8638
G01 X-0.1082 Y20.8621
G01 X-0.0627 Y20.8593
G01 X-0.0172 Y20.8554
G01 X0.0282 Y20.8504
G01 X0.0734 Y20.8442
G01 X0.1185 Y20.8370
G01 X0.1634 Y20.8286
G01 X0.2005 Y20.8208
G01 X0.2005 Y20.9434
G01 X0.1868 Y20.9463
G01 X0.1390 Y20.9552
G01 X0.0910 Y20.9629
G01 X0.0429 Y20.9695
G01 X-0.0054 Y20.9748
G01 X-0.0538 Y20.9790
G01 X-0.1023 Y20.9820
G01 X-0.1509 Y20.9838
G01 X-0.1995 Y20.9844
G01 X-0.2481 Y20.9838
G01 X-0.2967 Y20.9820
G01 X-0.3452 Y20.9790
G01 X-0.3936 Y20.9748
G01 X-0.4419 Y20.9695
G01 X-0.4900 Y20.9629
G01 X-0.5380 Y20.9552
G01 X-0.5858 Y20.9463
G01 X-0.5995 Y20.9434
G00 Z2.0000
G00 X-0.5995 Y21.0658
G01 F100.00
G01 Z-0.1500
G01 F300.00
G01 X-0.5585 Y21.0734
G01 X-0.5076 Y21.0816
G01 X-0.4566 Y21.0886
G01 X-0.4053 Y21.0943
G01 X-0.3540 Y21.0987
G01 X-0.3025 Y21.1018
G01 X-0.2510 Y21.1037
G01 X-0.1995 Y21.1044
G01 X-0.1480 Y21.1037
G01 X-0.0965 Y21.1018
G01 X-0.0450 Y21.0987
G01 X0.0063 Y21.0943
G01 X0.0576 Y21.0886
G01 X0.1086 Y21.0816
G01 X0.1595 Y21.0734
G01 X0.2005 Y21.0658
G00 Z2.0000
G00 X0.2005 Y21.1879
G01 F100.00
G01 Z-0.1500
G01 F300.00
G01 X0.1800 Y21.1917
G01 X0.1262 Y21.2003
G01 X0.0723 Y21.2077
G01 X0.0181 Y21.2137
G01 X-0.0362 Y21.2183
G01 X-0.0906 Y21.2217
G01 X-0.1450 Y21.2237
G01 X-0.1995 Y21.2244
G01 X-0.2540 Y21.2237
G01 X-0.3084 Y21.2217
G01 X-0.3628 Y21.2183
G01 X-0.4171 Y21.2137
G01 X-0.4713 Y21.2077
G01 X-0.5252 Y21.2003
G01 X-0.5790 Y21.1917
G01 X-0.5995 Y21.1879
G00 Z2.0000
G00 X-0.5995 Y21.3099
G01 F100.00
G01 Z-0.1500
G01 F300.00
G01 X-0.5428 Y21.3190
G01 X-0.4859 Y21.3268
G01 X-0.4289 Y21.3331
G01 X-0.3716 Y21.3380
G01 X-0.3143 Y21.3415
G01 X-0.2569 Y21.3437
G01 X-0.1995 Y21.3444
G01 X-0.1421 Y21.3437
G01 X-0.0847 Y21.3415
G01 X-0.0274 Y21.3380
G01 X0.0299 Y21.3331
G01 X0.0869 Y21.3268
G01 X0.1438 Y21.3190
G01 X0.2005 Y21.3099
G00 Z2.0000
G00 X0.2005 Y21.4315
G01 F100.00
G01 Z-0.1500
G01 F300.00
G01 X0.1615 Y21.4377
G01 X0.1016 Y21.4459
G01 X0.0416 Y21.4525
G01 X-0.0185 Y21.4577
G01 X-0.0788 Y21.4614
G01 X-0.1391 Y21.4636
G01 X-0.1995 Y21.4644
G01 X-0.2599 Y21.4636
G01 X-0.3202 Y21.4614
G01 X-0.3805 Y21.4577
G01 X-0.4406 Y21.4525
G01 X-0.5006 Y21.4459
G01 X-0.5605 Y21.4377
G01 X-0.5995 Y21.4315
G00 Z2.0000
G00 X-0.5995 Y21.5530
G01 F100.00
G01 Z-0.1500
G01 F300.00
G01 X-0.5781 Y21.5564
G01 X-0.5153 Y21.5650
G01 X-0.4524 Y21.5719
G01 X-0.3893 Y21.5774
G01 X-0.3261 Y21.5813
G01 X-0.2628 Y21.5836
G01 X-0.1995 Y21.5844
G01 X-0.1362 Y21.5836
G01 X-0.0729 Y21.5813
G01 X-0.0097 Y21.5774
G01 X0.0534 Y21.5719
G01 X0.1163 Y21.5650
G01 X0.1791 Y21.5564
G01 X0.2005 Y21.5530
G01 X0.2005 Y21.6745
G01 X0.1967 Y21.6751
G01 X0.1310 Y21.6841
G01 X0.0651 Y21.6914
G01 X-0.0009 Y21.6970
G01 X-0.0670 Y21.7011
G01 X-0.1332 Y21.7036
G01 X-0.1995 Y21.7044
G01 X-0.2658 Y21.7036
G01 X-0.3320 Y21.7011
G01 X-0.3981 Y21.6970
G01 X-0.4641 Y21.6914
G01 X-0.5300 Y21.6841
G01 X-0.5995 Y21.6745
G00 Z2.0000
G00 X-0.5995 Y21.7957
G01 F100.00
G01 Z-0.1500
G01 F300.00
G01 X-0.5447 Y21.8032
G01 X-0.4759 Y21.8108
G01 X-0.4070 Y21.8167
G01 X-0.3379 Y21.8210
G01 X-0.2687 Y21.8235
G01 X-0.1995 Y21.8244
G01 X-0.1303 Y21.8235
G01 X-0.0611 Y21.8210
G01 X0.0080 Y21.8167
G01 X0.0769 Y21.8108
G01 X0.1457 Y21.8032
G01 X0.2005 Y21.7957
G00 Z2.0000
G00 X0.2005 Y21.9168
G01 F100.00
G01 Z-0.1500
G01 F300.00
G01 X0.1604 Y21.9223
G01 X0.0887 Y21.9302
G01 X0.0168 Y21.9364
G01 X-0.0552 Y21.9408
G01 X-0.1273 Y21.9435
G01 X-0.1995 Y21.9444
G01 X-0.2717 Y21.9435
G01 X-0.3438 Y21.9408
G01 X-0.4158 Y21.9364
G01 X-0.4877 Y21.9302
G01 X-0.5594 Y21.9223
G01 X-0.5995 Y21.9168
G01 X-0.5995 Y22.0379
G01 X-0.5741 Y22.0414
G01 X-0.4994 Y22.0496
G01 X-0.4246 Y22.0561
G01 X-0.3496 Y22.0607
G01 X-0.2746 Y22.0634
G01 X-0.1995 Y22.0644
G01 X-0.1244 Y22.0634
G01 X-0.0494 Y22.0607
G01 X0.0256 Y22.0561
G01 X0.1004 Y22.0496
G01 X0.1751 Y22.0414
G01 X0.2005 Y22.0379
G00 Z2.0000
G00 X0.2005 Y22.1590
G01 F100.00
G01 Z-0.1500
G01 F300.00
G01 X0.1122 Y22.1691
G01 X0.0344 Y22.1757
G01 X-0.0435 Y22.1805
G01 X-0.1215 Y22.1834
G01 X-0.1995 Y22.1844
G01 X-0.2775 Y22.1834
G01 X-0.3555 Y22.1805
G01 X-0.4334 Y22.1757
G01 X-0.5112 Y22.1691
G01 X-0.5995 Y22.1590
G00 Z2.0000
G00 X-0.5995 Y22.2800
G01 F100.00
G01 Z-0.1500
G01 F300.00
G01 X-0.5230 Y22.2885
G01 X-0.4423 Y22.2954
G01 X-0.3614 Y22.3004
G01 X-0.2805 Y22.3034
G01 X-0.1995 Y22.3044
G01 X-0.1185 Y22.3034
G01 X-0.0376 Y22.3004
G01 X0.0433 Y22.2954
G01 X0.1240 Y22.2885
G01 X0.2005 Y22.2800
G00 Z2.0000
G00 X0.2005 Y22.4007
G01 F100.00
G01 Z-0.1500
G01 F300.00
G01 X0.1357 Y22.4079
G01 X0.0521 Y22.4151
G01 X-0.0317 Y22.4202
G01 X-0.1156 Y22.4233
G01 X-0.1995 Y22.4244
G01 X-0.2834 Y22.4233
G01 X-0.3673 Y22.4202
G01 X-0.4511 Y22.4151
G01 X-0.5347 Y22.4079
G01 X-0.5995 Y22.4007
G00 Z2.0000
G00 X-0.5995 Y22.5214
G01 F100.00
G01 Z-0.1500
G01 F300.00
G01 X-0.5465 Y22.5273
G01 X-0.4599 Y22.5348
G01 X-0.3732 Y22.5401
G01 X-0.2864 Y22.5433
G01 X-0.1995 Y22.5444
G01 X-0.1126 Y22.5433
G01 X-0.0258 Y22.5401
G01 X0.0609 Y22.5348
G01 X0.1475 Y22.5273
G01 X0.2005 Y22.5214
G00 Z2.0000
G00 X0.2005 Y22.6422
G01 F100.00
G01 Z-0.1500
G01 F300.00
G01 X0.1592 Y22.6467
G01 X0.0697 Y22.6544
G01 X-0.0199 Y22.6600
G01 X-0.1097 Y22.6633
G01 X-0.1995 Y22.6644
G01 X-0.2893 Y22.6633
G01 X-0.3791 Y22.6600
G01 X-0.4687 Y22.6544
G01 X-0.5582 Y22.6467
G01 X-0.5995 Y22.6422
G01 X-0.5995 Y22.7629
G01 X-0.5700 Y22.7662
G01 X-0.4776 Y22.7741
G01 X-0.3850 Y22.7798
G01 X-0.2923 Y22.7832
G01 X-0.1995 Y22.7844
G01 X-0.1067 Y22.7832
G01 X-0.0140 Y22.7798
G01 X0.0786 Y22.7741
G01 X0.1710 Y22.7662
G01 X0.2005 Y22.7629
G00 Z2.0000
G00 X0.2005 Y22.8836
G01 F100.00
G01 Z-0.1500
G01 F300.00
G01 X0.1828 Y22.8856
G01 X0.0874 Y22.8938
G01 X-0.0081 Y22.8997
G01 X-0.1038 Y22.9032
G01 X-0.1995 Y22.9044
G01 X-0.2952 Y22.9032
G01 X-0.3909 Y22.8997
G01 X-0.4864 Y22.8938
G01 X-0.5818 Y22.8856
G01 X-0.5995 Y22.8836
G00 Z2.0000
G00 X-0.5995 Y23.0043
G01 F100.00
G01 Z-0.1500
G01 F300.00
G01 X-0.4952 Y23.0135
G01 X-0.3968 Y23.0195
G01 X-0.2982 Y23.0232
G01 X-0.1995 Y23.0244
G01 X-0.1008 Y23.0232
G01 X-0.0022 Y23.0195
G01 X0.0962 Y23.0135
G01 X0.2005 Y23.0043
G00 Z2.0000
G00 X0.2005 Y23.1249
G01 F100.00
G01 Z-0.1500
G01 F300.00
G01 X0.1051 Y23.1331
G01 X0.0036 Y23.1394
G01 X-0.0979 Y23.1431
G01 X-0.1995 Y23.1444
G01 X-0.3011 Y23.1431
G01 X-0.4026 Y23.1394
G01 X-0.5041 Y23.1331
G01 X-0.5995 Y23.1249
G00 Z2.0000
G00 X-0.5995 Y23.2454
G01 F100.00
G01 Z-0.1500
G01 F300.00
G01 X-0.5129 Y23.2528
G01 X-0.4085 Y23.2592
G01 X-0.3040 Y23.2631
G01 X-0.1995 Y23.2644
G01 X-0.0950 Y23.2631
G01 X0.0095 Y23.2592
G01 X0.1139 Y23.2528
G01 X0.2005 Y23.2454
G00 Z2.0000
G00 X0.2005 Y23.3658
G01 F100.00
G01 Z-0.1500
G01 F300.00
G01 X0.1227 Y23.3725
G01 X0.0154 Y23.3791
G01 X-0.0920 Y23.3830
G01 X-0.1995 Y23.3844
G01 X-0.3070 Y23.3830
G01 X-0.4144 Y23.3791
G01 X-0.5217 Y23.3725
G01 X-0.5995 Y23.3658
G00 Z2.0000
G00 X-0.5995 Y23.4862
G01 F100.00
G01 Z-0.1500
G01 F300.00
G01 X-0.5305 Y23.4922
G01 X-0.4203 Y23.4989
G01 X-0.3099 Y23.5030
G01 X-0.1995 Y23.5044
G01 X-0.0891 Y23.5030
G01 X0.0213 Y23.4989
G01 X0.1315 Y23.4922
G01 X0.2005 Y23.4862
G00 Z2.0000
G00 X0.2005 Y23.6067
G01 F100.00
G01 Z-0.1500
G01 F300.00
G01 X0.1404 Y23.6118
G01 X0.0272 Y23.6188
G01 X-0.0861 Y23.6230
G01 X-0.1995 Y23.6244
G01 X-0.3129 Y23.6230
G01 X-0.4262 Y23.6188
G01 X-0.5394 Y23.6118
G01 X-0.5995 Y23.6067
G00 Z2.0000
G00 X-0.5995 Y23.7271
G01 F100.00
G01 Z-0.1500
G01 F300.00
G01 X-0.5482 Y23.7315
G01 X-0.4321 Y23.7387
G01 X-0.3158 Y23.7429
G01 X-0.1995 Y23.7444
G01 X-0.0832 Y23.7429
G01 X0.0331 Y23.7387
G01 X0.1492 Y23.7315
G01 X0.2005 Y23.7271
G01 X0.2005 Y23.8475
G01 X0.1580 Y23.8512
G01 X0.0390 Y23.8585
G01 X-0.0802 Y23.8629
G01 X-0.1995 Y23.8644
G01 X-0.3188 Y23.8629
G01 X-0.4380 Y23.8585
G01 X-0.5570 Y23.8512
G01 X-0.5995 Y23.8475
G01 X-0.5995 Y23.9680
G01 X-0.5659 Y23.9709
G01 X-0.4439 Y23.9784
G01 X-0.3217 Y23.9829
G01 X-0.1995 Y23.9844
G01 X-0.0773 Y23.9829
G01 X0.0449 Y23.9784
G01 X0.1669 Y23.9709
G01 X0.2005 Y23.9680
G00 Z2.0000
G00 X0.2005 Y24.0884
G01 F100.00
G01 Z-0.1500
G01 F300.00
G01 X0.1757 Y24.0905
G01 X0.0507 Y24.0982
G01 X-0.0743 Y24.1028
G01 X-0.1995 Y24.1044
G01 X-0.3247 Y24.1028
G01 X-0.4497 Y24.0982
G01 X-0.5747 Y24.0905
G01 X-0.5995 Y24.0884
G00 Z2.0000
G00 X-0.5995 Y24.2088
G01 F100.00
G01 Z-0.1500
G01 F300.00
G01 X-0.5835 Y24.2102
G01 X-0.4556 Y24.2181
G01 X-0.3276 Y24.2228
G01 X-0.1995 Y24.2244
G01 X-0.0714 Y24.2228
G01 X0.0566 Y24.2181
G01 X0.1845 Y24.2102
G01 X0.2005 Y24.2088
G00 Z2.0000
G00 X0.2005 Y24.3293
G01 F100.00
G01 Z-0.1500
G01 F300.00
G01 X0.0625 Y24.3379
G01 X-0.0684 Y24.3428
G01 X-0.1995 Y24.3444
G01 X-0.3306 Y24.3428
G01 X-0.4615 Y24.3379
G01 X-0.5995 Y24.3293
G00 Z2.0000
G00 X-0.5995 Y24.4497
G01 F100.00
G01 Z-0.1500
G01 F300.00
G01 X-0.4674 Y24.4578
G01 X-0.3335 Y24.4627
G01 X-0.1995 Y24.4644
G01 X-0.0655 Y24.4627
G01 X0.0684 Y24.4578
G01 X0.2005 Y24.4497
G00 Z2.0000
G00 X0.2005 Y24.5699
G01 F100.00
G01 Z-0.1500
G01 F300.00
G01 X0.0743 Y24.5776
G01 X-0.0626 Y24.5827
G01 X-0.1995 Y24.5844
G01 X-0.3364 Y24.5827
G01 X-0.4733 Y24.5776
G01 X-0.5995 Y24.5699
G00 Z2.0000
G00 X-0.5995 Y24.6901
G01 F100.00
G01 Z-0.1500
G01 F300.00
G01 X-0.4792 Y24.6975
G01 X-0.3394 Y24.7026
G01 X-0.1995 Y24.7044
G01 X-0.0596 Y24.7026
G01 X0.0802 Y24.6975
G01 X0.2005 Y24.6901
G01 X0.2005 Y24.8103
G01 X0.0861 Y24.8174
G01 X-0.0567 Y24.8226
G01 X-0.1995 Y24.8244
G01 X-0.3423 Y24.8226
G01 X-0.4851 Y24.8174
G01 X-0.5995 Y24.8103
G00 Z2.0000
G00 X-0.5995 Y24.9305
G01 F100.00
G01 Z-0.1500
G01 F300.00
G01 X-0.4910 Y24.9372
G01 X-0.3453 Y24.9426
G01 X-0.1995 Y24.9444
G01 X-0.0537 Y24.9426
G01 X0.0920 Y24.9372
G01 X0.2005 Y24.9305
G00 Z2.0000
G00 X0.2005 Y25.0508
G01 F100.00
G01 Z-0.1500
G01 F300.00
G01 X0.0979 Y25.0571
G01 X-0.0508 Y25.0625
G01 X-0.1995 Y25.0644
G01 X-0.3482 Y25.0625
G01 X-0.4969 Y25.0571
G01 X-0.5995 Y25.0508
G00 Z2.0000
G00 X-0.5995 Y25.1710
G01 F100.00
G01 Z-0.1500
G01 F300.00
G01 X-0.5027 Y25.1769
G01 X-0.3512 Y25.1825
G01 X-0.1995 Y25.1844
G01 X-0.0478 Y25.1825
G01 X0.1037 Y25.1769
G01 X0.2005 Y25.1710
G00 Z2.0000
G00 X0.2005 Y25.2912
G01 F100.00
G01 Z-0.1500
G01 F300.00
G01 X0.1096 Y25.2968
G01 X-0.0449 Y25.3025
G01 X-0.1995 Y25.3044
G01 X-0.3541 Y25.3025
G01 X-0.5086 Y25.2968
G01 X-0.5995 Y25.2912
G00 Z2.0000
G00 X-0.5995 Y25.4114
G01 F100.00
G01 Z-0.1500
G01 F300.00
G01 X-0.5145 Y25.4166
G01 X-0.3571 Y25.4224
G01 X-0.1995 Y25.4244
G01 X-0.0419 Y25.4224
G01 X0.1155 Y25.4166
G01 X0.2005 Y25.4114
G00 Z2.0000
G00 X0.2005 Y25.5316
G01 F100.00
G01 Z-0.1500
G01 F300.00
G01 X0.1214 Y25.5365
G01 X-0.0390 Y25.5424
G01 X-0.1995 Y25.5444
G01 X-0.3600 Y25.5424
G01 X-0.5204 Y25.5365
G01 X-0.5995 Y25.5316
G00 Z2.0000
G00 X-0.5995 Y25.6518
G01 F100.00
G01 Z-0.1500
G01 F300.00
G01 X-0.5263 Y25.6563
G01 X-0.3629 Y25.6624
G01 X-0.1995 Y25.6644
G01 X-0.0361 Y25.6624
G01 X0.1273 Y25.6563
G01 X0.2005 Y25.6518
G00 Z2.0000
G00 X0.2005 Y25.7721
G01 F100.00
G01 Z-0.1500
G01 F300.00
G01 X0.1332 Y25.7762
G01 X-0.0331 Y25.7823
G01 X-0.1995 Y25.7844
G01 X-0.3659 Y25.7823
G01 X-0.5322 Y25.7762
G01 X-0.5995 Y25.7721
G00 Z2.0000
G00 X-0.5995 Y25.8923
G01 F100.00
G01 Z-0.1500
G01 F300.00
G01 X-0.5381 Y25.8961
G01 X-0.3688 Y25.9023
G01 X-0.1995 Y25.9044
G01 X-0.0302 Y25.9023
G01 X0.1391 Y25.8961
G01 X0.2005 Y25.8923
G00 Z2.0000
G00 X0.2005 Y26.0125
G01 F100.00
G01 Z-0.1500
G01 F300.00
G01 X0.1450 Y26.0159
G01 X-0.0272 Y26.0223
G01 X-0.1995 Y26.0244
G01 X-0.3718 Y26.0223
G01 X-0.5440 Y26.0159
G01 X-0.5995 Y26.0125
G01 X-0.5995 Y26.1327
G01 X-0.5498 Y26.1358
G01 X-0.3747 Y26.1422
G01 X-0.1995 Y26.1444
G01 X-0.0243 Y26.1422
G01 X0.1508 Y26.1358
G01 X0.2005 Y26.1327
G01 X0.2005 Y26.2529
G01 X0.1567 Y26.2556
G01 X-0.0213 Y26.2622
G01 X-0.1995 Y26.2644
G01 X-0.3777 Y26.2622
G01 X-0.5557 Y26.2556
G01 X-0.5995 Y26.2529
G00 Z2.0000
G00 X-0.5995 Y26.3731
G01 F100.00
G01 Z-0.1500
G01 F300.00
G01 X-0.5616 Y26.3755
G01 X-0.3806 Y26.3821
G01 X-0.1995 Y26.3844
G01 X-0.0184 Y26.3821
G01 X0.1626 Y26.3755
G01 X0.2005 Y26.3731
G00 Z2.0000
G00 X0.2005 Y26.4934
G01 F100.00
G01 Z-0.1500
G01 F300.00
G01 X0.1685 Y26.4953
G01 X-0.0154 Y26.5021
G01 X-0.1995 Y26.5044
G01 X-0.3836 Y26.5021
G01 X-0.5675 Y26.4953
G01 X-0.5995 Y26.4934
G00 Z2.0000
G00 X-0.5995 Y26.6136
G01 F100.00
G01 Z-0.1500
G01 F300.00
G01 X-0.5734 Y26.6152
G01 X-0.3865 Y26.6221
G01 X-0.1995 Y26.6244
G01 X-0.0125 Y26.6221
G01 X0.1744 Y26.6152
G01 X0.2005 Y26.6136
G00 Z2.0000
G00 X0.2005 Y26.7338
G01 F100.00
G01 Z-0.1500
G01 F300.00
G01 X0.1803 Y26.7350
G01 X-0.0096 Y26.7420
G01 X-0.1995 Y26.7444
G01 X-0.3894 Y26.7420
G01 X-0.5793 Y26.7350
G01 X-0.5995 Y26.7338
G01 X-0.5995 Y26.8540
G01 X-0.5852 Y26.8549
G01 X-0.3924 Y26.8620
G01 X-0.1995 Y26.8644
G01 X-0.0066 Y26.8620
G01 X0.1862 Y26.8549
G01 X0.2005 Y26.8540
G00 Z2.0000
G00 X0.2005 Y26.9742
G01 F100.00
G01 Z-0.1500
G01 F300.00
G01 X-0.0037 Y26.9820
G01 X-0.1995 Y26.9844
G01 X-0.3953 Y26.9820
G01 X-0.5995 Y26.9742
G00 Z2.0000
G00 X-0.5995 Y27.0945
G01 F100.00
G01 Z-0.1500
G01 F300.00
G01 X-0.3983 Y27.1019
G01 X-0.1995 Y27.1044
G01 X-0.0007 Y27.1019
G01 X0.2005 Y27.0945
G01 X0.2005 Y27.2146
G01 X0.0022 Y27.2219
G01 X-0.1995 Y27.2244
G01 X-0.4012 Y27.2219
G01 X-0.5995 Y27.2146
G00 Z2.0000
G00 X-0.5995 Y27.3347
G01 F100.00
G01 Z-0.1500
G01 F300.00
G01 X-0.4042 Y27.3419
G01 X-0.1995 Y27.3444
G01 X0.0052 Y27.3419
G01 X0.2005 Y27.3347
G00 Z2.0000
G00 X0.2005 Y27.4547
G01 F100.00
G01 Z-0.1500
G01 F300.00
G01 X0.0081 Y27.4618
G01 X-0.1995 Y27.4644
G01 X-0.4071 Y27.4618
G01 X-0.5995 Y27.4547
G00 Z2.0000
G00 X-0.5995 Y27.5748
G01 F100.00
G01 Z-0.1500
G01 F300.00
G01 X-0.4101 Y27.5818
G01 X-0.1995 Y27.5844
G01 X0.0111 Y27.5818
G01 X0.2005 Y27.5748
G00 Z2.0000
G00 X0.2005 Y27.6949
G01 F100.00
G01 Z-0.1500
G01 F300.00
G01 X0.0140 Y27.7017
G01 X-0.1995 Y27.7044
G01 X-0.4130 Y27.7017
G01 X-0.5995 Y27.6949
G00 Z2.0000
G00 X-0.5995 Y27.8149
G01 F100.00
G01 Z-0.1500
G01 F300.00
G01 X-0.4160 Y27.8217
G01 X-0.1995 Y27.8244
G01 X0.0170 Y27.8217
G01 X0.2005 Y27.8149
G00 Z2.0000
G00 X0.2005 Y27.9350
G01 F100.00
G01 Z-0.1500
G01 F300.00
G01 X0.0199 Y27.9417
G01 X-0.1995 Y27.9444
G01 X-0.4189 Y27.9417
G01 X-0.5995 Y27.9350
G00 Z2.0000
G00 X-0.5995 Y28.0551
G01 F100.00
G01 Z-0.1500
G01 F300.00
G01 X-0.4218 Y28.0616
G01 X-0.1995 Y28.0644
G01 X0.0228 Y28.0616
G01 X0.2005 Y28.0551
G00 Z2.0000
G00 X0.2005 Y28.1752
G01 F100.00
G01 Z-0.1500
G01 F300.00
G01 X0.0258 Y28.1816
G01 X-0.1995 Y28.1844
G01 X-0.4248 Y28.1816
G01 X-0.5995 Y28.1752
G00 Z2.0000
G00 X-0.5995 Y28.2952
G01 F100.00
G01 Z-0.1500
G01 F300.00
G01 X-0.4277 Y28.3016
G01 X-0.1995 Y28.3044
G01 X0.0287 Y28.3016
G01 X0.2005 Y28.2952
G00 Z2.0000
G00 X0.2005 Y28.4153
G01 F100.00
G01 Z-0.1500
G01 F300.00
G01 X0.0317 Y28.4215
G01 X-0.1995 Y28.4244
G01 X-0.4307 Y28.4215
G01 X-0.5995 Y28.4153
G00 Z2.0000
G00 X-0.5995 Y28.5354
G01 F100.00
G01 Z-0.1500
G01 F300.00
G01 X-0.4336 Y28.5415
G01 X-0.1995 Y28.5444
G01 X0.0346 Y28.5415
G01 X0.2005 Y28.5354
G00 Z2.0000
G00 X0.2005 Y28.6555
G01 F100.00
G01 Z-0.1500
G01 F300.00
G01 X0.0376 Y28.6615
G01 X-0.1995 Y28.6644
G01 X-0.4366 Y28.6615
G01 X-0.5995 Y28.6555
G00 Z2.0000
G00 X-0.5995 Y28.7755
G01 F100.00
G01 Z-0.1500
G01 F300.00
G01 X-0.4395 Y28.7814
G01 X-0.1995 Y28.7844
G01 X0.0405 Y28.7814
G01 X0.2005 Y28.7755
G00 Z2.0000
G00 X0.2005 Y28.8956
G01 F100.00
G01 Z-0.1500
G01 F300.00
G01 X0.0435 Y28.9014
G01 X-0.1995 Y28.9044
G01 X-0.4425 Y28.9014
G01 X-0.5995 Y28.8956
G00 Z2.0000
G00 X-0.5995 Y29.0157
G01 F100.00
G01 Z-0.1500
G01 F300.00
G01 X-0.4454 Y29.0213
G01 X-0.1995 Y29.0244
G01 X0.0464 Y29.0213
G01 X0.2005 Y29.0157
G00 Z2.0000
G00 X0.2005 Y29.1357
G01 F100.00
G01 Z-0.1500
G01 F300.00
G01 X0.0493 Y29.1413
G01 X-0.1995 Y29.1444
G01 X-0.4483 Y29.1413
G01 X-0.5995 Y29.1357
G00 Z2.0000
G00 X-0.5995 Y29.2558
G01 F100.00
G01 Z-0.1500
G01 F300.00
G01 X-0.4513 Y29.2613
G01 X-0.1995 Y29.2644
G01 X0.0523 Y29.2613
G01 X0.2005 Y29.2558
G00 Z2.0000
G00 X0.2005 Y29.3759
G01 F100.00
G01 Z-0.1500
G01 F300.00
G01 X0.0552 Y29.3812
G01 X-0.1995 Y29.3844
G01 X-0.4542 Y29.3812
G01 X-0.5995 Y29.3759
G00 Z2.0000
G00 X-0.5995 Y29.4960
G01 F100.00
G01 Z-0.1500
G01 F300.00
G01 X-0.4572 Y29.5012
G01 X-0.1995 Y29.5044
G01 X0.0582 Y29.5012
G01 X0.2005 Y29.4960
G00 Z2.0000
G00 X0.2005 Y29.6160
G01 F100.00
G01 Z-0.1500
G01 F300.00
G01 X0.0611 Y29.6212
G01 X-0.1995 Y29.6244
G01 X-0.4601 Y29.6212
G01 X-0.5995 Y29.6160
G00 Z2.0000
G00 X-0.5995 Y29.7361
G01 F100.00
G01 Z-0.1500
G01 F300.00
G01 X-0.4631 Y29.7411
G01 X-0.1995 Y29.7444
G01 X0.0641 Y29.7411
G01 X0.2005 Y29.7361
G00 Z2.0000
G00 X0.2005 Y29.8562
G01 F100.00
G01 Z-0.1500
G01 F300.00
G01 X0.0670 Y29.8611
G01 X-0.1995 Y29.8644
G01 X-0.4660 Y29.8611
G01 X-0.5995 Y29.8562
G00 Z2.0000
G00 X-0.5995 Y29.9762
G01 F100.00
G01 Z-0.1500
G01 F300.00
G01 X-0.4690 Y29.9811
G01 X-0.1995 Y29.9844
G01 X0.0700 Y29.9811
G01 X0.2005 Y29.9762
G00 Z2.0000
G00 X0.2005 Y30.0963
G01 F100.00
G01 Z-0.1500
G01 F300.00
G01 X0.0729 Y30.1010
G01 X-0.1995 Y30.1044
G01 X-0.4719 Y30.1010
G01 X-0.5995 Y30.0963
G00 Z2.0000
G00 X-0.5995 Y30.2164
G01 F100.00
G01 Z-0.1500
G01 F300.00
G01 X-0.4749 Y30.2210
G01 X-0.1995 Y30.2244
G01 X0.0759 Y30.2210
G01 X0.2005 Y30.2164
G00 Z2.0000
G00 X0.2005 Y30.3365
G01 F100.00
G01 Z-0.1500
G01 F300.00
G01 X0.0788 Y30.3409
G01 X-0.1995 Y30.3444
G01 X-0.4778 Y30.3409
G01 X-0.5995 Y30.3365
G00 Z2.0000
G00 X-0.5995 Y30.4565
G01 F100.00
G01 Z-0.1500
G01 F300.00
G01 X-0.4807 Y30.4609
G01 X-0.1995 Y30.4644
G01 X0.0817 Y30.4609
G01 X0.2005 Y30.4565
G01 X0.2005 Y30.5766
G01 X0.0847 Y30.5809
G01 X-0.1995 Y30.5844
G01 X-0.4837 Y30.5809
G01 X-0.5995 Y30.5766
G00 Z2.0000
G00 X-0.5995 Y30.6967
G01 F100.00
G01 Z-0.1500
G01 F300.00
G01 X-0.4866 Y30.7008
G01 X-0.1995 Y30.7044
G01 X0.0876 Y30.7008
G01 X0.2005 Y30.6967
G01 X0.2005 Y30.8168
G01 X0.0906 Y30.8208
G01 X-0.1995 Y30.8244
G01 X-0.4896 Y30.8208
G01 X-0.5995 Y30.8168
G00 Z2.0000
G00 X-0.5995 Y30.9368
G01 F100.00
G01 Z-0.1500
G01 F300.00
G01 X-0.4925 Y30.9408
G01 X-0.1995 Y30.9444
G01 X0.0935 Y30.9408
G01 X0.2005 Y30.9368
G01 X0.2005 Y31.0569
G01 X0.0965 Y31.0607
G01 X-0.1995 Y31.0644
G01 X-0.4955 Y31.0607
G01 X-0.5995 Y31.0569
G00 Z2.0000
G00 X-0.5995 Y31.1770
G01 F100.00
G01 Z-0.1500
G01 F300.00
G01 X-0.4984 Y31.1807
G01 X-0.1995 Y31.1844
G01 X0.0994 Y31.1807
G01 X0.2005 Y31.1770
G01 X0.2005 Y31.2970
G01 X0.1024 Y31.3007
G01 X-0.1995 Y31.3044
G01 X-0.5014 Y31.3007
G01 X-0.5995 Y31.2970
G00 Z2.0000
G00 X-0.5995 Y31.4171
G01 F100.00
G01 Z-0.1500
G01 F300.00
G01 X-0.5043 Y31.4206
G01 X-0.1995 Y31.4244
G01 X0.1053 Y31.4206
G01 X0.2005 Y31.4171
G01 X0.2005 Y31.5372
G01 X0.1082 Y31.5406
G01 X-0.1995 Y31.5444
G01 X-0.5072 Y31.5406
G01 X-0.5995 Y31.5372
G00 Z2.0000
G00 X-0.5995 Y31.6573
G01 F100.00
G01 Z-0.1500
G01 F300.00
G01 X-0.5102 Y31.6606
G01 X-0.1995 Y31.6644
G01 X0.1112 Y31.6606
G01 X0.2005 Y31.6573
G00 Z2.0000
G00 X0.2005 Y31.7773
G01 F100.00
G01 Z-0.1500
G01 F300.00
G01 X0.1141 Y31.7805
G01 X-0.1995 Y31.7844
G01 X-0.5131 Y31.7805
G01 X-0.5995 Y31.7773
G00 Z2.0000
G00 X-0.5995 Y31.8974
G01 F100.00
G01 Z-0.1500
G01 F300.00
G01 X-0.5161 Y31.9005
G01 X-0.1995 Y31.9044
G01 X0.1171 Y31.9005
G01 X0.2005 Y31.8974
G00 Z2.0000
G00 X0.2005 Y32.0175
G01 F100.00
G01 Z-0.1500
G01 F300.00
G01 X0.1200 Y32.0204
G01 X-0.1995 Y32.0244
G01 X-0.5190 Y32.0204
G01 X-0.5995 Y32.0175
G00 Z2.0000
G00 X-0.5995 Y32.1376
G01 F100.00
G01 Z-0.1500
G01 F300.00
G01 X-0.5220 Y32.1404
G01 X-0.1995 Y32.1444
G01 X0.1230 Y32.1404
G01 X0.2005 Y32.1376
G00 Z2.0000
G00 X0.2005 Y32.2576
G01 F100.00
G01 Z-0.1500
G01 F300.00
G01 X0.1259 Y32.2604
G01 X-0.1995 Y32.2644
G01 X-0.5249 Y32.2604
G01 X-0.5995 Y32.2576
G00 Z2.0000
G00 X-0.5995 Y32.3777
G01 F100.00
G01 Z-0.1500
G01 F300.00
G01 X-0.5279 Y32.3803
G01 X-0.1995 Y32.3844
G01 X0.1289 Y32.3803
G01 X0.2005 Y32.3777
G00 Z2.0000
G00 X0.2005 Y32.4978
G01 F100.00
G01 Z-0.1500
G01 F300.00
G01 X0.1318 Y32.5003
G01 X-0.1995 Y32.5044
G01 X-0.5308 Y32.5003
G01 X-0.5995 Y32.4978
G00 Z2.0000
G00 X-0.5995 Y32.6178
G01 F100.00
G01 Z-0.1500
G01 F300.00
G01 X-0.5338 Y32.6203
G01 X-0.1995 Y32.6244
G01 X0.1348 Y32.6203
G01 X0.2005 Y32.6178
G00 Z2.0000
G00 X0.2005 Y32.7379
G01 F100.00
G01 Z-0.1500
G01 F300.00
G01 X0.1377 Y32.7402
G01 X-0.1995 Y32.7444
G01 X-0.5367 Y32.7402
G01 X-0.5995 Y32.7379
G00 Z2.0000
G00 X-0.5995 Y32.8580
G01 F100.00
G01 Z-0.1500
G01 F300.00
G01 X-0.5396 Y32.8602
G01 X-0.1995 Y32.8644
G01 X0.1406 Y32.8602
G01 X0.2005 Y32.8580
G00 Z2.0000
G00 X0.2005 Y32.9781
G01 F100.00
G01 Z-0.1500
G01 F300.00
G01 X0.1436 Y32.9802
G01 X-0.1995 Y32.9844
G01 X-0.5426 Y32.9802
G01 X-0.5995 Y32.9781
G00 Z2.0000
G00 X-0.5995 Y33.0981
G01 F100.00
G01 Z-0.1500
G01 F300.00
G01 X-0.5455 Y33.1001
G01 X-0.1995 Y33.1044
G01 X0.1465 Y33.1001
G01 X0.2005 Y33.0981
G00 Z2.0000
G00 X0.2005 Y33.2182
G01 F100.00
G01 Z-0.1500
G01 F300.00
G01 X0.1495 Y33.2201
G01 X-0.1995 Y33.2244
G01 X-0.5485 Y33.2201
G01 X-0.5995 Y33.2182
G00 Z2.0000
G00 X-0.5995 Y33.3383
G01 F100.00
G01 Z-0.1500
G01 F300.00
G01 X-0.5514 Y33.3400
G01 X-0.1995 Y33.3444
G01 X0.1524 Y33.3400
G01 X0.2005 Y33.3383
G00 Z2.0000
G00 X0.2005 Y33.4583
G01 F100.00
G01 Z-0.1500
G01 F300.00
G01 X0.1554 Y33.4600
G01 X-0.1995 Y33.4644
G01 X-0.5544 Y33.4600
G01 X-0.5995 Y33.4583
G00 Z2.0000
G00 X-0.5995 Y33.5784
G01 F100.00
G01 Z-0.1500
G01 F300.00
G01 X-0.5573 Y33.5800
G01 X-0.1995 Y33.5844
G01 X0.1583 Y33.5800
G01 X0.2005 Y33.5784
G00 Z2.0000
G00 X0.2005 Y33.6985
G01 F100.00
G01 Z-0.1500
G01 F300.00
G01 X0.1613 Y33.6999
G01 X-0.1995 Y33.7044
G01 X-0.5603 Y33.6999
G01 X-0.5995 Y33.6985
G00 Z2.0000
G00 X-0.5995 Y33.8186
G01 F100.00
G01 Z-0.1500
G01 F300.00
G01 X-0.5632 Y33.8199
G01 X-0.1995 Y33.8244
G01 X0.1642 Y33.8199
G01 X0.2005 Y33.8186
G00 Z2.0000
G00 X0.2005 Y33.9386
G01 F100.00
G01 Z-0.1500
G01 F300.00
G01 X0.1671 Y33.9399
G01 X-0.1995 Y33.9444
G01 X-0.5661 Y33.9399
G01 X-0.5995 Y33.9386
G00 Z2.0000
G00 X-0.5995 Y34.0587
G01 F100.00
G01 Z-0.1500
G01 F300.00
G01 X-0.5691 Y34.0598
G01 X-0.1995 Y34.0644
G01 X0.1701 Y34.0598
G01 X0.2005 Y34.0587
G00 Z2.0000
G00 X0.2005 Y34.1788
G01 F100.00
G01 Z-0.1500
G01 F300.00
G01 X0.1730 Y34.1798
G01 X-0.1995 Y34.1844
G01 X-0.5720 Y34.1798
G01 X-0.5995 Y34.1788
G00 Z2.0000
G00 X-0.5995 Y34.2989
G01 F100.00
G01 Z-0.1500
G01 F300.00
G01 X-0.5750 Y34.2998
G01 X-0.1995 Y34.3044
G01 X0.1760 Y34.2998
G01 X0.2005 Y34.2989
G00 Z2.0000
G00 X0.2005 Y34.4189
G01 F100.00
G01 Z-0.1500
G01 F300.00
G01 X0.1789 Y34.4197
G01 X-0.1995 Y34.4244
G01 X-0.5779 Y34.4197
G01 X-0.5995 Y34.4189
G00 Z2.0000
G00 X-0.5995 Y34.5390
G01 F100.00
G01 Z-0.1500
G01 F300.00
G01 X-0.5809 Y34.5397
G01 X-0.1995 Y34.5444
G01 X0.1819 Y34.5397
G01 X0.2005 Y34.5390
G00 Z2.0000
G00 X0.2005 Y34.6591
G01 F100.00
G01 Z-0.1500
G01 F300.00
G01 X0.1848 Y34.6596
G01 X-0.1995 Y34.6644
G01 X-0.5838 Y34.6596
G01 X-0.5995 Y34.6591
G00 Z2.0000
G00 X-0.5995 Y34.7791
G01 F100.00
G01 Z-0.1500
G01 F300.00
G01 X-0.5868 Y34.7796
G01 X-0.1995 Y34.7844
G01 X0.1878 Y34.7796
G01 X0.2005 Y34.7791
G00 Z2.0000
G00 X0.2005 Y34.8992
G01 F100.00
G01 Z-0.1500
G01 F300.00
G01 X-0.1995 Y34.9044
G01 X-0.5995 Y34.8992
G00 Z2.0000
G00 X-0.5995 Y35.0193
G01 F100.00
G01 Z-0.1500
G01 F300.00
G01 X-0.1995 Y35.0244
G01 X0.2005 Y35.0193
G00 Z2.0000
G00 X0.2005 Y35.1394
G01 F100.00
G01 Z-0.1500
G01 F300.00
G01 X-0.1995 Y35.1444
G01 X-0.5995 Y35.1394
G00 Z2.0000
G00 X-0.5995 Y35.2594
G01 F100.00
G01 Z-0.1500
G01 F300.00
G01 X-0.1995 Y35.2644
G01 X0.2005 Y35.2594
G00 Z2.0000
G00 X0.2005 Y35.3795
G01 F100.00
G01 Z-0.1500
G01 F300.00
G01 X-0.1995 Y35.3844
G01 X-0.5995 Y35.3795
G00 Z2.0000
G00 X-0.5995 Y35.4995
G01 F100.00
G01 Z-0.1500
G01 F300.00
G01 X-0.1995 Y35.5044
G01 X0.2005 Y35.4995
G01 X0.2005 Y35.6195
G01 X-0.1995 Y35.6244
G01 X-0.5995 Y35.6195
G00 Z2.0000
G00 X-0.5995 Y35.7395
G01 F100.00
G01 Z-0.1500
G01 F300.00
G01 X-0.1995 Y35.7444
G01 X0.2005 Y35.7395
G00 Z2.0000
G00 X0.2005 Y35.8595
G01 F100.00
G01 Z-0.1500
G01 F300.00
G01 X-0.1995 Y35.8644
G01 X-0.5995 Y35.8595
G01 X-0.5995 Y35.9795
G01 X-0.1995 Y35.9844
G01 X0.2005 Y35.9795
G00 Z2.0000
G00 X0.2005 Y36.0995
G01 F100.00
G01 Z-0.1500
G01 F300.00
G01 X-0.1995 Y36.1044
G01 X-0.5995 Y36.0995
G01 X-0.5995 Y36.2195
G01 X-0.1995 Y36.2244
G01 X0.2005 Y36.2195
G00 Z2.0000
G00 X0.2005 Y36.3395
G01 F100.00
G01 Z-0.1500
G01 F300.00
G01 X-0.1995 Y36.3444
G01 X-0.5995 Y36.3395
G01 X-0.5995 Y36.4595
G01 X-0.1995 Y36.4644
G01 X0.2005 Y36.4595
G01 X0.2005 Y36.5795
G01 X-0.1995 Y36.5844
G01 X-0.5995 Y36.5795
G00 Z2.0000
G00 X-0.5995 Y36.6995
G01 F100.00
G01 Z-0.1500
G01 F300.00
G01 X-0.1995 Y36.7044
G01 X0.2005 Y36.6995
G00 Z2.0000
G00 X0.2005 Y36.8195
G01 F100.00
G01 Z-0.1500
G01 F300.00
G01 X-0.1995 Y36.8244
G01 X-0.5995 Y36.8195
G00 Z2.0000
G00 X-0.5995 Y36.9395
G01 F100.00
G01 Z-0.1500
G01 F300.00
G01 X-0.1995 Y36.9444
G01 X0.2005 Y36.9395
G01 X0.2005 Y37.0595
G01 X-0.1995 Y37.0644
G01 X-0.5995 Y37.0595
G00 Z2.0000
G00 X-0.5995 Y37.1795
G01 F100.00
G01 Z-0.1500
G01 F300.00
G01 X-0.1995 Y37.1844
G01 X0.2005 Y37.1795
G01 X0.2005 Y37.2995
G01 X-0.1995 Y37.3044
G01 X-0.5995 Y37.2995
G00 Z2.0000
G00 X-0.5995 Y37.4195
G01 F100.00
G01 Z-0.1500
G01 F300.00
G01 X-0.1995 Y37.4244
G01 X0.2005 Y37.4195
G00 Z2.0000
G00 X0.2005 Y37.5395
G01 F100.00
G01 Z-0.1500
G01 F300.00
G01 X-0.1995 Y37.5444
G01 X-0.5995 Y37.5395
G01 X-0.5995 Y37.6595
G01 X-0.1995 Y37.6644
G01 X0.2005 Y37.6595
G00 Z2.0000
G00 X0.2005 Y37.7795
G01 F100.00
G01 Z-0.1500
G01 F300.00
G01 X-0.1995 Y37.7844
G01 X-0.5995 Y37.7795
G01 X-0.5995 Y37.8995
G01 X-0.1995 Y37.9044
G01 X0.2005 Y37.8995
G00 Z2.0000
G00 X0.2005 Y38.0195
G01 F100.00
G01 Z-0.1500
G01 F300.00
G01 X-0.1995 Y38.0244
G01 X-0.5995 Y38.0195
G01 X-0.5995 Y38.1395
G01 X-0.1995 Y38.1444
G01 X0.2005 Y38.1395
G00 Z2.0000
G00 X0.2005 Y38.2595
G01 F100.00
G01 Z-0.1500
G01 F300.00
G01 X-0.1995 Y38.2644
G01 X-0.5995 Y38.2595
G00 Z2.0000
G00 X-0.5995 Y38.3795
G01 F100.00
G01 Z-0.1500
G01 F300.00
G01 X-0.1995 Y38.3844
G01 X0.2005 Y38.3795
G00 Z2.0000
G00 X0.2005 Y38.4995
G01 F100.00
G01 Z-0.1500
G01 F300.00
G01 X-0.1995 Y38.5044
G01 X-0.5995 Y38.4995
G00 Z2.0000
G00 X-0.5995 Y38.6195
G01 F100.00
G01 Z-0.1500
G01 F300.00
G01 X-0.1995 Y38.6244
G01 X0.2005 Y38.6195
G01 X0.2005 Y38.7395
G01 X-0.1995 Y38.7444
G01 X-0.5995 Y38.7395
G00 Z2.0000
G00 X-0.5995 Y38.8595
G01 F100.00
G01 Z-0.1500
G01 F300.00
G01 X-0.1995 Y38.8644
G01 X0.2005 Y38.8595
G01 X0.2005 Y38.9795
G01 X-0.1995 Y38.9844
G01 X-0.5995 Y38.9795
G00 Z2.0000
G00 X-0.5995 Y39.0995
G01 F100.00
G01 Z-0.1500
G01 F300.00
G01 X-0.1995 Y39.1044
G01 X0.2005 Y39.0995
G00 Z2.0000
G00 X0.2005 Y39.2195
G01 F100.00
G01 Z-0.1500
G01 F300.00
G01 X-0.1995 Y39.2244
G01 X-0.5995 Y39.2195
G01 X-0.5995 Y39.3395
G01 X-0.1995 Y39.3444
G01 X0.2005 Y39.3395
G00 Z2.0000
G00 X0.2005 Y39.4595
G01 F100.00
G01 Z-0.1500
G01 F300.00
G01 X-0.1995 Y39.4644
G01 X-0.5995 Y39.4595
G01 X-0.5995 Y39.5795
G01 X-0.1995 Y39.5844
G01 X0.2005 Y39.5795
G00 Z2.0000
G00 X0.2005 Y39.6995
G01 F100.00
G01 Z-0.1500
G01 F300.00
G01 X-0.1995 Y39.7044
G01 X-0.5995 Y39.6995
G00 Z2.0000
G00 X-0.5995 Y39.8195
G01 F100.00
G01 Z-0.1500
G01 F300.00
G01 X-0.1995 Y39.8244
G01 X0.2005 Y39.8195
G00 Z2.0000
G00 X0.2005 Y39.9395
G01 F100.00
G01 Z-0.1500
G01 F300.00
G01 X-0.1995 Y39.9444
G01 X-0.5995 Y39.9395
G01 X-0.5968 Y40.0595
G01 X-0.1995 Y40.0644
G01 X0.2103 Y40.0593
G00 Z2.0000
G00 X0.2010 Y39.9976
G01 F100.00
G01 Z-0.1500
G01 F300.00
G01 X0.2005 Y39.9878
G01 X0.2005 Y2.0098
G01 X0.2034 Y1.9782
G01 X0.2048 Y1.9685
G01 X0.3270 Y1.3543
G01 X0.3287 Y1.3471
G01 X0.3318 Y1.3378
G01 X0.3512 Y1.2909
G01 X0.3554 Y1.2820
G01 X0.3604 Y1.2736
G01 X0.7028 Y0.7612
G01 X0.7073 Y0.7553
G01 X0.7121 Y0.7498
G01 X0.7516 Y0.7105
G01 X0.7573 Y0.7057
G01 X0.7632 Y0.7014
G01 X1.2756 Y0.3591
G01 X1.2820 Y0.3554
G01 X1.2886 Y0.3521
G01 X1.3356 Y0.3327
G01 X1.3448 Y0.3294
G01 X1.3543 Y0.3270
G01 X1.9685 Y0.2048
G01 X1.9782 Y0.2034
G01 X2.0098 Y0.2005
G01 X41.9878 Y0.2005
G01 X41.9976 Y0.2010
G01 X42.0242 Y0.2036
G01 X42.0315 Y0.2048
G01 X42.6457 Y0.3270
G01 X42.6528 Y0.3287
G01 X42.6622 Y0.3318
G01 X42.7091 Y0.3512
G01 X42.7180 Y0.3554
G01 X42.7264 Y0.3604
G01 X43.2388 Y0.7028
G01 X43.2447 Y0.7073
G01 X43.2502 Y0.7121
G01 X43.2895 Y0.7516
G01 X43.2943 Y0.7573
G01 X43.2986 Y0.7632
G01 X43.6409 Y1.2756
G01 X43.6446 Y1.2820
G01 X43.6479 Y1.2886
G01 X43.6673 Y1.3356
G01 X43.6706 Y1.3448
G01 X43.6730 Y1.3543
G01 X43.7952 Y1.9685
G01 X43.7966 Y1.9782
G01 X43.7995 Y2.0098
G01 X43.7995 Y35.9993
G01 X43.7985 Y36.0147
G01 X43.6575 Y37.2656
G01 X43.6557 Y37.2766
G01 X43.6490 Y37.3059
G01 X43.6464 Y37.3145
G01 X43.2341 Y38.4928
G01 X43.2298 Y38.5031
G01 X43.2167 Y38.5302
G01 X43.2123 Y38.5380
G01 X42.5482 Y39.5950
G01 X42.5417 Y39.6041
G01 X42.5229 Y39.6275
G01 X42.5169 Y39.6342
G01 X41.6309 Y40.5200
G01 X41.6041 Y40.5417
G01 X41.5950 Y40.5482
G01 X40.5380 Y41.2123
G01 X40.5302 Y41.2167
G01 X40.5031 Y41.2298
G01 X40.4928 Y41.2341
G01 X39.3145 Y41.6464
G01 X39.3059 Y41.6490
G01 X39.2766 Y41.6557
G01 X39.2656 Y41.6575
G01 X38.0147 Y41.7985
G01 X37.9993 Y41.7995
G01 X2.0098 Y41.7995
G01 X1.9782 Y41.7966
G01 X1.9685 Y41.7952
G01 X1.3543 Y41.6730
G01 X1.3448 Y41.6706
G01 X1.3355 Y41.6673
G01 X1.2886 Y41.6479
G01 X1.2820 Y41.6446
G01 X1.2756 Y41.6409
G01 X0.7632 Y41.2986
G01 X0.7553 Y41.2927
G01 X0.7481 Y41.2861
G01 X0.7121 Y41.2502
G01 X0.7073 Y41.2447
G01 X0.7028 Y41.2388
G01 X0.3604 Y40.7264
G01 X0.3554 Y40.7180
G01 X0.3512 Y40.7091
G01 X0.3318 Y40.6622
G01 X0.3287 Y40.6529
G01 X0.3270 Y40.6457
G01 X0.2048 Y40.0315
G01 X0.2036 Y40.0242
G01 X0.2010 Y39.9976
G00 Z2.0000
G00 X0.2342 Y40.1790
G01 F100.00
G01 Z-0.1500
G01 F300.00
G01 X-0.1995 Y40.1844
G01 X-0.5814 Y40.1797
G00 Z2.0000
G00 X-0.5575 Y40.3000
G01 F100.00
G01 Z-0.1500
G01 F300.00
G01 X-0.1995 Y40.3044
G01 X0.2580 Y40.2988
G00 Z2.0000
G00 X0.2818 Y40.4185
G01 F100.00
G01 Z-0.1500
G01 F300.00
G01 X-0.1995 Y40.4244
G01 X-0.5335 Y40.4203
G00 Z2.0000
G00 X-0.5096 Y40.5406
G01 F100.00
G01 Z-0.1500
G01 F300.00
G01 X-0.1995 Y40.5444
G01 X0.3056 Y40.5382
G00 Z2.0000
G00 X0.3302 Y40.6579
G01 F100.00
G01 Z-0.1500
G01 F300.00
G01 X-0.1995 Y40.6644
G01 X-0.4857 Y40.6609
G01 X-0.4618 Y40.7811
G01 X-0.1995 Y40.7844
G01 X0.3350 Y40.7778
G01 X0.3933 Y40.7757
G00 Z2.0000
G00 X0.4716 Y40.8928
G01 F100.00
G01 Z-0.1500
G01 F300.00
G01 X0.3380 Y40.8978
G01 X-0.1995 Y40.9044
G01 X-0.4351 Y40.9015
G01 X-0.3851 Y41.0221
G01 X-0.1995 Y41.0244
G01 X0.3409 Y41.0177
G01 X0.5499 Y41.0100
G00 Z2.0000
G00 X0.6282 Y41.1272
G01 F100.00
G01 Z-0.1500
G01 F300.00
G01 X0.3438 Y41.1377
G01 X-0.1995 Y41.1444
G01 X-0.3235 Y41.1428
G00 Z2.0000
G00 X-0.2427 Y41.2638
G01 F100.00
G01 Z-0.1500
G01 F300.00
G01 X-0.1995 Y41.2644
G01 X0.3468 Y41.2577
G01 X0.7071 Y41.2444
G00 Z2.0000
G00 X0.8537 Y41.3591
G01 F100.00
G01 Z-0.1500
G01 F300.00
G01 X0.3497 Y41.3776
G01 X-0.1624 Y41.3839
G00 Z2.0000
G00 X-0.0829 Y41.5029
G01 F100.00
G01 Z-0.1500
G01 F300.00
G01 X0.3527 Y41.4976
G01 X0.9045 Y41.4773
G01 X1.0200 Y41.4702
G00 Z2.0000
G00 X1.1848 Y41.5803
G01 F100.00
G01 Z-0.1500
G01 F300.00
G01 X0.9104 Y41.5971
G01 X0.3556 Y41.6176
G01 X-0.0034 Y41.6220
G00 Z2.0000
G00 X0.0762 Y41.7410
G01 F100.00
G01 Z-0.1500
G01 F300.00
G01 X0.3586 Y41.7375
G01 X0.9163 Y41.7170
G01 X1.4198 Y41.6860
G00 Z2.0000
G00 X1.8469 Y41.7710
G01 F100.00
G01 Z-0.1500
G01 F300.00
G01 X1.4822 Y41.8024
G01 X0.9222 Y41.8368
G01 X0.3615 Y41.8575
G01 X0.1901 Y41.8596
G01 X0.3397 Y41.9777
G01 X0.3645 Y41.9774
G01 X0.9281 Y41.9567
G01 X1.4910 Y41.9221
G01 X2.0529 Y41.8737
G01 X2.6135 Y41.8115
G01 X2.7022 Y41.7995
G01 X3.5308 Y41.7995
G01 X3.1900 Y41.8543
G01 X2.6282 Y41.9306
G01 X2.0647 Y41.9931
G01 X1.4998 Y42.0418
G01 X0.9340 Y42.0765
G01 X0.5109 Y42.0921
G00 Z2.0000
G00 X0.6812 Y42.2059
G01 F100.00
G01 Z-0.1500
G01 F300.00
G01 X0.9399 Y42.1964
G01 X1.5087 Y42.1614
G01 X2.0765 Y42.1126
G01 X2.6429 Y42.0497
G01 X3.2076 Y41.9730
G01 X3.7702 Y41.8825
G01 X4.2161 Y41.7995
G00 Z2.0000
G00 X4.8092 Y41.7995
G01 F100.00
G01 Z-0.1500
G01 F300.00
G01 X4.3539 Y41.8959
G01 X3.7908 Y42.0007
G01 X3.2252 Y42.0917
G01 X2.6576 Y42.1688
G01 X2.0882 Y42.2320
G01 X1.5175 Y42.2811
G01 X0.9457 Y42.3163
G01 X0.8515 Y42.3197
G01 X1.0817 Y42.4281
G01 X1.5263 Y42.4008
G01 X2.1000 Y42.3514
G01 X2.6723 Y42.2879
G01 X3.2428 Y42.2104
G01 X3.8113 Y42.1190
G01 X4.3773 Y42.0136
G01 X4.9406 Y41.8943
G01 X5.3400 Y41.7995
G00 Z2.0000
G00 X5.8267 Y41.7995
G01 F100.00
G01 Z-0.1500
G01 F300.00
G01 X5.5300 Y41.8777
G01 X4.9669 Y42.0114
G01 X4.4007 Y42.1313
G01 X3.8318 Y42.2372
G01 X3.2604 Y42.3291
G01 X2.6869 Y42.4070
G01 X2.1117 Y42.4708
G01 X1.5352 Y42.5205
G01 X1.5190 Y42.5215
G01 X2.0160 Y42.5995
G01 X2.1235 Y42.5902
G01 X2.7016 Y42.5261
G01 X3.2780 Y42.4478
G01 X3.8523 Y42.3554
G01 X4.4241 Y42.2490
G01 X4.9932 Y42.1285
G01 X5.5591 Y41.9941
G01 X6.1216 Y41.8459
G01 X6.2814 Y41.7995
G00 Z2.0000
G00 X6.7123 Y41.7995
G01 F100.00
G01 Z-0.1500
G01 F300.00
G01 X6.1536 Y41.9615
G01 X5.5883 Y42.1105
G01 X5.0195 Y42.2456
G01 X4.4476 Y42.3667
G01 X3.8728 Y42.4737
G01 X3.2956 Y42.5665
G01 X3.0530 Y42.5995
G01 X3.8462 Y42.5995
G01 X3.8933 Y42.5919
G01 X4.4710 Y42.4844
G01 X5.0458 Y42.3627
G01 X5.6174 Y42.2269
G01 X6.1856 Y42.0772
G01 X6.7499 Y41.9135
G01 X7.1098 Y41.7995
G00 Z2.0000
G00 X7.4945 Y41.7995
G01 F100.00
G01 Z-0.1500
G01 F300.00
G01 X7.3477 Y41.8500
G01 X6.7847 Y42.0283
G01 X6.2176 Y42.1928
G01 X5.6466 Y42.3433
G01 X5.0721 Y42.4798
G01 X4.5065 Y42.5995
G00 Z2.0000
G00 X5.0858 Y42.5995
G01 F100.00
G01 Z-0.1500
G01 F300.00
G01 X5.0984 Y42.5968
G01 X5.6758 Y42.4597
G01 X6.2496 Y42.3085
G01 X6.8196 Y42.1432
G01 X7.3853 Y41.9640
G01 X7.8634 Y41.7995
G01 X8.2139 Y41.7995
G01 X7.9869 Y41.8839
G01 X7.4230 Y42.0779
G01 X6.8544 Y42.2580
G01 X6.2816 Y42.4241
G01 X5.7049 Y42.5761
G01 X5.6065 Y42.5995
G01 X6.0870 Y42.5995
G01 X6.3136 Y42.5398
G01 X6.8893 Y42.3728
G01 X7.4606 Y42.1918
G01 X8.0274 Y41.9969
G01 X8.5583 Y41.7995
G00 Z2.0000
G00 X8.8837 Y41.7995
G01 F100.00
G01 Z-0.1500
G01 F300.00
G01 X8.6323 Y41.9000
G01 X8.0678 Y42.1099
G01 X7.4983 Y42.3058
G01 X6.9241 Y42.4877
G01 X6.5385 Y42.5995
G01 X6.9684 Y42.5995
G01 X7.5359 Y42.4197
G01 X8.1082 Y42.2228
G01 X8.6755 Y42.0120
G01 X9.2068 Y41.7995
G00 Z2.0000
G00 X9.5134 Y41.7995
G01 F100.00
G01 Z-0.1500
G01 F300.00
G01 X9.2834 Y41.8981
G01 X8.7187 Y42.1239
G01 X8.1486 Y42.3358
G01 X7.5735 Y42.5337
G01 X7.3657 Y42.5995
G00 Z2.0000
G00 X7.7510 Y42.5995
G01 F100.00
G01 Z-0.1500
G01 F300.00
G01 X8.1891 Y42.4488
G01 X8.7619 Y42.2359
G01 X9.3293 Y42.0090
G01 X9.8180 Y41.7995
G00 Z2.0000
G00 X10.1108 Y41.7995
G01 F100.00
G01 Z-0.1500
G01 F300.00
G01 X9.9396 Y41.8779
G01 X9.3752 Y42.1198
G01 X8.8051 Y42.3478
G01 X8.2295 Y42.5618
G01 X8.1199 Y42.5995
G01 X8.4724 Y42.5995
G01 X8.8483 Y42.4598
G01 X9.4212 Y42.2307
G01 X9.9883 Y41.9876
G01 X10.3989 Y41.7995
G00 Z2.0000
G00 X10.6817 Y41.7995
G01 F100.00
G01 Z-0.1500
G01 F300.00
G01 X10.6005 Y41.8391
G01 X10.0369 Y42.0973
G01 X9.4671 Y42.3416
G01 X8.8914 Y42.5718
G01 X8.8168 Y42.5995
G01 X9.1452 Y42.5995
G01 X9.5130 Y42.4524
G01 X10.0855 Y42.2070
G01 X10.6518 Y41.9476
G01 X10.9553 Y41.7995
G01 X11.2289 Y41.7995
G01 X10.7032 Y42.0561
G01 X10.1342 Y42.3167
G01 X9.5589 Y42.5633
G01 X9.4684 Y42.5995
G00 Z2.0000
G00 X9.7790 Y42.5995
G01 F100.00
G01 Z-0.1500
G01 F300.00
G01 X10.1828 Y42.4264
G01 X10.7545 Y42.1646
G01 X11.3195 Y41.8888
G01 X11.4916 Y41.7995
G00 Z2.0000
G00 X11.7521 Y41.7995
G01 F100.00
G01 Z-0.1500
G01 F300.00
G01 X11.3735 Y41.9960
G01 X10.8058 Y42.2730
G01 X10.2314 Y42.5361
G01 X10.0836 Y42.5995
G01 X10.3812 Y42.5995
G01 X10.8571 Y42.3815
G01 X11.4274 Y42.1031
G01 X11.9908 Y41.8108
G01 X12.0114 Y41.7995
G00 Z2.0000
G00 X12.2603 Y41.7995
G01 F100.00
G01 Z-0.1500
G01 F300.00
G01 X12.0474 Y41.9167
G01 X11.4814 Y42.2103
G01 X10.9084 Y42.4900
G01 X10.6693 Y42.5995
G01 X10.9575 Y42.5995
G01 X11.5354 Y42.3175
G01 X12.1040 Y42.0225
G01 X12.5091 Y41.7995
G00 Z2.0000
G00 X12.7561 Y41.7995
G01 F100.00
G01 Z-0.1500
G01 F300.00
G01 X12.7243 Y41.8180
G01 X12.1605 Y42.1283
G01 X11.5893 Y42.4247
G01 X11.2312 Y42.5995
G01 X11.5047 Y42.5995
G01 X11.6433 Y42.5319
G01 X12.2171 Y42.2342
G01 X12.7834 Y41.9225
G01 X12.9944 Y41.7995
G00 Z2.0000
G00 X13.2327 Y41.7995
G01 F100.00
G01 Z-0.1500
G01 F300.00
G01 X12.8426 Y42.0269
G01 X12.2737 Y42.3400
G01 X11.7735 Y42.5995
G01 X12.0340 Y42.5995
G01 X12.3302 Y42.4458
G01 X12.9017 Y42.1313
G01 X13.4707 Y41.7995
G00 Z2.0000
G00 X13.6994 Y41.7995
G01 F100.00
G01 Z-0.1500
G01 F300.00
G01 X13.5270 Y41.9057
G01 X12.9609 Y42.2357
G01 X12.3868 Y42.5517
G01 X12.2946 Y42.5995
G01 X12.5487 Y42.5995
G01 X13.0200 Y42.3401
G01 X13.5887 Y42.0086
G01 X13.9282 Y41.7995
G00 Z2.0000
G00 X14.1569 Y41.7995
G01 F100.00
G01 Z-0.1500
G01 F300.00
G01 X13.6504 Y42.1116
G01 X13.0792 Y42.4445
G01 X12.7976 Y42.5995
G01 X13.0464 Y42.5995
G01 X13.1383 Y42.5489
G01 X13.7121 Y42.2145
G01 X14.2775 Y41.8661
G01 X14.3799 Y41.7995
G00 Z2.0000
G00 X14.5999 Y41.7995
G01 F100.00
G01 Z-0.1500
G01 F300.00
G01 X14.3417 Y41.9675
G01 X13.7738 Y42.3174
G01 X13.2898 Y42.5995
G00 Z2.0000
G00 X13.5281 Y42.5995
G01 F100.00
G01 Z-0.1500
G01 F300.00
G01 X13.8355 Y42.4204
G01 X14.4059 Y42.0689
G01 X14.8200 Y41.7995
G00 Z2.0000
G00 X15.0397 Y41.7995
G01 F100.00
G01 Z-0.1500
G01 F300.00
G01 X14.4701 Y42.1702
G01 X13.8972 Y42.5233
G01 X13.7664 Y42.5995
G01 X14.0022 Y42.5995
G01 X14.5343 Y42.2716
G01 X15.1009 Y41.9030
G01 X15.2518 Y41.7995
G00 Z2.0000
G00 X15.4639 Y41.7995
G01 F100.00
G01 Z-0.1500
G01 F300.00
G01 X15.1676 Y42.0028
G01 X14.5985 Y42.3730
G01 X14.2310 Y42.5995
G00 Z2.0000
G00 X14.4597 Y42.5995
G01 F100.00
G01 Z-0.1500
G01 F300.00
G01 X14.6627 Y42.4744
G01 X15.2342 Y42.1026
G01 X15.6760 Y41.7995
G00 Z2.0000
G00 X15.8870 Y41.7995
G01 F100.00
G01 Z-0.1500
G01 F300.00
G01 X15.8655 Y41.8150
G01 X15.3009 Y42.2024
G01 X14.7269 Y42.5758
G01 X14.6884 Y42.5995
G00 Z2.0000
G00 X14.9105 Y42.5995
G01 F100.00
G01 Z-0.1500
G01 F300.00
G01 X15.3676 Y42.3021
G01 X15.9346 Y41.9131
G01 X16.0918 Y41.7995
G00 Z2.0000
G00 X16.2966 Y41.7995
G01 F100.00
G01 Z-0.1500
G01 F300.00
G01 X16.0037 Y42.0112
G01 X15.4342 Y42.4019
G01 X15.1305 Y42.5995
G01 X15.3506 Y42.5995
G01 X15.5009 Y42.5017
G01 X16.0728 Y42.1093
G01 X16.5015 Y41.7995
G00 Z2.0000
G00 X16.7063 Y41.7995
G01 F100.00
G01 Z-0.1500
G01 F300.00
G01 X16.1419 Y42.2074
G01 X15.5705 Y42.5995
G01 X15.7826 Y42.5995
G01 X16.2110 Y42.3055
G01 X16.7779 Y41.8958
G01 X16.9045 Y41.7995
G00 Z2.0000
G00 X17.1026 Y41.7995
G01 F100.00
G01 Z-0.1500
G01 F300.00
G01 X16.8494 Y41.9922
G01 X16.2801 Y42.4036
G01 X15.9947 Y42.5995
G00 Z2.0000
G00 X16.2068 Y42.5995
G01 F100.00
G01 Z-0.1500
G01 F300.00
G01 X16.3492 Y42.5018
G01 X16.9209 Y42.0885
G01 X17.3008 Y41.7995
G00 Z2.0000
G00 X17.4990 Y41.7995
G01 F100.00
G01 Z-0.1500
G01 F300.00
G01 X16.9924 Y42.1849
G01 X16.4188 Y42.5995
G00 Z2.0000
G00 X16.6237 Y42.5995
G01 F100.00
G01 Z-0.1500
G01 F300.00
G01 X17.0639 Y42.2813
G01 X17.6299 Y41.8506
G01 X17.6938 Y41.7995
G00 Z2.0000
G00 X17.8858 Y41.7995
G01 F100.00
G01 Z-0.1500
G01 F300.00
G01 X17.7037 Y41.9452
G01 X17.1353 Y42.3777
G01 X16.8285 Y42.5995
G00 Z2.0000
G00 X17.0333 Y42.5995
G01 F100.00
G01 Z-0.1500
G01 F300.00
G01 X17.2068 Y42.4741
G01 X17.7776 Y42.0398
G01 X18.0779 Y41.7995
G00 Z2.0000
G00 X18.2699 Y41.7995
G01 F100.00
G01 Z-0.1500
G01 F300.00
G01 X17.8514 Y42.1344
G01 X17.2783 Y42.5705
G01 X17.2382 Y42.5995
G00 Z2.0000
G00 X17.4383 Y42.5995
G01 F100.00
G01 Z-0.1500
G01 F300.00
G01 X17.9252 Y42.2291
G01 X18.4619 Y41.7995
G00 Z2.0000
G00 X18.6497 Y41.7995
G01 F100.00
G01 Z-0.1500
G01 F300.00
G01 X18.5659 Y41.8700
G01 X17.9991 Y42.3237
G01 X17.6365 Y42.5995
G01 X17.8347 Y42.5995
G01 X18.0729 Y42.4183
G01 X18.6420 Y41.9628
G01 X18.8360 Y41.7995
G00 Z2.0000
G00 X19.0224 Y41.7995
G01 F100.00
G01 Z-0.1500
G01 F300.00
G01 X18.7181 Y42.0555
G01 X18.1467 Y42.5129
G01 X18.0328 Y42.5995
G00 Z2.0000
G00 X18.2305 Y42.5995
G01 F100.00
G01 Z-0.1500
G01 F300.00
G01 X18.7942 Y42.1483
G01 X19.2088 Y41.7995
G00 Z2.0000
G00 X19.3951 Y41.7995
G01 F100.00
G01 Z-0.1500
G01 F300.00
G01 X18.8704 Y42.2411
G01 X18.4225 Y42.5995
G00 Z2.0000
G00 X18.6145 Y42.5995
G01 F100.00
G01 Z-0.1500
G01 F300.00
G01 X18.9465 Y42.3338
G01 X19.5133 Y41.8569
G01 X19.5782 Y41.7995
G00 Z2.0000
G00 X19.7593 Y41.7995
G01 F100.00
G01 Z-0.1500
G01 F300.00
G01 X19.5916 Y41.9478
G01 X19.0226 Y42.4266
G01 X18.8066 Y42.5995
G00 Z2.0000
G00 X18.9986 Y42.5995
G01 F100.00
G01 Z-0.1500
G01 F300.00
G01 X19.0987 Y42.5193
G01 X19.6700 Y42.0387
G01 X19.9405 Y41.7995
G00 Z2.0000
G00 X20.1216 Y41.7995
G01 F100.00
G01 Z-0.1500
G01 F300.00
G01 X19.7484 Y42.1295
G01 X19.1899 Y42.5995
G00 Z2.0000
G00 X19.3762 Y42.5995
G01 F100.00
G01 Z-0.1500
G01 F300.00
G01 X19.8268 Y42.2204
G01 X20.3028 Y41.7995
G01 X20.4833 Y41.7995
G01 X20.4711 Y41.8108
G01 X19.9052 Y42.3113
G01 X19.5626 Y42.5995
G00 Z2.0000
G00 X19.7490 Y42.5995
G01 F100.00
G01 Z-0.1500
G01 F300.00
G01 X19.9835 Y42.4021
G01 X20.5517 Y41.8998
G01 X20.6596 Y41.7995
G00 Z2.0000
G00 X20.8359 Y41.7995
G01 F100.00
G01 Z-0.1500
G01 F300.00
G01 X20.6323 Y41.9887
G01 X20.0619 Y42.4930
G01 X19.9353 Y42.5995
G00 Z2.0000
G00 X20.1217 Y42.5995
G01 F100.00
G01 Z-0.1500
G01 F300.00
G01 X20.1403 Y42.5838
G01 X20.7128 Y42.0776
G01 X21.0122 Y41.7995
G00 Z2.0000
G00 X21.1885 Y41.7995
G01 F100.00
G01 Z-0.1500
G01 F300.00
G01 X20.7934 Y42.1665
G01 X20.3037 Y42.5995
G00 Z2.0000
G00 X20.4849 Y42.5995
G01 F100.00
G01 Z-0.1500
G01 F300.00
G01 X20.8740 Y42.2554
G01 X21.3648 Y41.7995
G00 Z2.0000
G00 X21.5401 Y41.7995
G01 F100.00
G01 Z-0.1500
G01 F300.00
G01 X21.5210 Y41.8181
G01 X20.9546 Y42.3443
G01 X20.6660 Y42.5995
G00 Z2.0000
G00 X20.8472 Y42.5995
G01 F100.00
G01 Z-0.1500
G01 F300.00
G01 X21.0352 Y42.4332
G01 X21.6038 Y41.9051
G01 X21.7120 Y41.7995
G00 Z2.0000
G00 X21.8838 Y41.7995
G01 F100.00
G01 Z-0.1500
G01 F300.00
G01 X21.6865 Y41.9920
G01 X21.1158 Y42.5222
G01 X21.0283 Y42.5995
G00 Z2.0000
G00 X21.2088 Y42.5995
G01 F100.00
G01 Z-0.1500
G01 F300.00
G01 X21.7693 Y42.0789
G01 X22.0556 Y41.7995
G01 X22.2274 Y41.7995
G01 X21.8520 Y42.1658
G01 X21.3851 Y42.5995
G01 X21.5614 Y42.5995
G01 X21.9348 Y42.2527
G01 X22.3992 Y41.7995
G00 Z2.0000
G00 X22.5710 Y41.7995
G01 F100.00
G01 Z-0.1500
G01 F300.00
G01 X22.0175 Y42.3396
G01 X21.7377 Y42.5995
G00 Z2.0000
G00 X21.9140 Y42.5995
G01 F100.00
G01 Z-0.1500
G01 F300.00
G01 X22.1002 Y42.4265
G01 X22.6683 Y41.8722
G01 X22.7393 Y41.7995
G01 X22.9069 Y41.7995
G01 X22.7532 Y41.9571
G01 X22.1830 Y42.5134
G01 X22.0903 Y42.5995
G00 Z2.0000
G00 X22.2666 Y42.5995
G01 F100.00
G01 Z-0.1500
G01 F300.00
G01 X22.8380 Y42.0419
G01 X23.0746 Y41.7995
G00 Z2.0000
G00 X23.2422 Y41.7995
G01 F100.00
G01 Z-0.1500
G01 F300.00
G01 X22.9229 Y42.1268
G01 X22.4384 Y42.5995
G00 Z2.0000
G00 X22.6102 Y42.5995
G01 F100.00
G01 Z-0.1500
G01 F300.00
G01 X23.0077 Y42.2116
G01 X23.4099 Y41.7995
G00 Z2.0000
G00 X23.5775 Y41.7995
G01 F100.00
G01 Z-0.1500
G01 F300.00
G01 X23.0926 Y42.2965
G01 X22.7820 Y42.5995
G00 Z2.0000
G00 X22.9538 Y42.5995
G01 F100.00
G01 Z-0.1500
G01 F300.00
G01 X23.1775 Y42.3813
G01 X23.7451 Y41.7995
G00 Z2.0000
G00 X23.9089 Y41.7995
G01 F100.00
G01 Z-0.1500
G01 F300.00
G01 X23.8310 Y41.8833
G01 X23.2623 Y42.4662
G01 X23.1257 Y42.5995
G01 X23.2975 Y42.5995
G01 X23.3472 Y42.5510
G01 X23.9179 Y41.9661
G01 X24.0727 Y41.7995
G00 Z2.0000
G00 X24.2364 Y41.7995
G01 F100.00
G01 Z-0.1500
G01 F300.00
G01 X24.0048 Y42.0488
G01 X23.4675 Y42.5995
G00 Z2.0000
G00 X23.6351 Y42.5995
G01 F100.00
G01 Z-0.1500
G01 F300.00
G01 X24.0917 Y42.1316
G01 X24.4002 Y41.7995
G00 Z2.0000
G00 X24.5640 Y41.7995
G01 F100.00
G01 Z-0.1500
G01 F300.00
G01 X24.1787 Y42.2143
G01 X23.8028 Y42.5995
G00 Z2.0000
G00 X23.9704 Y42.5995
G01 F100.00
G01 Z-0.1500
G01 F300.00
G01 X24.2656 Y42.2970
G01 X24.7278 Y41.7995
G00 Z2.0000
G00 X24.8915 Y41.7995
G01 F100.00
G01 Z-0.1500
G01 F300.00
G01 X24.3525 Y42.3798
G01 X24.1381 Y42.5995
G00 Z2.0000
G00 X24.3057 Y42.5995
G01 F100.00
G01 Z-0.1500
G01 F300.00
G01 X24.4394 Y42.4625
G01 X25.0077 Y41.8508
G01 X25.0530 Y41.7995
G01 X25.2132 Y41.7995
G01 X25.0966 Y41.9314
G01 X24.5263 Y42.5453
G01 X24.4734 Y42.5995
G00 Z2.0000
G00 X24.6397 Y42.5995
G01 F100.00
G01 Z-0.1500
G01 F300.00
G01 X25.1855 Y42.0120
G01 X25.3734 Y41.7995
G01 X25.5335 Y41.7995
G01 X25.2744 Y42.0926
G01 X24.8035 Y42.5995
G00 Z2.0000
G00 X24.9673 Y42.5995
G01 F100.00
G01 Z-0.1500
G01 F300.00
G01 X25.3633 Y42.1731
G01 X25.6937 Y41.7995
G00 Z2.0000
G00 X25.8539 Y41.7995
G01 F100.00
G01 Z-0.1500
G01 F300.00
G01 X25.4522 Y42.2537
G01 X25.1310 Y42.5995
G00 Z2.0000
G00 X25.2948 Y42.5995
G01 F100.00
G01 Z-0.1500
G01 F300.00
G01 X25.5411 Y42.3343
G01 X26.0141 Y41.7995
G00 Z2.0000
G00 X26.1742 Y41.7995
G01 F100.00
G01 Z-0.1500
G01 F300.00
G01 X25.6301 Y42.4149
G01 X25.4586 Y42.5995
G00 Z2.0000
G00 X25.6224 Y42.5995
G01 F100.00
G01 Z-0.1500
G01 F300.00
G01 X25.7190 Y42.4955
G01 X26.2877 Y41.8524
G01 X26.3321 Y41.7995
G00 Z2.0000
G00 X26.4890 Y41.7995
G01 F100.00
G01 Z-0.1500
G01 F300.00
G01 X26.3785 Y41.9307
G01 X25.8079 Y42.5761
G01 X25.7861 Y42.5995
G00 Z2.0000
G00 X25.9474 Y42.5995
G01 F100.00
G01 Z-0.1500
G01 F300.00
G01 X26.4694 Y42.0091
G01 X26.6458 Y41.7995
G00 Z2.0000
G00 X26.8026 Y41.7995
G01 F100.00
G01 Z-0.1500
G01 F300.00
G01 X26.5603 Y42.0875
G01 X26.1075 Y42.5995
G01 X26.2677 Y42.5995
G01 X26.6511 Y42.1659
G01 X26.9594 Y41.7995
G00 Z2.0000
G00 X27.1162 Y41.7995
G01 F100.00
G01 Z-0.1500
G01 F300.00
G01 X26.7420 Y42.2443
G01 X26.4279 Y42.5995
G01 X26.5880 Y42.5995
G01 X26.8329 Y42.3226
G01 X27.2730 Y41.7995
G00 Z2.0000
G00 X27.4299 Y41.7995
G01 F100.00
G01 Z-0.1500
G01 F300.00
G01 X26.9237 Y42.4010
G01 X26.7482 Y42.5995
G00 Z2.0000
G00 X26.9084 Y42.5995
G01 F100.00
G01 Z-0.1500
G01 F300.00
G01 X27.0146 Y42.4794
G01 X27.5865 Y41.7995
G00 Z2.0000
G00 X27.7402 Y41.7995
G01 F100.00
G01 Z-0.1500
G01 F300.00
G01 X27.6753 Y41.8806
G01 X27.1055 Y42.5578
G01 X27.0686 Y42.5995
G00 Z2.0000
G00 X27.2272 Y42.5995
G01 F100.00
G01 Z-0.1500
G01 F300.00
G01 X27.7680 Y41.9567
G01 X27.8938 Y41.7995
G00 Z2.0000
G00 X28.0475 Y41.7995
G01 F100.00
G01 Z-0.1500
G01 F300.00
G01 X27.8608 Y42.0328
G01 X27.3840 Y42.5995
G01 X27.5408 Y42.5995
G01 X27.9535 Y42.1090
G01 X28.2012 Y41.7995
G00 Z2.0000
G00 X28.3549 Y41.7995
G01 F100.00
G01 Z-0.1500
G01 F300.00
G01 X28.0463 Y42.1851
G01 X27.6976 Y42.5995
G00 Z2.0000
G00 X27.8544 Y42.5995
G01 F100.00
G01 Z-0.1500
G01 F300.00
G01 X28.1391 Y42.2612
G01 X28.5086 Y41.7995
G00 Z2.0000
G00 X28.6623 Y41.7995
G01 F100.00
G01 Z-0.1500
G01 F300.00
G01 X28.2318 Y42.3373
G01 X28.0112 Y42.5995
G01 X28.1681 Y42.5995
G01 X28.3246 Y42.4135
G01 X28.8160 Y41.7995
G00 Z2.0000
G00 X28.9697 Y41.7995
G01 F100.00
G01 Z-0.1500
G01 F300.00
G01 X28.4173 Y42.4896
G01 X28.3249 Y42.5995
G00 Z2.0000
G00 X28.4817 Y42.5995
G01 F100.00
G01 Z-0.1500
G01 F300.00
G01 X28.5101 Y42.5657
G01 X29.0797 Y41.8541
G01 X29.1212 Y41.7995
G01 X29.2720 Y41.7995
G01 X29.1743 Y41.9279
G01 X28.6368 Y42.5995
G00 Z2.0000
G00 X28.7905 Y42.5995
G01 F100.00
G01 Z-0.1500
G01 F300.00
G01 X29.2689 Y42.0017
G01 X29.4227 Y41.7995
G00 Z2.0000
G00 X29.5735 Y41.7995
G01 F100.00
G01 Z-0.1500
G01 F300.00
G01 X29.3635 Y42.0755
G01 X28.9441 Y42.5995
G00 Z2.0000
G00 X29.0978 Y42.5995
G01 F100.00
G01 Z-0.1500
G01 F300.00
G01 X29.4581 Y42.1494
G01 X29.7243 Y41.7995
G00 Z2.0000
G00 X29.8751 Y41.7995
G01 F100.00
G01 Z-0.1500
G01 F300.00
G01 X29.5527 Y42.2232
G01 X29.2515 Y42.5995
G00 Z2.0000
G00 X29.4052 Y42.5995
G01 F100.00
G01 Z-0.1500
G01 F300.00
G01 X29.6473 Y42.2970
G01 X30.0258 Y41.7995
G01 X30.1766 Y41.7995
G01 X29.7419 Y42.3709
G01 X29.5589 Y42.5995
G00 Z2.0000
G00 X29.7126 Y42.5995
G01 F100.00
G01 Z-0.1500
G01 F300.00
G01 X29.8365 Y42.4447
G01 X30.3274 Y41.7995
G00 Z2.0000
G00 X30.4782 Y41.7995
G01 F100.00
G01 Z-0.1500
G01 F300.00
G01 X29.9311 Y42.5185
G01 X29.8663 Y42.5995
G00 Z2.0000
G00 X30.0200 Y42.5995
G01 F100.00
G01 Z-0.1500
G01 F300.00
G01 X30.5955 Y41.8435
G01 X30.6273 Y41.7995
G00 Z2.0000
G00 X30.7753 Y41.7995
G01 F100.00
G01 Z-0.1500
G01 F300.00
G01 X30.6919 Y41.9150
G01 X30.1710 Y42.5995
G00 Z2.0000
G00 X30.3218 Y42.5995
G01 F100.00
G01 Z-0.1500
G01 F300.00
G01 X30.7882 Y41.9864
G01 X30.9234 Y41.7995
G00 Z2.0000
G00 X31.0714 Y41.7995
G01 F100.00
G01 Z-0.1500
G01 F300.00
G01 X30.8846 Y42.0579
G01 X30.4726 Y42.5995
G01 X30.6234 Y42.5995
G01 X30.9810 Y42.1294
G01 X31.2195 Y41.7995
G00 Z2.0000
G00 X31.3675 Y41.7995
G01 F100.00
G01 Z-0.1500
G01 F300.00
G01 X31.0774 Y42.2009
G01 X30.7741 Y42.5995
G00 Z2.0000
G00 X30.9249 Y42.5995
G01 F100.00
G01 Z-0.1500
G01 F300.00
G01 X31.1738 Y42.2724
G01 X31.5156 Y41.7995
G01 X31.6636 Y41.7995
G01 X31.2702 Y42.3439
G01 X31.0757 Y42.5995
G00 Z2.0000
G00 X31.2264 Y42.5995
G01 F100.00
G01 Z-0.1500
G01 F300.00
G01 X31.3666 Y42.4153
